!!!!SEGMENT: pl-cz--ii-121--001_klakowski--missa-in-dis-kyrie.krn
!!!cenid: 18xx:878
!!!COM: Klakowski
!!!COM-rismID: pe30098487
!!!CDT: ~1800-~1899
!!!CNT:
!!!OPR: Missa in Dis
!!!OTL: Kyrie
!!!OMV: 001
!!!PDT:
!!!AGN: Sacred; Mass
!!!SMS-siglum: PL-CZ
!!!SMS-shelfmark: II-121
!!!SMS-shelfwork: 001-001 M
!!!SMS-variant:
!!!SMS-altvar:
!!!NIFC-rismSourceID: 300000590
!!!NIFC-islandoraID: pl-cz:32114
!!!URL-pdf-islandora: https://repozytorium.nifc.pl/islandora/object/pl-cz%3A32114/datastream/PDF/view
!!!URL-scan:
!!!ONB-nifc: UWAGA: części Mszy: Kyrie, Gloria, Credo, Et incarnatus, Et resurrexit, Sanctus, Benedictus, Agnus Dei, Dona nobis
!!!AIN: 1 alto 1 bass 2 clars 2 cor 1 organ 1 soprn 1 tenor 1 viola 2 violn
!!!key: E-
**kern	**fba	**dynam	**kern	**dynam	**kern	**dynam	**kern	**dynam	**kern	**text	**kern	**text	**kern	**text	**kern	**text	**dynam	**kern	**dynam	**kern	**dynam	**kern	**dynam	**kern	**dynam
*	*	*	*group4	*	*group4	*	*group4	*	*group3	*	*group3	*	*group3	*	*group3	*	*	*group2	*	*group2	*	*group1	*	*group1	*
*part12	*	*part12	*part11	*part11	*part10	*part10	*part9	*part9	*part8	*part8	*part7	*part7	*part6	*part6	*part5	*part5	*part5	*part4	*part4	*part3	*part3	*part2	*part2	*part1	*part1
*staff12	*	*	*staff11	*	*staff10	*	*staff9	*	*staff8	*staff8	*staff7	*staff7	*staff6	*staff6	*staff5	*staff5	*	*staff4	*	*staff3	*	*staff2	*	*staff1	*
*I"Organo	*	*	*I"Alto. Viola	*	*I"Violino Secundo	*	*I"Violino Primo.	*	*I"Baſso.	*	*I"Tenore	*	*I"Alto	*	*I"Canto	*	*	*I"Corno Secundo in DiS	*	*I"Corno Primo in DiS	*	*I"Clarinetto Secundo	*	*I"Clarinetto Primo in B.	*
*I'org	*	*	*I'a-vla	*	*I'vl 2	*	*I'vl 1	*	*I'B	*	*I'T	*	*I'A	*	*I'S	*	*	*I'cor 2	*	*I'cor 1	*	*I'cl 2	*	*I'cl 1	*
*Iorgan	*	*	*Iviola	*	*Ivioln	*	*Ivioln	*	*Ibass	*	*Itenor	*	*Ialto	*	*Isoprn	*	*	*Icor	*	*Icor	*	*Iclars	*	*Iclars	*
*ICklav	*	*	*ICstr	*	*ICstr	*	*ICstr	*	*ICvox	*	*ICvox	*	*ICvox	*	*ICvox	*	*	*ICbras	*	*ICbras	*	*ICww	*	*ICww	*
*IGcont	*	*	*	*	*	*	*	*	*IGcoro	*	*IGcoro	*	*IGcoro	*	*IGcoro	*	*	*	*	*	*	*	*	*	*
*>[A,B,C,B,D]	*	*	*>[A,B,C,B,D]	*	*>[A,B,C,B,D]	*	*>[A,B,C,B,D]	*	*>[A,B,C,B,D]	*	*>[A,B,C,B,D]	*	*>[A,B,C,B,D]	*	*>[A,B,C,B,D]	*	*	*>[A,B,C,B,D]	*	*>[A,B,C,B,D]	*	*>[A,B,C,B,D]	*	*>[A,B,C,B,D]	*
*clefF4	*	*	*clefC3	*	*clefG2	*	*clefG2	*	*clefF4	*	*clefC4	*	*clefC3	*	*clefC1	*	*	*clefG2	*	*clefG2	*	*clefG2	*	*clefG2	*
*	*	*	*	*	*	*	*	*	*	*	*	*	*	*	*	*	*	*ITrd5c9	*	*ITrd5c9	*	*ITrd1c2	*	*ITrd1c2	*
*k[b-e-a-]	*	*	*k[b-e-a-]	*	*k[b-e-a-]	*	*k[b-e-a-]	*	*k[b-e-a-]	*	*k[b-e-a-]	*	*k[b-e-a-]	*	*k[b-e-a-]	*	*	*k[b-e-a-]	*	*k[b-e-a-]	*	*k[b-e-a-]	*	*k[b-e-a-]	*
*E-:	*	*	*E-:	*	*E-:	*	*E-:	*	*E-:	*	*E-:	*	*E-:	*	*E-:	*	*	*	*	*	*	*	*	*	*
*M4/4	*	*	*M4/4	*	*M4/4	*	*M4/4	*	*M4/4	*	*M4/4	*	*M4/4	*	*M4/4	*	*	*M4/4	*	*M4/4	*	*M4/4	*	*M4/4	*
*met(c)	*	*	*met(c)	*	*met(c)	*	*met(c)	*	*met(c)	*	*met(c)	*	*met(c)	*	*met(c)	*	*	*met(c)	*	*met(c)	*	*met(c)	*	*met(c)	*
=1	=1	=1	=1	=1	=1	=1	=1	=1	=1	=1	=1	=1	=1	=1	=1	=1	=1	=1	=1	=1	=1	=1	=1	=1	=1
*>A	*	*	*>A	*	*>A	*	*>A	*	*>A	*	*>A	*	*>A	*	*>A	*	*	*>A	*	*>A	*	*>A	*	*>A	*
*all\right	*	*	*all\right	*	*all\right	*below	*all\right	*	*all\right	*	*all\right	*	*all\right	*	*all\right	*	*	*all\right	*	*all\right	*	*all\right	*	*all\right	*
!	!	!	!	!	!	!	!	!	!	!	!	!	!	!	!	!	!	!LO:TX:a:i:t=adagio	!	!LO:TX:a:i:t=adagio	!	!	!	!	!
!LO:TX:a:i:t=Adagio Maestoso	!	!	!	!	!LO:TX:b:i:t=Kyrie	!	!LO:TX:b:i:t=Kyrie	!	!	!	!LO:TX:a:t=4	!	!LO:TX:a:i:t=Kyrie	!	!LO:TX:a:t=4	!	!	!LO:TX:b:i:t=Kyrie	!	!LO:TX:b:i:t=Kyrie	!	!LO:TX:a:i:t=adagio	!	!LO:TX:a:i:t=Adagio Maestoso	!
!LO:TX:b:i:t=Kyrie	!	!LO:DY:rj:t=f.	!	!LO:DY:rj:t=f	!LO:TX:a:i:t=Adagio Maestoso	!LO:DY:rj:t=f	!LO:TX:a:i:t=Adagio	!LO:DY:a:t=f.	!LO:TX:a:i:t=Adagio Maestoso	!	!LO:TX:a:i:t=Adagio Maestoso	!	!LO:TX:a:i:t=Adagio Maestoso	!	!LO:TX:a:i:t=Adagio Maestoso	!	!	!LO:TX:t=P:problem=partia in Es	!	!LO:TX:t=P:problem=partia in Es	!	!LO:TX:b:i:t=Kyrie	!LO:DY:rj:t=f	!LO:TX:b:i:t=Kyrie	!LO:DY:rj:t=f.
8E-\L|	.	f	8e-'\L	f	8e-/L 8G/	f	8e-/L 8G/	f	00r	.	00r	.	00r	.	00r	.	.	8G/L	f	8e-\L	.	8b-\L	f	8ee-\L	f
16.E-\L|	.	.	(16.e-'\L	.	(16.e-'/L	.	16.e-/L	.	.	.	.	.	.	.	.	.	.	16.G/L	.	16.e-\L	.	16.b-\L	.	16.ee-\L	.
32E-\JJk|	.	.	32e-'\JJk)	.	32e-'/JJk)	.	32e-/JJk	.	.	.	.	.	.	.	.	.	.	32G/JJk	.	32e-\JJk	.	32b-\JJk	.	32ee-\JJk	.
8.E-\L|	.	.	8.e-'\L	.	8.e-/L	.	8.e-/L	.	.	.	.	.	.	.	.	.	.	4G/	.	4e-\	.	4b-\	.	4ee-\	.
16BB-\Jk|	.	.	16B-'\Jk	.	16B-/Jk	.	16B-/Jk	.	.	.	.	.	.	.	.	.	.	.	.	.	.	.	.	.	.
8E-\L|	.	.	8e-'\L	.	8e-/L 8G/	.	8e-/L 8G/	.	.	.	.	.	.	.	.	.	.	8G/L	.	8e-\L	.	8b-\L	.	8ee-\L	.
16.E-\L|	.	.	(16.e-'\L	.	(16.e-'/L	.	16.e-/L	.	.	.	.	.	.	.	.	.	.	16.G/L	f	16.e-\L	.	16.b-\L	.	16.ee-\L	.
32E-\JJk|	.	.	32e-'\JJk)	.	32e-'/JJk)	.	32e-/JJk	.	.	.	.	.	.	.	.	.	.	32G/JJk	.	32e-\JJk	.	32b-\JJk	.	32ee-\JJk	.
8E-\L|	.	.	8.e-\L	.	8.e-/L	.	8.e-/L	.	.	.	.	.	.	.	.	.	.	4G/	.	4e-\	.	4b-\	.	4ee-\	.
8BB-\J|	.	.	.	.	.	.	.	.	.	.	.	.	.	.	.	.	.	.	.	.	.	.	.	.	.
.	.	.	16B-\Jk	.	16B-/Jk	.	16B-/Jk	.	.	.	.	.	.	.	.	.	.	.	.	.	.	.	.	.	.
=2	=2	=2	=2	=2	=2	=2	=2	=2	=2	=2	=2	=2	=2	=2	=2	=2	=2	=2	=2	=2	=2	=2	=2	=2	=2
!LO:TX:a:i:t=Solo	!	!	!	!	!	!	!	!	!	!	!	!	!	!	!	!	!	!	!	!	!	!	!	!	!
!LO:TX:b:i:t=pedale	!	!	!	!	!	!	!	!	!	!	!	!	!	!	!	!	!	!	!	!	!	!	!	!	!
4E-\	.	.	4e-\	.	8e-/L 8G/	.	8e-/L 8G/	.	.	.	.	.	.	.	.	.	.	8G/	.	8e-\	.	8b-\	.	8ee-\	.
!	!	!	!	!	!LO:TX:a:i:t=dol	!LO:DY:t=p	!LO:TX:a:i:t=dol	!	!	!	!	!	!	!	!	!	!	!	!	!	!	!	!	!	!
.	.	.	.	.	(16.g'/L	p	(16.b-'/L	.	.	.	.	.	.	.	.	.	.	8r	.	8r	.	8r	.	8r	.
.	.	.	.	.	32g'/JJk)	.	32b-'/JJk)	.	.	.	.	.	.	.	.	.	.	.	.	.	.	.	.	.	.
4r	.	.	4r	.	(16a-/LL	.	(16cc\LL	.	.	.	.	.	.	.	.	.	.	4r	.	4r	.	4r	.	4r	.
.	.	.	.	.	16b-/)	.	16dd\)	.	.	.	.	.	.	.	.	.	.	.	.	.	.	.	.	.	.
.	.	.	.	.	(16cc/	.	(16ee-\	.	.	.	.	.	.	.	.	.	.	.	.	.	.	.	.	.	.
.	.	.	.	.	16a-/JJ)	.	16cc\JJ)	.	.	.	.	.	.	.	.	.	.	.	.	.	.	.	.	.	.
!	!	!	!	!	!	!LO:DY:t=f	!	!	!	!	!	!	!	!	!	!	!	!	!	!	!	!	!	!	!
4E-\	.	.	4B-/	.	8g/L	f	8b-'\L	.	.	.	.	.	.	.	.	.	.	8G/	.	8e-\	.	8b-\	.	8ee-\	.
!	!	!	!	!	!	!LO:DY:t=p	!	!	!	!	!	!	!	!	!	!	!	!	!	!	!	!	!	!	!
.	.	.	.	.	(16.g/L	p	(16.b-'\L	.	.	.	.	.	.	.	.	.	.	8r	.	8r	.	8r	.	8r	.
.	.	.	.	.	32g/JJk)	.	32b-'\JJk)	.	.	.	.	.	.	.	.	.	.	.	.	.	.	.	.	.	.
4r	.	.	4r	.	16g/LL	.	(16b-\LL	.	.	.	.	.	.	.	.	.	.	4r	.	4r	.	4r	.	4r	.
.	.	.	.	.	16g/	.	16bn\)	.	.	.	.	.	.	.	.	.	.	.	.	.	.	.	.	.	.
.	.	.	.	.	16a-/	.	(16cc\	.	.	.	.	.	.	.	.	.	.	.	.	.	.	.	.	.	.
.	.	.	.	.	16f/JJ	.	16a-\JJ)	.	.	.	.	.	.	.	.	.	.	.	.	.	.	.	.	.	.
=3	=3	=3	=3	=3	=3	=3	=3	=3	=3	=3	=3	=3	=3	=3	=3	=3	=3	=3	=3	=3	=3	=3	=3	=3	=3
!	!	!	!	!	!	!	!	!	!	!	!	!	!	!	!	!	!	!	!	!	!	!	!	!	!LO:DY:t=p.
4E-\	.	.	4B-/	.	8e-/L	.	8g/L|	.	.	.	.	.	.	.	.	.	.	8G/L	.	8e-\L	.	8ee-\L	.	8gg\L	p
!	!	!	!	!	!	!	!	!	!	!	!	!	!	!	!	!	!	!	!LO:DY:t=f	!	!	!	!LO:DY:t=p	!	!
.	.	.	.	.	16.e-/L	.	(16.g'/L	.	.	.	.	.	.	.	.	.	.	16.G/L	f	16.e-\L	.	16.ee-\L	p	16.gg\L	.
.	.	.	.	.	32e-/JJk	.	32g'/JJk)	.	.	.	.	.	.	.	.	.	.	32G/JJk	.	32e-\JJk	.	32ee-\JJk	.	32gg\JJk	.
!LO:TX:t=P:problem=mixed beam	!	!	!	!LO:DY:t=p	!	!	!	!	!	!	!	!	!	!	!	!	!	!	!	!	!	!	!	!	!
8B-\L	6 4	.	8B-/L	p	16.g/LL	.	(16.b-/LL	.	.	.	.	.	.	.	.	.	.	8e-\L	.	8g'\L	.	16.gg\LL	.	16bb-\LL	.
.	.	.	.	.	.	.	.	.	.	.	.	.	.	.	.	.	.	.	.	.	.	.	.	16gg\	.
.	.	.	.	.	32e-/K	.	32g/K)	.	.	.	.	.	.	.	.	.	.	.	.	.	.	32ee-\K	.	.	.
8BB-/J	5 3	.	8B-/J	.	16.f/	.	(16.a-/	.	.	.	.	.	.	.	.	.	.	8B-\J	.	8f'\J	.	16.ff\	.	16aa-\	.
.	.	.	.	.	.	.	.	.	.	.	.	.	.	.	.	.	.	.	.	.	.	.	.	16ff\JJ	.
.	.	.	.	.	32A-/JJk	.	32f/JJk)	.	.	.	.	.	.	.	.	.	.	.	.	.	.	32dd\JJk	.	.	.
!	!	!	!	!	!	!	!	!	!	!	!	!	!	!	!	!	!	!	!	!	!	!	!LO:DY:t=f	!	!
8E-\L	3_ 1_	.	16E-/LL	.	(16G/LL	.	8e-/	.	.	.	.	.	.	.	.	.	.	4G/	.	4e-\	.	4b-\	f	4ee-\	.
!	!	!	!	!	!	!LO:DY:t=p	!	!	!	!	!	!	!	!	!	!	!	!	!	!	!	!	!	!	!
.	.	.	16E-/	.	16B-/)	p	.	.	.	.	.	.	.	.	.	.	.	.	.	.	.	.	.	.	.
!	!	!	!	!LO:DY:t=p	!	!	!	!	!	!	!	!	!	!	!	!	!	!	!	!	!LO:DY:t=p	!	!	!	!
8E-\	.	.	16E-/	p	(16G/	.	16r	.	.	.	.	.	.	.	.	.	.	.	.	.	p	.	.	.	.
.	.	.	16E-/JJ	.	16B-/JJ)	.	16g'/	.	.	.	.	.	.	.	.	.	.	.	.	.	.	.	.	.	.
*	*	*	*tremolo	*	*	*	*	*	*	*	*	*	*	*	*	*	*	*	*	*	*	*	*	*	*
8E-\	4_ 2_	.	16E-/LL	.	16A-/LL	.	(16a-/LL	.	.	.	.	.	.	.	.	.	.	4BB-/	.	4B-/	.	4b-\	.	4ff\	.
.	.	.	16E-/	.	16B-/	.	16f/)	.	.	.	.	.	.	.	.	.	.	.	.	.	.	.	.	.	.
8E-\J	.	.	16E-/	.	16A-/	.	(16f/	.	.	.	.	.	.	.	.	.	.	.	.	.	.	.	.	.	.
.	.	.	16E-/JJ	.	16B-/JJ	.	16d/JJ)	.	.	.	.	.	.	.	.	.	.	.	.	.	.	.	.	.	.
!	!	!	!	!	!LO:LB:g=original	!	!LO:LB:g=original	!	!	!	!	!	!	!	!	!	!	!	!	!	!	!	!	!	!
=4	=4	=4	=4	=4	=4	=4	=4	=4	=4	=4	=4	=4	=4	=4	=4	=4	=4	=4	=4	=4	=4	=4	=4	=4	=4
*	*	*	*	*	*	*	*	*	*	*	*	*	*	*	*	*	*	*ITrd-2c-3	*	*	*	*	*	*	*
*	*	*	*	*	*	*	*	*	*	*	*	*	*	*	*	*	*	*clefF4	*	*2\right	*	*2\right	*	*	*
8E-\L	3_ 1_	.	16E-/LL	pp	(16G/LL	.	8e-/	.	.	.	.	.	.	.	.	.	.	2EE-/	.	2e-\	.	2b-\	.	4ee-\	.
.	.	.	16E-/	.	16B-/)	.	.	.	.	.	.	.	.	.	.	.	.	.	.	.	.	.	.	.	.
8E-\	.	.	16E-/	.	(16G/	.	16r	.	.	.	.	.	.	.	.	.	.	.	.	.	.	.	.	.	.
.	.	.	16E-/	.	16B-/JJ)	.	16g/	.	.	.	.	.	.	.	.	.	.	.	.	.	.	.	.	.	.
8E-\	4_ 2_	.	16E-/	.	(16A-/LL	.	(16a-/LL	.	.	.	.	.	.	.	.	.	.	.	.	.	.	.	.	4ff\	.
.	.	.	16E-/	.	16B-/)	.	16f/)	.	.	.	.	.	.	.	.	.	.	.	.	.	.	.	.	.	.
8E-\J	.	.	16E-/	.	(16A-/	.	(16f/	.	.	.	.	.	.	.	.	.	.	.	.	.	.	.	.	.	.
.	.	.	16E-/JJ	.	16B-/JJ)	.	16d/JJ)	.	.	.	.	.	.	.	.	.	.	.	.	.	.	.	.	.	.
*	*	*	*Xtremolo	*	*	*	*	*	*	*	*	*	*	*	*	*	*	*	*	*	*	*	*	*	*
!	!	!	!	!	!	!	!	!	!	!	!	!	!	!	!	!	!	!LO:LB:g=original	!	!	!	!	!	!	!
8E-\L	5_ 3_	.	8B-/L	.	8B-/L	.	8e-/L	.	.	.	.	.	.	.	.	.	.	8EE-/L	.	8e-\L	.	8b-\L	.	8ee-\L	.
8E-\J	.	.	8B-/J	.	8B-/J	.	8e-/J	.	.	.	.	.	.	.	.	.	.	8EE-/J	.	8e-\J	.	8b-\J	.	8ee-\J	.
4E-\	.	.	4B-/	.	4B-/	.	4e-/ 4G/	.	.	.	.	.	.	.	.	.	.	4EE-/	.	4e-\	.	4b-\	.	4ee-\	.
!	!	!	!	!	!	!	!	!	!	!	!	!	!	!	!	!	!	!	!	!LO:LB:g=original	!	!	!	!	!
=5	=5	=5	=5	=5	=5	=5	=5	=5	=5	=5	=5	=5	=5	=5	=5	=5	=5	=5	=5	=5	=5	=5	=5	=5	=5
*	*	*	*	*	*	*	*	*	*	*	*	*	*	*	*	*	*	*ITrd5c9	*	*	*	*	*	*	*
*	*	*	*	*	*	*	*	*	*	*	*	*	*	*	*	*	*	*clefG2	*	*	*	*	*	*	*
!LO:TX:a:i:t=Tutti	!	!	!	!LO:DY:t=f	!LO:TX:b:i:t=Tutti	!	!	!LO:DY:b:t=f.	!	!	!	!	!	!	!	!	!LO:DY:a:t=f	!	!	!	!	!	!	!	!
8E-\	5_ 3_	.	1B-/	f	16r	.	16r	f	4.E-\	Ky-	4.e-\	Ky-	4.g\	Ky-	4.b-\	Ky-	f	1G/	.	1e-/	.	1ee-\	.	1gg\	.
.	.	.	.	.	16g/LL|	.	16b-\LL|	.	.	.	.	.	.	.	.	.	.	.	.	.	.	.	.	.	.
8r	.	.	.	.	(16g/	.	(16b-\	.	.	.	.	.	.	.	.	.	.	.	.	.	.	.	.	.	.
.	x	.	.	.	16e-/JJ)	.	16g\JJ)	.	.	.	.	.	.	.	.	.	.	.	.	.	.	.	.	.	.
8E-\	.	.	.	.	16r	.	16r	.	.	.	.	.	.	.	.	.	.	.	.	.	.	.	.	.	.
.	.	.	.	.	16g/LL|	.	16b-\LL|	.	.	.	.	.	.	.	.	.	.	.	.	.	.	.	.	.	.
8r	.	.	.	.	(16g/	.	(16b-\	.	8E-\	-ri-	8e-\	-ri-	8g\	-ri-	8b-\	-ri-	.	.	.	.	.	.	.	.	.
.	.	.	.	.	16b-/JJ)	.	16ee-\JJ)	.	.	.	.	.	.	.	.	.	.	.	.	.	.	.	.	.	.
*	*	*	*	*	*	*	*	*	*2\right	*	*2\right	*	*2\right	*	*2\right	*	*	*	*	*	*	*	*	*	*
8E-\	.	.	.	.	16r	.	16r	.	2E-\	-e	2e-\	-e	2g\	-e	2b-\	-e	.	.	.	.	.	.	.	.	.
.	.	.	.	.	16g/LL|	.	16b-\LL|	.	.	.	.	.	.	.	.	.	.	.	.	.	.	.	.	.	.
8r	.	.	.	.	(16g/	.	(16b-\	.	.	.	.	.	.	.	.	.	.	.	.	.	.	.	.	.	.
.	.	.	.	.	16e-/JJ)	.	16g\JJ)	.	.	.	.	.	.	.	.	.	.	.	.	.	.	.	.	.	.
8E-\	.	.	.	.	16r	.	16r	.	.	.	.	.	.	.	.	.	.	.	.	.	.	.	.	.	.
.	.	.	.	.	16g/LL|	.	16b-\LL|	.	.	.	.	.	.	.	.	.	.	.	.	.	.	.	.	.	.
8r	.	.	.	.	(16g/	.	(16b-\	.	.	.	.	.	.	.	.	.	.	.	.	.	.	.	.	.	.
.	.	.	.	.	16b-/JJ)	.	16ee-\JJ)	.	.	.	.	.	.	.	.	.	.	.	.	.	.	.	.	.	.
!	!	!	!LO:LB:g=original	!	!	!	!	!	!	!	!	!	!	!	!	!	!	!	!	!	!	!	!	!	!
=6	=6	=6	=6	=6	=6	=6	=6	=6	=6	=6	=6	=6	=6	=6	=6	=6	=6	=6	=6	=6	=6	=6	=6	=6	=6
8A-\	5_ 3_	.	1c\	.	16r	.	16r	.	2E-\	e-	2e-\	e-	2a-\	e-	2cc\	e-	.	1E-/	.	1e-/	.	1ee-\	.	1aa-\	.
.	.	.	.	.	16a-/LL|	.	16cc\LL|	.	.	.	.	.	.	.	.	.	.	.	.	.	.	.	.	.	.
8r	.	.	.	.	(16a-/	.	(16cc\	.	.	.	.	.	.	.	.	.	.	.	.	.	.	.	.	.	.
.	.	.	.	.	16e-/JJ)	.	16a-\JJ)	.	.	.	.	.	.	.	.	.	.	.	.	.	.	.	.	.	.
8A-\	.	.	.	.	16r	.	16r	.	.	.	.	.	.	.	.	.	.	.	.	.	.	.	.	.	.
.	.	.	.	.	16a-/LL|	.	16cc\LL|	.	.	.	.	.	.	.	.	.	.	.	.	.	.	.	.	.	.
8r	x	.	.	.	(16a-/	.	(16cc\	.	.	.	.	.	.	.	.	.	.	.	.	.	.	.	.	.	.
.	.	.	.	.	16cc/JJ)	.	16ee-\JJ)	.	.	.	.	.	.	.	.	.	.	.	.	.	.	.	.	.	.
!LO:LB:g=original	!	!	!	!	!	!	!	!	!	!	!	!	!	!	!	!	!	!	!	!	!	!	!	!	!
8A-\	.	.	.	.	16r	.	16r	.	4E-\	-lei-	4e-\	-lei-	4a-\	-lei-	4cc\	-lei-	.	.	.	.	.	.	.	.	.
.	.	.	.	.	16a-/LL|	.	16cc\LL|	.	.	.	.	.	.	.	.	.	.	.	.	.	.	.	.	.	.
8r	.	.	.	.	(16a-/	.	(16cc\	.	.	.	.	.	.	.	.	.	.	.	.	.	.	.	.	.	.
!	!	!	!	!	!LO:SIC:v:s=16e-/JJ	!	!	!	!	!	!	!	!	!	!	!	!	!	!	!	!	!	!	!	!
.	.	.	.	.	16f/JJ)	.	16a-\JJ)	.	.	.	.	.	.	.	.	.	.	.	.	.	.	.	.	.	.
8A-\	.	.	.	.	16r	.	16r	.	4E-\	-ſon	4e-\	-son	4a-\	-ſon	4cc\	-ſon	.	.	.	.	.	.	.	.	.
.	.	.	.	.	16a-/LL|	.	16cc\LL|	.	.	.	.	.	.	.	.	.	.	.	.	.	.	.	.	.	.
8r	.	.	.	.	(16a-/	.	(16cc\	.	.	.	.	.	.	.	.	.	.	.	.	.	.	.	.	.	.
.	.	.	.	.	16cc/JJ)	.	16ee-\JJ)	.	.	.	.	.	.	.	.	.	.	.	.	.	.	.	.	.	.
!	!	!	!	!	!	!	!	!	!	!	!	!	!	!	!	!	!	!	!	!	!	!LO:LB:g=original	!	!	!
=7	=7	=7	=7	=7	=7	=7	=7	=7	=7	=7	=7	=7	=7	=7	=7	=7	=7	=7	=7	=7	=7	=7	=7	=7	=7
8E-\	5_ 3_	.	1B-/	.	16r	.	16r	.	4.E-\	Ky-	4.e-\	Ky-	4.g\	Ky-	4.b-\	Ky-	.	1G/	.	1e-/	.	1ee-\	.	1gg\	.
.	.	.	.	.	16g/LL|	.	16b-/LL|	.	.	.	.	.	.	.	.	.	.	.	.	.	.	.	.	.	.
8r	.	.	.	.	(16g/	.	(16b-/	.	.	.	.	.	.	.	.	.	.	.	.	.	.	.	.	.	.
.	.	.	.	.	16e-/JJ)	.	16g/JJ)	.	.	.	.	.	.	.	.	.	.	.	.	.	.	.	.	.	.
!	!	!	!	!	!LO:LB:g=original	!	!LO:LB:g=original	!	!	!	!	!	!	!	!	!	!	!	!	!	!	!	!	!	!
8E-\	.	.	.	.	16r	.	16r	.	.	.	.	.	.	.	.	.	.	.	.	.	.	.	.	.	.
.	x	.	.	.	16g/LL|	.	16b-\LL|	.	.	.	.	.	.	.	.	.	.	.	.	.	.	.	.	.	.
8r	.	.	.	.	(16g/	.	(16b-\	.	8E-\	-ri-	8e-\	-ri-	8g\	-ri-	8b-\	-ri-	.	.	.	.	.	.	.	.	.
.	.	.	.	.	16b-/JJ)	.	16ee-\JJ)	.	.	.	.	.	.	.	.	.	.	.	.	.	.	.	.	.	.
8E-\	.	.	.	.	16r	.	16r	.	2E-\	-e	2e-\	-e	2g\	-e	2b-\	-e	.	.	.	.	.	.	.	.	.
.	.	.	.	.	16g/LL|	.	16b-/LL|	.	.	.	.	.	.	.	.	.	.	.	.	.	.	.	.	.	.
8r	.	.	.	.	(16g/	.	(16b-/	.	.	.	.	.	.	.	.	.	.	.	.	.	.	.	.	.	.
.	.	.	.	.	16e-/JJ)	.	16g/JJ)	.	.	.	.	.	.	.	.	.	.	.	.	.	.	.	.	.	.
8E-\	.	.	.	.	16r	.	16r	.	.	.	.	.	.	.	.	.	.	.	.	.	.	.	.	.	.
.	.	.	.	.	16g/LL|	.	16b-\LL|	.	.	.	.	.	.	.	.	.	.	.	.	.	.	.	.	.	.
8r	.	.	.	.	(16g/	.	(16b-\	.	.	.	.	.	.	.	.	.	.	.	.	.	.	.	.	.	.
.	.	.	.	.	16b-/JJ)	.	16ee-\JJ)	.	.	.	.	.	.	.	.	.	.	.	.	.	.	.	.	.	.
!	!	!	!	!	!	!	!	!	!	!	!	!	!	!	!	!	!	!	!	!	!	!	!	!LO:LB:g=original	!
=8	=8	=8	=8	=8	=8	=8	=8	=8	=8	=8	=8	=8	=8	=8	=8	=8	=8	=8	=8	=8	=8	=8	=8	=8	=8
8r	.	.	8r	.	16g/LL	.	(16b-/LL	.	8r	.	8c\	e-	16g\LL	e-	16b-\LL	e-	.	2r	.	2r	.	16gg\LL	.	16bb-\LL	.
.	.	.	.	.	16f/JJ	.	16a-/JJ)	.	.	.	.	.	16f\JJ	.	16aa-\JJ	.	.	.	.	.	.	16ff\JJ	.	16aa-\JJ	.
8BB-\L	7_	.	8B-\L|	.	4f/	.	4a-/	.	8BB-/L	e-	4d\	.	4f\	.	4aa-\	.	.	.	.	.	.	4ff\	.	4aa-\	.
8D\	.	.	8d\|	.	.	.	.	.	8D/	.	.	.	.	.	.	.	.	.	.	.	.	.	.	.	.
!	!	!	!	!LO:DY:t=p	!	!	!	!	!	!	!LO:SIC:v:s=8B-\	!	!	!	!	!	!	!	!	!	!	!	!	!	!
8E-\J	3	.	8e-\J|	p	8e-/	.	8g/	.	8E-/J	.	8c\	.	8e-\	.	8gg\	.	.	.	.	.	.	8ee-\	.	8gg\	.
4B-\	6 4	.	4b-\	.	(16e-/LL	.	(16g/LL	.	4B-\	-lei-	4B-\	-lei-	16e-\LL	-lei-	16gg\LL	-lei-	.	8BB-/L	.	8B-/L	.	16ee-\LL	.	16gg\LL	.
.	.	.	.	.	16d/)	.	16f/)	.	.	.	.	.	16d\J	.	16ff\J	.	.	.	.	.	.	16dd\	.	16ff\	.
.	5 3	.	.	.	16d/	.	16f/|	.	.	.	.	.	8d\J	.	8ff\J	.	.	16BB-/L	.	16B-/L	.	16dd\	.	16ff\	.
.	.	.	.	.	16d/JJ	.	16f/JJ|	.	.	.	.	.	.	.	.	.	.	16BB-/JJ	.	16B-/JJ	.	16dd\JJ	.	16ff\JJ	.
4BB-/	5 3	.	4B-/	.	4d/	.	4f/	.	4BB-/	-ſon	4B-\	-son	4d\	-son	4ff\	-son	.	4BB-/	.	4B-/	.	4dd\	.	4ff\	.
=9	=9	=9	=9	=9	=9	=9	=9	=9	=9	=9	=9	=9	=9	=9	=9	=9	=9	=9	=9	=9	=9	=9	=9	=9	=9
*	*	*	*	*	*tremolo	*	*	*below	*	*	*	*	*	*	*	*	*	*	*	*	*	*	*	*	*
!	!	!	!	!	!	!LO:DY:rj:t=p	!	!LO:DY:rj:t=p.	!	!	!	!	!	!	!	!	!	!	!LO:DY:rj:t=p	!	!	!	!	!	!
4BB-/	7	.	(>4B-/	.	16B-/LL	p	16r	p	0r	.	0r	.	0r	.	0r	.	.	8BB-/L	p	8B-/L	.	2r	.	2r	.
.	.	.	.	.	16B-/	.	16B-'/LL	.	.	.	.	.	.	.	.	.	.	.	.	.	.	.	.	.	.
.	.	.	.	.	16B-/	.	16B-'/	.	.	.	.	.	.	.	.	.	.	8BB-/	.	8B-/	.	.	.	.	.
!	!	!	!	!	!	!	!	!	!	!	!	!	!	!	!	!	!	!	!	!	!LO:DY:t=p	!	!	!	!
.	.	.	.	.	16B-/	.	16B-'/JJ	.	.	.	.	.	.	.	.	.	.	.	.	.	p	.	.	.	.
8D/L	5 3	.	8d/L	.	16B-/	.	(16a-/LL	.	.	.	.	.	.	.	.	.	.	8BB-/	.	8B-/	.	.	.	.	.
.	.	.	.	.	16B-/	.	16f/)	.	.	.	.	.	.	.	.	.	.	.	.	.	.	.	.	.	.
8BB-/J	.	.	8B-/J	.	16B-/	.	(16e-/	.	.	.	.	.	.	.	.	.	.	8BB-/J	.	8B-/J	.	.	.	.	.
.	.	.	.	.	16B-/JJ	.	16d/JJ)	.	.	.	.	.	.	.	.	.	.	.	.	.	.	.	.	.	.
*tremolo	*	*	*tremolo	*	*Xtremolo	*	*	*	*	*	*	*	*	*	*	*	*	*	*	*	*	*	*	*	*
*2\right	*	*	*	*	*	*	*	*	*	*	*	*	*	*	*	*	*	*	*	*	*	*	*	*	*
!	!	!LO:DY:t=p.	!	!	!	!	!	!	!	!	!	!	!	!	!	!	!	!	!	!	!	!	!	!	!
8E-\L	3	p	8B-/L	.	16r	.	16r	.	.	.	.	.	.	.	.	.	.	8G/	.	8e-\	.	16r	.	16r	.
.	.	.	.	.	16e-/LL|	.	16g/LL|	.	.	.	.	.	.	.	.	.	.	.	.	.	.	16ee-\LL	.	16gg\LL	.
8E-\	.	.	8B-/	.	(16g/	.	(16b-/	.	.	.	.	.	.	.	.	.	.	8r	.	8r	.	16gg\	.	16bb-\	.
.	.	.	.	.	16e-/JJ)	.	16g/JJ)	.	.	.	.	.	.	.	.	.	.	.	.	.	.	16ee-\JJ	.	16gg\JJ	.
8E-\	.	.	8B-/	.	(16g/LL	.	(16b-/LL	.	.	.	.	.	.	.	.	.	.	4r	.	4r	.	16gg\LL	.	16bb-\LL	.
.	.	.	.	.	16f/)	.	16a-/)	.	.	.	.	.	.	.	.	.	.	.	.	.	.	16ff\	.	16aa-\	.
8E-\J	.	.	8B-/)J	.	(16f/	.	(16a-/	.	.	.	.	.	.	.	.	.	.	.	.	.	.	16ff\	.	16aa-\	.
.	.	.	.	.	16e-/JJ)	.	16g/JJ)	.	.	.	.	.	.	.	.	.	.	.	.	.	.	16ee-\JJ	.	16gg\JJ	.
!	!	!	!	!	!	!	!	!	!	!	!	!	!	!	!	!	!	!LO:LB:g=original	!	!	!	!	!	!	!
=10	=10	=10	=10	=10	=10	=10	=10	=10	=10	=10	=10	=10	=10	=10	=10	=10	=10	=10	=10	=10	=10	=10	=10	=10	=10
*	*	*	*	*	*	*	*	*	*	*	*	*	*	*	*	*	*	*tremolo	*	*	*	*	*	*	*
*	*	*	*Xtremolo	*	*tremolo	*	*	*	*	*	*	*	*	*	*	*	*	*	*	*tremolo	*	*	*	*	*
!	!	!LO:DY:t=f	!LO:TX:t=P:problem=t. 10 - repetycja	!	!	!	!	!	!	!	!	!	!	!	!	!	!	!	!	!	!	!	!	!LO:TX:t=P:problem=t. 10 - repetycja	!
4BB-/	7_ 5_	f	(>4B-/yy	.	16B-/LL	.	16r	.	.	.	.	.	.	.	.	.	.	8BB-/L	.	8B-/L	.	2r	.	2ryy	.
.	.	.	.	.	16B-/	.	16B-'/LL	.	.	.	.	.	.	.	.	.	.	.	.	.	.	.	.	.	.
.	.	.	.	.	16B-/	.	16B-'/	.	.	.	.	.	.	.	.	.	.	8BB-/	.	8B-/	.	.	.	.	.
.	.	.	.	.	16B-/	.	16B-|/JJ	.	.	.	.	.	.	.	.	.	.	.	.	.	.	.	.	.	.
8D/L	.	.	8d/Lyy	.	16B-/	.	(16a-/LL	.	.	.	.	.	.	.	.	.	.	8BB-/	.	8B-/	.	.	.	.	.
.	.	.	.	.	16B-/	.	16f/)	.	.	.	.	.	.	.	.	.	.	.	.	.	.	.	.	.	.
8BB-/J	x	.	8B-/Jyy	.	16B-/	.	(16e-/	.	.	.	.	.	.	.	.	.	.	8BB-/J	.	8B-/J	.	.	.	.	.
.	.	.	.	.	16B-/JJ	.	16d/JJ)	.	.	.	.	.	.	.	.	.	.	.	.	.	.	.	.	.	.
*	*	*	*	*	*	*	*	*	*	*	*	*	*	*	*	*	*	*	*	*Xtremolo	*	*	*	*	*
*	*	*	*tremolo	*	*Xtremolo	*	*	*	*	*	*	*	*	*	*	*	*	*Xtremolo	*	*	*	*	*	*	*
!	!	!LO:DY:t=p.	!	!	!	!	!	!	!	!	!	!	!	!	!	!	!	!	!	!	!	!	!	!	!
8E-\L	3	p	8B-/yyL	.	16r	.	16r	.	.	.	.	.	.	.	.	.	.	8G/	.	8e-\	.	16r	.	16ryy	.
.	.	.	.	.	16e-/LL	.	16g/LL|	.	.	.	.	.	.	.	.	.	.	.	.	.	.	16ee-\LL	.	16gg\LLyy	.
8E-\	.	.	8B-/yy	.	16g/	.	(16b-/	.	.	.	.	.	.	.	.	.	.	8r	.	8r	.	16gg\	.	16bb-\yy	.
.	.	.	.	.	16e-/JJ	.	16g/JJ)	.	.	.	.	.	.	.	.	.	.	.	.	.	.	16ee-\JJ	.	16gg\JJyy	.
8E-\	.	.	8B-/yy	.	(16g/LL	.	(16b-/LL	.	.	.	.	.	.	.	.	.	.	4r	.	4r	.	(16gg\LL	.	16bb-\LLyy	.
.	.	.	.	.	16f/)	.	16a-/)	.	.	.	.	.	.	.	.	.	.	.	.	.	.	16ff\)	.	16aa-\yy	.
8E-\J	.	.	8B-/)yyJ	.	(16f/	.	(16a-/	.	.	.	.	.	.	.	.	.	.	.	.	.	.	(16ff\	.	16aa-\yy	.
.	.	.	.	.	16e-/JJ)	.	16g/JJ)	.	.	.	.	.	.	.	.	.	.	.	.	.	.	16ee-\JJ)	.	16gg\JJyy	.
*Xtremolo	*	*	*Xtremolo	*	*	*	*	*	*	*	*	*	*	*	*	*	*	*	*	*	*	*	*	*	*
!	!	!	!	!	!LO:LB:g=original	!	!LO:LB:g=original	!	!	!	!	!	!	!	!	!	!	!	!	!	!	!	!	!	!
=11	=11	=11	=11	=11	=11	=11	=11	=11	=11	=11	=11	=11	=11	=11	=11	=11	=11	=11	=11	=11	=11	=11	=11	=11	=11
!	!	!LO:DY:t=f.	!	!	!	!	!	!	!	!	!	!	!	!	!	!	!	!	!	!LO:N:vis=4	!	!	!	!	!
2A-\	3	f	2c/	.	16r	.	16r	.	2r	.	2r	.	8r	.	8r	.	.	8E-/	.	8e-\	.	2r	.	2r	.
!	!	!	!	!	!	!LO:DY:t=f	!	!LO:DY:t=f.	!	!	!	!	!	!	!	!	!	!	!	!	!	!	!	!	!
.	.	.	.	.	16a-/LL	f	16cc'\LL	f	.	.	.	.	.	.	.	.	.	.	.	.	.	.	.	.	.
.	.	.	.	.	16a-/	.	16cc'\	.	.	.	.	.	16a-\	Ky-	16cc\	Ky-	.	8r	.	8r	.	.	.	.	.
.	.	.	.	.	16a-/JJ	.	16cc'\JJ	.	.	.	.	.	16a-\	-ri-	16cc\	-ri-	.	.	.	.	.	.	.	.	.
.	.	.	.	.	16cc/LL	.	(16ee-\LL	.	.	.	.	.	16cc\LL	-e-	16ee-\LL	-e	.	4r	.	4r	.	.	.	.	.
.	.	.	.	.	16a-/	.	16cc\)	.	.	.	.	.	16a-\	.	16cc\JJ	.	.	.	.	.	.	.	.	.	.
.	.	.	.	.	16g/	.	(16b-\	.	.	.	.	.	16g\	.	16b-\LL	e-	.	.	.	.	.	.	.	.	.
.	.	.	.	.	16f/JJ	.	16a-\JJ)	.	.	.	.	.	16f\JJ	.	16a-\JJ	.	.	.	.	.	.	.	.	.	.
!LO:TX:t=P:problem=mixed beam	!	!	!	!	!	!	!	!	!	!	!	!	!LO:LB:g=original	!	!	!	!	!	!	!LO:LB:g=original	!	!	!	!	!
8B-\L	6 4	.	8B-/L	.	8e-/L	.	8g/L	.	8B-\	e-	8e-\	e-	(8e-\L	-lei-	8g/L	-lei-	.	8e-\L	.	8g\L	.	8ee-\L	.	8gg\L	.
8BB-/J	5 3	.	8B-/J	.	8A-T/J	.	8fT/J	.	8BB-/	-lei-	8d\	-lei-	8d\J)	.	8f/J	.	.	8B-\J	.	8f\J	.	8dd\J	.	8ff\J	.
4E-\	.	.	4B-/	.	4G/	.	4e-/	.	4E-\	-ſon	4e-\	-ſon	4e-\	-son	4g/	-ſon	.	4G/	.	4e-\	.	4b-\	.	4ee-\	.
!	!	!	!	!	!	!	!	!	!LO:LB:g=original	!	!	!	!	!	!	!	!	!	!	!	!	!	!	!	!
=12	=12	=12	=12	=12	=12	=12	=12	=12	=12	=12	=12	=12	=12	=12	=12	=12	=12	=12	=12	=12	=12	=12	=12	=12	=12
!LO:TX:a:i:t=Solo	!	!	!	!	!	!LO:DY:t=p	!	!LO:DY:t=p.	!LO:TX:a:t=6	!	!LO:TX:a:t=6	!	!	!	!	!	!	!LO:TX:a:t=1	!	!	!	!LO:TX:a:i:t=Solo	!	!LO:TX:a:i:t=Solo	!
4E-\	.	.	4e-\	.	8r	p	8r	p	00r	.	00r	.	00r	.	0r	.	.	1r	.	1r	.	16gg\LL	.	16bb-\LL	.
.	.	.	.	.	.	.	.	.	.	.	.	.	.	.	.	.	.	.	.	.	.	32ff\L	.	32aa-\L	.
.	.	.	.	.	.	.	.	.	.	.	.	.	.	.	.	.	.	.	.	.	.	32ee-\JJJ	.	32gg\JJJ	.
.	.	.	.	.	8e-/L	.	8e-/L	.	.	.	.	.	.	.	.	.	.	.	.	.	.	4ee-\	.	4gg\	.
!LO:TX:b:i:t=pedale	!	!	!	!	!	!	!	!	!	!	!	!	!	!	!	!	!	!	!	!	!	!	!	!	!
4r	.	.	4r	.	8g/	.	8g/	.	.	.	.	.	.	.	.	.	.	.	.	.	.	.	.	.	.
.	.	.	.	.	8e-/J	.	8e-/J	.	.	.	.	.	.	.	.	.	.	.	.	.	.	8gg\	.	8bb-\	.
!	!	!	!	!	!	!	!	!	!	!	!	!	!	!	!	!	!	!	!	!	!	!LO:LB:g=original	!	!	!
4BB-/	.	.	4B-/	.	8r	.	8r	.	.	.	.	.	.	.	.	.	.	.	.	.	.	16ff\LL	.	16aa-\LL	.
.	.	.	.	.	.	.	.	.	.	.	.	.	.	.	.	.	.	.	.	.	.	32ee-\L	.	32gg\L	.
.	.	.	.	.	.	.	.	.	.	.	.	.	.	.	.	.	.	.	.	.	.	32dd\JJJ	.	32ff\JJJ	.
.	.	.	.	.	8d/L	.	8d/L	.	.	.	.	.	.	.	.	.	.	.	.	.	.	4dd\	.	4ff\	.
4r	.	.	4r	.	8B-/	.	8B-/	.	.	.	.	.	.	.	.	.	.	.	.	.	.	.	.	.	.
.	.	.	.	.	8d/J	.	8d/J	.	.	.	.	.	.	.	.	.	.	.	.	.	.	8ff\	.	8aa-\	.
!	!	!	!	!	!	!	!	!	!	!	!	!	!	!	!	!	!	!	!	!	!	!	!	!LO:LB:g=original	!
=13	=13	=13	=13	=13	=13	=13	=13	=13	=13	=13	=13	=13	=13	=13	=13	=13	=13	=13	=13	=13	=13	=13	=13	=13	=13
*	*	*	*2\right	*	*	*	*	*	*	*	*	*	*	*	*	*	*	*	*	*	*	*	*	*	*
2E-\	.	.	2e-\	.	8B-/L	.	8e-/L|	.	.	.	.	.	.	.	.	.	.	8G/L	.	8e-\L|	.	8ee-\L|	.	8gg\L	.
.	.	.	.	.	16e-/L	.	(16g/L	.	.	.	.	.	.	.	.	.	.	16e-/L	.	(16g\L	.	(16ee-\L	.	16gg\L	.
.	.	.	.	.	16g/JJ	.	16b-/JJ)	.	.	.	.	.	.	.	.	.	.	16g/JJ	.	16b-\JJ)	.	16gg\JJ)	.	16bb-\JJ	.
.	.	.	.	.	(16g/LL	.	(16b-/LL	.	.	.	.	.	.	.	.	.	.	8.g\L	.	8.b-\L	.	8.gg\L	.	8.bb-\L	.
.	.	.	.	.	16e-/)	.	16g/)	.	.	.	.	.	.	.	.	.	.	.	.	.	.	.	.	.	.
.	.	.	.	.	(16g/	.	(16b-/	.	.	.	.	.	.	.	.	.	.	.	.	.	.	.	.	.	.
.	.	.	.	.	16e-/JJ)	.	16g/JJ)	.	.	.	.	.	.	.	.	.	.	16e-\Jk	.	16g\Jk	.	16ee-\Jk	.	16gg\Jk	.
4B-\	.	.	8B-/L	.	(16d/LL	.	(16f/LL	.	.	.	.	.	.	.	.	.	.	16B-\LL	.	(16f\LL	.	(16dd\LL	.	16ff\LL	.
.	.	.	.	.	16e-/)	.	16g/)	.	.	.	.	.	.	.	.	.	.	16e-\J	.	16g\J)	.	16ee-\J)	.	16gg\	.
.	.	.	8B-/J	.	(16d/	.	16f/|	.	.	.	.	.	.	.	.	.	.	8B-\J	.	8f\J|	.	8dd\J	.	16ff\	.
.	.	.	.	.	16f/JJ)	.	16b-/JJ|	.	.	.	.	.	.	.	.	.	.	.	.	.	.	.	.	16bb-\JJ	.
4BB-/	.	.	4B-/	.	4d/	.	4b-/|	.	.	.	.	.	.	.	.	.	.	4B-/	.	4f\	.	4dd\	.	4bb-\	.
!	!	!	!LO:LB:g=original	!	!	!	!	!	!	!	!	!	!	!	!LO:LB:g=original	!	!	!	!	!	!	!	!	!	!
=14	=14	=14	=14	=14	=14	=14	=14	=14	=14	=14	=14	=14	=14	=14	=14	=14	=14	=14	=14	=14	=14	=14	=14	=14	=14
!LO:TX:t=P:problem=mixed beam	!	!	!	!	!	!LO:DY:rj	!	!	!	!	!	!	!	!	!LO:TX:a:i:t=Solo	!	!	!	!	!	!	!	!	!	!
8B-\L	3	.	8B-/L	.	16G/LL	pp	(16d/LL	.	.	.	.	.	.	.	8.ff\	Ky-	.	1r	.	0r	.	2r	.	2r	.
.	.	.	.	.	16B-/	.	16f/)	.	.	.	.	.	.	.	.	.	.	.	.	.	.	.	.	.	.
8BB-/J	.	.	8B-/J	.	16G/	.	(16d/	.	.	.	.	.	.	.	.	.	.	.	.	.	.	.	.	.	.
.	.	.	.	.	16B-/JJ	.	16f/JJ)	.	.	.	.	.	.	.	16ff\	-ri-	.	.	.	.	.	.	.	.	.
8r	.	.	8r	.	(16G/LL	.	(16d/LL	.	.	.	.	.	.	.	8dd\	-e	.	.	.	.	.	.	.	.	.
.	.	.	.	.	16B-/)	.	16f/)	.	.	.	.	.	.	.	.	.	.	.	.	.	.	.	.	.	.
8B-\	.	.	8B-/	.	(16G/	.	(16d/	.	.	.	.	.	.	.	16r	.	.	.	.	.	.	.	.	.	.
.	.	.	.	.	16B-/JJ)	.	16f/JJ)	.	.	.	.	.	.	.	16ff\	e-	.	.	.	.	.	.	.	.	.
!LO:LB:g=original	!	!	!	!	!	!	!	!	!	!	!	!	!	!	!	!	!	!	!	!	!	!	!	!	!
8An\L	6	.	8An/L	.	16c/LL	.	(16e-/LL	.	.	.	.	.	.	.	32ff\LLL	-lei-	.	.	.	.	.	4r	.	4r	.
.	.	.	.	.	.	.	.	.	.	.	.	.	.	.	32ee-\	.	.	.	.	.	.	.	.	.	.
.	.	.	.	.	16An/	.	16c/)	.	.	.	.	.	.	.	32dd\	.	.	.	.	.	.	.	.	.	.
.	.	.	.	.	.	.	.	.	.	.	.	.	.	.	32ee-\JJJ	.	.	.	.	.	.	.	.	.	.
8F\J	.	.	8F/J	.	16c/	.	(16e-/	.	.	.	.	.	.	.	8ee-\	-son	.	.	.	.	.	.	.	.	.
.	.	.	.	.	16A/JJ	.	16c/JJ)	.	.	.	.	.	.	.	.	.	.	.	.	.	.	.	.	.	.
4r	.	.	4r	.	(16A/LL	.	(16c/LL	.	.	.	.	.	.	.	4r	.	.	.	.	.	.	16a\LL	.	16cc\LL	.
.	.	.	.	.	16B-/)	.	16d/)	.	.	.	.	.	.	.	.	.	.	.	.	.	.	16b-\	.	16dd\	.
.	.	.	.	.	(16c/	.	(16e-/	.	.	.	.	.	.	.	.	.	.	.	.	.	.	16cc\	.	16ee-\	.
.	.	.	.	.	16d/JJ)	.	16f/JJ)	.	.	.	.	.	.	.	.	.	.	.	.	.	.	16dd\JJ	.	16ff\JJ	.
!	!	!	!	!	!LO:LB:g=original	!	!	!	!	!	!	!	!	!	!	!	!	!	!	!	!	!	!	!	!
=15	=15	=15	=15	=15	=15	=15	=15	=15	=15	=15	=15	=15	=15	=15	=15	=15	=15	=15	=15	=15	=15	=15	=15	=15	=15
*	*	*	*	*	*	*	*	*	*	*	*	*	*	*	*	*ij	*	*	*	*	*	*	*	*	*
!LO:TX:t=P:problem=mixed beam	!	!	!	!	!	!	!	!	!	!	!	!	!	!	!	!	!	!	!	!	!	!	!	!	!
8c\L	5 3	.	8G/L	.	(16c/LL	.	(16e-/LL	.	.	.	.	.	.	.	8.gg\	Ky-	.	1r	.	.	.	4ee-\	.	4gg\	.
.	.	.	.	.	16e-/)	.	16g/)	.	.	.	.	.	.	.	.	.	.	.	.	.	.	.	.	.	.
8C/J	.	.	8G/J	.	(16c/	.	(16e-/	.	.	.	.	.	.	.	.	.	.	.	.	.	.	.	.	.	.
.	.	.	.	.	16e-/JJ)	.	16g/JJ)	.	.	.	.	.	.	.	16gg\	-ri-	.	.	.	.	.	.	.	.	.
8r	.	.	8r	.	(16c/LL	.	(16e-/LL	.	.	.	.	.	.	.	8ee-\	-e	.	.	.	.	.	4r	.	4r	.
.	.	.	.	.	16e-/)	.	16g/)	.	.	.	.	.	.	.	.	.	.	.	.	.	.	.	.	.	.
8An\	7 5	.	8c/	.	(16c/	.	(16e-/	.	.	.	.	.	.	.	16r	.	.	.	.	.	.	.	.	.	.
.	.	.	.	.	16e-/JJ)	.	16g/JJ)	.	.	.	.	.	.	.	16gg\	e-	.	.	.	.	.	.	.	.	.
!LO:TX:t=P:problem=mixed beam	!	!	!	!	!	!	!LO:LB:g=original	!	!	!	!	!	!	!	!	!	!	!	!	!	!	!	!	!	!
8B-\L	5_ 3_	.	8B-/L	.	(16d/LL	.	(16f/LL	.	.	.	.	.	.	.	32gg\LLL	-lei-	.	.	.	.	.	4r	.	4r	.
.	.	.	.	.	.	.	.	.	.	.	.	.	.	.	32ff\	.	.	.	.	.	.	.	.	.	.
.	.	.	.	.	16B-/)	.	16d/)	.	.	.	.	.	.	.	32een\	.	.	.	.	.	.	.	.	.	.
.	.	.	.	.	.	.	.	.	.	.	.	.	.	.	32ff\JJJ	.	.	.	.	.	.	.	.	.	.
8BB-/J	.	.	8B-/J	.	(16d/	.	(16f/	.	.	.	.	.	.	.	8ff\	-son	.	.	.	.	.	.	.	.	.
*	*	*	*	*	*	*	*	*	*	*	*	*	*	*	*	*Xij	*	*	*	*	*	*	*	*	*
.	.	.	.	.	16B-/JJ)	.	16d/JJ)	.	.	.	.	.	.	.	.	.	.	.	.	.	.	.	.	.	.
4r	x	.	4r	.	(16d/LL	.	(16f/LL	.	.	.	.	.	.	.	4r	.	.	.	.	.	.	(16dd\LL	.	16ff\LL	.
.	.	.	.	.	16c/)	.	16e-/)	.	.	.	.	.	.	.	.	.	.	.	.	.	.	16cc\)	.	16ee-\	.
.	.	.	.	.	(16c/	.	(16e-/	.	.	.	.	.	.	.	.	.	.	.	.	.	.	(16cc\	.	16ee-\	.
.	.	.	.	.	16B-/JJ)	.	16d/JJ)	.	.	.	.	.	.	.	.	.	.	.	.	.	.	16b-\JJ)	.	16dd\JJ	.
=16	=16	=16	=16	=16	=16	=16	=16	=16	=16	=16	=16	=16	=16	=16	=16	=16	=16	=16	=16	=16	=16	=16	=16	=16	=16
4F\	.	.	4.f\	.	(16An/LL	.	(16c/LL	.	0r	.	0r	.	0r	.	16cc\LL	Ky-	.	1r	.	1r	.	(16a\LL	.	16cc\LL	.
.	.	.	.	.	16B-/)	.	16d/)	.	.	.	.	.	.	.	16dd\JJ	.	.	.	.	.	.	16b-\)	.	16dd\	.
.	.	.	.	.	(16B-/	.	(16d/	.	.	.	.	.	.	.	16dd\LL	-ri-	.	.	.	.	.	(16b-\	.	16dd\	.
.	.	.	.	.	16c/JJ)	.	16e-/JJ)	.	.	.	.	.	.	.	16ee-\JJ	.	.	.	.	.	.	16cc\JJ)	.	16ee-\JJ	.
8BB-/L	.	.	.	.	(16d/LL	.	(16f/LL	.	.	.	.	.	.	.	16ff\LL	-e	.	.	.	.	.	(16dd\LL	.	16ff\LL	.
.	.	.	.	.	16B-/J)	.	16d/)	.	.	.	.	.	.	.	16dd\JJ	.	.	.	.	.	.	16b-\J)	.	16dd\	.
*	*	*	*	*	*	*	*	*	*	*	*	*	*	*	*	*	*	*	*	*	*	*custos:ee-	*	*	*
8D/J	.	.	8d\	.	8d/J|	.	(16f/	.	.	.	.	.	.	.	16r	.	.	.	.	.	.	8dd\J|	.	16ff\	.
.	.	.	.	.	.	.	16f#X/JJ)	.	.	.	.	.	.	.	16ff\	e-	.	.	.	.	.	.	.	16ff#X\JJ	.
!	!	!	!	!	!	!	!	!	!	!	!	!	!	!	!	!	!	!	!	!	!	!LO:LB:g=original	!	!	!
4E-\	3 1	.	4e-\	.	16e-/LL	.	(16g/LL	.	.	.	.	.	.	.	16gg\LL	.	.	.	.	.	.	16ee-\LL	.	16gg\LL	.
.	.	.	.	.	16f#X/	.	16an/)	.	.	.	.	.	.	.	16aan\	.	.	.	.	.	.	16ff\	.	16aa\	.
.	.	.	.	.	16g/	.	(16b-/	.	.	.	.	.	.	.	16bb-\	.	.	.	.	.	.	16gg\	.	16bb-\	.
.	.	.	.	.	16e-/JJ	.	16g/JJ)	.	.	.	.	.	.	.	16gg\JJ	.	.	.	.	.	.	16ee-\JJ	.	16gg\JJ	.
!LO:TX:t=P:problem=mixed beam	!	!	!LO:TX:t=P:problem=mixed beam	!	!	!	!	!	!	!	!	!	!	!	!	!	!	!	!	!	!	!	!	!	!
8F\L	8 6	.	8f\L	.	(16d/LL	.	(16fn/LL	.	.	.	.	.	.	.	16ff\LL	.	.	.	.	.	.	16dd\LL	.	16ff\LL	.
.	7 5	.	.	.	16c/)	.	16e-/)	.	.	.	.	.	.	.	16ee-\	.	.	.	.	.	.	16cc\	.	16ee-\	.
!	!	!	!	!LO:DY:t=f	!	!	!	!	!	!	!	!	!	!	!	!	!	!	!	!	!	!	!	!	!
8FF/J	6 4	.	8F/J	f	(16B-/	.	(16d/	.	.	.	.	.	.	.	16dd\	.	.	.	.	.	.	16b-\	.	16dd\	.
.	5 3	.	.	.	16A/JJ)	.	16c/JJ)	.	.	.	.	.	.	.	16cc\JJ	.	.	.	.	.	.	16a\JJ	.	16cc\JJ	.
!	!	!	!	!	!	!	!	!	!	!	!	!	!	!	!LO:LB:g=original	!	!	!	!	!	!	!	!	!LO:LB:g=original	!
=17	=17	=17	=17	=17	=17	=17	=17	=17	=17	=17	=17	=17	=17	=17	=17	=17	=17	=17	=17	=17	=17	=17	=17	=17	=17
!	!	!	!	!	!LO:SIC:v:s=16An/LL	!	!	!	!	!	!	!	!	!	!	!	!	!	!LO:DY:rj:t=p	!	!	!LO:SIC:v:s=16an	!	!	!
8r	.	.	8r	.	(16A-/LL	.	(16c/LL	.	.	.	.	.	.	.	16cc\LL	-lei-	.	8r	p	8r	.	16a-\LL	.	16cc\LL	.
.	.	.	.	.	16B-/J)	.	16B-/J)	.	.	.	.	.	.	.	16b-\JJ	.	.	.	.	.	.	16b-\J	.	16dd\J	.
8B-\|	.	.	8B-/L	.	8B-'/J	.	8B-/J|	.	.	.	.	.	.	.	8b-\	-son	.	8BB-/L	.	8B-/L	.	8b-\J	.	8dd\J	.
!	!	!	!	!	!	!	!	!	!	!	!	!	!	!	!LO:N:vis=8	!	!	!	!	!	!	!	!	!	!
8B-\L|	.	.	8B-/	.	8B-/L	.	8B-/L	.	.	.	.	.	.	.	4r	.	.	8BB-/	.	8B-/	.	8b-\L	.	8dd\L	.
8B-\J|	.	.	8B-/J	.	8B-/J	.	8B-/J	.	.	.	.	.	.	.	.	.	.	8BB-/J	.	8B-/J	.	8b-\J	.	8dd\J	.
!	!	!	!	!	!	!	!	!	!	!	!	!	!	!	!	!	!	!LO:LB:g=original	!	!	!	!	!	!	!
8B-\|	.	.	8B-/	.	8B-/	.	8B-/	.	.	.	.	.	.	.	4r	.	.	8BB-/	.	8B-/	.	8b-\	.	8dd\	.
8r	.	.	8r	.	8r	.	8r	.	.	.	.	.	.	.	.	.	.	8r	.	8r	.	8r	.	8r	.
8BB-/|	.	.	8B-/	.	8B-/	.	8B-/	.	.	.	.	.	.	.	4r	.	.	8BB-/	.	8B-/	.	8b-\	.	8dd\	.
8r	.	.	8r	.	8r	.	8r	.	.	.	.	.	.	.	.	.	.	8r	.	8r	.	8r	.	8r	.
!	!	!	!	!	!	!	!	!	!	!	!LO:LB:g=original	!	!	!	!	!	!	!	!	!	!	!	!	!	!
=18	=18	=18	=18	=18	=18	=18	=18	=18	=18	=18	=18	=18	=18	=18	=18	=18	=18	=18	=18	=18	=18	=18	=18	=18	=18
*	*	*	*tremolo	*	*	*	*	*	*	*	*	*	*	*	*	*	*	*	*	*	*	*	*	*	*
!LO:TX:a:i:rj:t=Tutti	!	!	!	!	!	!	!	!	!	!	!	!	!	!	!	!	!	!	!	!	!	!	!	!	!
!LO:TX:t=P:problem=mixed beam	!	!LO:DY:t=f.	!LO:TX:a:i:t=Tutti	!	!	!LO:DY:rj:t=f	!	!LO:DY:a:t=f.	!	!	!LO:SIC:v:s=8d-\	!	!	!	!	!	!	!	!LO:DY:rj:t=f	!	!	!	!LO:DY:t=f	!	!LO:DY:t=f.
8BB-/L	-3	f	8f\L	ff	16d-X/LL	f	16B-/LL	f	8BB-/	Ky-	8d\	Ky-	8f\	Ky-	8b-\	Ky-	.	1BB-/	f	1B-/	.	1b-\	f	1dd-X\	f
.	.	.	.	.	16f/	.	16b-/	.	.	.	.	.	.	.	.	.	.	.	.	.	.	.	.	.	.
!	!	!	!	!	!	!	!	!	!	!	!LO:SIC:v:s=8d-\	!	!	!	!	!	!	!	!	!	!	!	!	!	!
8B-\	.	.	8f\	.	16d-/	.	16b-/	.	8B-\	-ri-	8d\	-ri-	8f\	-ri-	8b-\	-ri-	.	.	.	.	.	.	.	.	.
.	.	.	.	.	16f/JJ	.	16b-/JJ	.	.	.	.	.	.	.	.	.	.	.	.	.	.	.	.	.	.
!	!	!	!	!	!	!	!	!	!	!	!LO:SIC:v:s=4d-\	!	!	!	!	!	!	!	!	!	!	!	!	!	!
8B-\	.	.	8f\	.	(16d-/LL	.	(16.dd-X\LL	.	4B-\	-e	4d\	-e	4f\	-e	4b-\	-e	.	.	.	.	.	.	.	.	.
.	.	.	.	.	16f/)	.	.	.	.	.	.	.	.	.	.	.	.	.	.	.	.	.	.	.	.
.	.	.	.	.	.	.	32b-\JJk)	.	.	.	.	.	.	.	.	.	.	.	.	.	.	.	.	.	.
8B-\J	.	.	8f\J	.	(16d-/	.	(32dd-\LLL	.	.	.	.	.	.	.	.	.	.	.	.	.	.	.	.	.	.
.	.	.	.	.	.	.	32cc\J	.	.	.	.	.	.	.	.	.	.	.	.	.	.	.	.	.	.
.	.	.	.	.	16f/JJ)	.	16b-\JJ)	.	.	.	.	.	.	.	.	.	.	.	.	.	.	.	.	.	.
*tremolo	*	*	*	*	*	*	*	*	*	*ij	*	*ij	*	*ij	*	*ij	*	*	*	*	*	*	*	*	*
!	!	!	!	!	!LO:LB:g=original	!	!	!	!	!	!	!	!	!	!	!	!	!	!	!	!	!	!	!	!
8B-\L	-	.	8f\L	.	(16d-/LL	.	16r	.	8B-\	Ky-	8B-\	Ky-	8f\	Ky-	8dd-X\	Ky-	.	.	.	.	.	.	.	.	.
.	.	.	.	.	16f/)	.	16dd-X\LL|	.	.	.	.	.	.	.	.	.	.	.	.	.	.	.	.	.	.
8B-\	.	.	8f\	.	(16d-/	.	(16ff\	.	8B-\	-ri-	8B-\	-ri-	8f\	-ri-	8dd-\	-ri-	.	.	.	.	.	.	.	.	.
.	.	.	.	.	16f/JJ)	.	16dd-\JJ)	.	.	.	.	.	.	.	.	.	.	.	.	.	.	.	.	.	.
8B-\	.	.	8f\	.	(16d-/LL	.	(16ff\LL	.	4BB-/	-e	4B-\	-e	4f\	-e	4dd-\	-e	.	.	.	.	.	.	.	.	.
.	.	.	.	.	16f/)	.	16dd-\)	.	.	.	.	.	.	.	.	.	.	.	.	.	.	.	.	.	.
8B-\J	.	.	8f\J	.	(16d-/	.	(16cc\	.	.	.	.	.	.	.	.	.	.	.	.	.	.	.	.	.	.
.	.	.	.	.	16f/JJ)	.	16b-\JJ)	.	.	.	.	.	.	.	.	.	.	.	.	.	.	.	.	.	.
!	!	!	!LO:LB:g=original	!	!	!	!LO:LB:g=original	!	!	!	!	!	!	!	!	!	!	!	!	!	!	!	!	!	!
=19	=19	=19	=19	=19	=19	=19	=19	=19	=19	=19	=19	=19	=19	=19	=19	=19	=19	=19	=19	=19	=19	=19	=19	=19	=19
8c\L	-5_ 3_	.	8g-X\L	.	(16e-/LL	.	16r	.	8C/	Ky-	8e-\	Ky-	8g-X\	Ky-	8cc\	Ky-	.	1E-/	.	1e-/	.	1cc\	.	1ee-\	.
.	.	.	.	.	16g-X/)	.	(16cc'\LL	.	.	.	.	.	.	.	.	.	.	.	.	.	.	.	.	.	.
8c\	.	.	8g-X\	.	(16e-/	.	16cc'\	.	8c\	-ri-	8e-\	-ri-	8g-\	-ri-	8cc\	-ri-	.	.	.	.	.	.	.	.	.
.	.	.	.	.	16g-/JJ)	.	16cc'\JJ)	.	.	.	.	.	.	.	.	.	.	.	.	.	.	.	.	.	.
8c\	.	.	8g-X\	.	(16e-/LL	.	(16.ee-\LL	.	4c\	-e	4e-\	-e	4g-\	-e	4cc\	-e	.	.	.	.	.	.	.	.	.
*	*	*	*	*	*	*	*	*	*	*Xij	*	*Xij	*	*Xij	*	*Xij	*	*	*	*	*	*	*	*	*
.	.	.	.	.	16g-/)	.	.	.	.	.	.	.	.	.	.	.	.	.	.	.	.	.	.	.	.
.	.	.	.	.	.	.	32cc\JJk)	.	.	.	.	.	.	.	.	.	.	.	.	.	.	.	.	.	.
8c\J	.	.	8g-X\J	.	(16e-/	.	(32ee-\LLL	.	.	.	.	.	.	.	.	.	.	.	.	.	.	.	.	.	.
.	.	.	.	.	.	.	32dd-X\J	.	.	.	.	.	.	.	.	.	.	.	.	.	.	.	.	.	.
.	.	.	.	.	16g-/JJ)	.	16cc\JJ)	.	.	.	.	.	.	.	.	.	.	.	.	.	.	.	.	.	.
8c\L	.	.	8g-\L	.	(16e-/LL	.	16r	.	8c\	e-	8c\	e-	8g-\	e-	8ee-\	e-	.	.	.	.	.	.	.	.	.
.	.	.	.	.	16g-/)	.	16ee-\LL|	.	.	.	.	.	.	.	.	.	.	.	.	.	.	.	.	.	.
8c\	.	.	8g-\	.	(16e-/	.	(16gg-X\	.	8c\	-lei-	8c\	-lei-	8g-\	-lei-	8ee-\	-lei-	.	.	.	.	.	.	.	.	.
.	.	.	.	.	16g-/JJ)	.	16ee-\JJ)	.	.	.	.	.	.	.	.	.	.	.	.	.	.	.	.	.	.
8c\	.	.	8g-\	.	(16e-/LL	.	(16gg-X\LL	.	4C/	-ſon	4c\	-son	4g-\	-ſon	4ee-\	-ſon	.	.	.	.	.	.	.	.	.
.	.	.	.	.	16g-/)	.	16ee-\)	.	.	.	.	.	.	.	.	.	.	.	.	.	.	.	.	.	.
8c\J	.	.	8g-\J	.	(16e-/	.	(16dd-X\	.	.	.	.	.	.	.	.	.	.	.	.	.	.	.	.	.	.
.	.	.	.	.	16g-/JJ)	.	16cc\JJ)	.	.	.	.	.	.	.	.	.	.	.	.	.	.	.	.	.	.
=20	=20	=20	=20	=20	=20	=20	=20	=20	=20	=20	=20	=20	=20	=20	=20	=20	=20	=20	=20	=20	=20	=20	=20	=20	=20
*	*	*	*	*	*	*	*	*	*	*	*	*	*	*	*	*	*	*2\right	*	*	*	*	*	*	*
8d-X\L	3	.	8f\L	.	(16A-/LL	.	16r	.	4D-X\	Ky-	4f\	Ky-	4a-\	Ky-	4dd-X\	Ky-	.	2f\	.	2f\	.	2dd-X\	.	1ff\	.
.	.	.	.	.	16d-X/)	.	16dd-X\LL|	.	.	.	.	.	.	.	.	.	.	.	.	.	.	.	.	.	.
8d-X\	.	.	8f\	.	(16f/	.	(16ff\	.	.	.	.	.	.	.	.	.	.	.	.	.	.	.	.	.	.
.	.	.	.	.	16d-/JJ)	.	16dd-\JJ)	.	.	.	.	.	.	.	.	.	.	.	.	.	.	.	.	.	.
8d-X\	.	.	8f\	.	(16A-/LL	.	(16ff\LL	.	4D-\	-ri-	4f\	-ri-	4a-\	-ri-	4dd-\	-ri-	.	.	.	.	.	.	.	.	.
.	.	.	.	.	16d-/)	.	16dd-\JJ)	.	.	.	.	.	.	.	.	.	.	.	.	.	.	.	.	.	.
8d-X\J	.	.	8f\J	.	(16f/	.	16r	.	.	.	.	.	.	.	.	.	.	.	.	.	.	.	.	.	.
.	.	.	.	.	16d-/JJ)	.	16dd-\	.	.	.	.	.	.	.	.	.	.	.	.	.	.	.	.	.	.
8B-\L	5 n	.	8f\L	.	(16A-/LL	.	16r	.	2B-\	-e	2f\	-e	2b-\	-e	2ddn\	-e	.	2B-/	.	2f\	.	2dd\	.	.	.
.	.	.	.	.	16dn/)	.	16ddn\|	.	.	.	.	.	.	.	.	.	.	.	.	.	.	.	.	.	.
8B-\	.	.	8f\	.	(16f/	.	(16ff\LL	.	.	.	.	.	.	.	.	.	.	.	.	.	.	.	.	.	.
.	.	.	.	.	16d/JJ)	.	16dd\JJ)	.	.	.	.	.	.	.	.	.	.	.	.	.	.	.	.	.	.
8B-\	.	.	8f\	.	(16A-/LL	.	(16ff\LL	.	.	.	.	.	.	.	.	.	.	.	.	.	.	.	.	.	.
.	.	.	.	.	16d/)	.	16dd\JJ)	.	.	.	.	.	.	.	.	.	.	.	.	.	.	.	.	.	.
8B-\J	.	.	8f\J	.	(16f/	.	16r	.	.	.	.	.	.	.	.	.	.	.	.	.	.	.	.	.	.
.	.	.	.	.	16d/JJ)	.	16dd\|	.	.	.	.	.	.	.	.	.	.	.	.	.	.	.	.	.	.
!	!	!	!	!	!	!	!	!	!	!	!	!	!	!	!	!	!	!	!	!LO:LB:g=original	!	!	!	!	!
=21	=21	=21	=21	=21	=21	=21	=21	=21	=21	=21	=21	=21	=21	=21	=21	=21	=21	=21	=21	=21	=21	=21	=21	=21	=21
*	*	*	*	*	*	*	*	*	*	*	*	*	*	*	*	*	*	*	*	*	*	*	*	*2\right	*
8e-\L	5 -	.	8g-X\L	.	16B-/KL	.	(16ee-\LL	.	2E-\	e-	2e-\	e-	2b-\	e-	2ee-\	e-	.	2B-/	.	2e-\	.	2ee-\	.	2gg-X\	.
.	.	.	.	.	8B-/	.	16gg-X\)	.	.	.	.	.	.	.	.	.	.	.	.	.	.	.	.	.	.
8e-\	.	.	8g-X\	.	.	.	16gg-'\	.	.	.	.	.	.	.	.	.	.	.	.	.	.	.	.	.	.
.	.	.	.	.	8B-/	.	16gg-'\JJ	.	.	.	.	.	.	.	.	.	.	.	.	.	.	.	.	.	.
8e-\	.	.	8g-X\	.	.	.	(32gg-\LLL	.	.	.	.	.	.	.	.	.	.	.	.	.	.	.	.	.	.
.	.	.	.	.	.	.	32ff\J	.	.	.	.	.	.	.	.	.	.	.	.	.	.	.	.	.	.
.	.	.	.	.	8B-/	.	16ee-\JJ)	.	.	.	.	.	.	.	.	.	.	.	.	.	.	.	.	.	.
8e-\J	.	.	8g-X\J	.	.	.	(16gg-X\LL	.	.	.	.	.	.	.	.	.	.	.	.	.	.	.	.	.	.
.	.	.	.	.	16B-/Jk	.	16ee-\JJ)	.	.	.	.	.	.	.	.	.	.	.	.	.	.	.	.	.	.
8c\L	n	.	8gn\L	.	16B-/KL	.	16r	.	2c\	.	2Gn/	.	2b-\	.	2een\	.	.	2B-/	.	2g\	.	2eeX\	.	2gg\	.
.	.	.	.	.	8B-/	.	16een'\LL	.	.	.	.	.	.	.	.	.	.	.	.	.	.	.	.	.	.
8c\	.	.	8gn\	.	.	.	16ee'\	.	.	.	.	.	.	.	.	.	.	.	.	.	.	.	.	.	.
.	.	.	.	.	8B-/	.	16ee'\JJ	.	.	.	.	.	.	.	.	.	.	.	.	.	.	.	.	.	.
8c\	.	.	8gn\	.	.	.	(32ggn\LLL	.	.	.	.	.	.	.	.	.	.	.	.	.	.	.	.	.	.
.	.	.	.	.	.	.	32ff\J	.	.	.	.	.	.	.	.	.	.	.	.	.	.	.	.	.	.
.	.	.	.	.	8B-/	.	16ee\JJ)	.	.	.	.	.	.	.	.	.	.	.	.	.	.	.	.	.	.
8c\J	.	.	8gn\J	.	.	.	(16gg\LL	.	.	.	.	.	.	.	.	.	.	.	.	.	.	.	.	.	.
.	.	.	.	.	16B-/Jk	.	16ee\JJ)	.	.	.	.	.	.	.	.	.	.	.	.	.	.	.	.	.	.
!	!	!	!	!	!LO:LB:g=original	!	!LO:LB:g=original	!	!	!	!	!	!	!	!	!	!	!	!	!	!	!	!	!	!
=22	=22	=22	=22	=22	=22	=22	=22	=22	=22	=22	=22	=22	=22	=22	=22	=22	=22	=22	=22	=22	=22	=22	=22	=22	=22
!	!	!	!	!	!	!LO:DY:rj:t=f	!	!LO:DY:t=ff.	!	!	!	!	!	!	!	!	!	!	!	!	!	!	!	!	!
16F\LL	5 3	.	16a-\LL	f	(24A-/LL	f	16ff\KL	ff	2F\	.	2A-/	.	2cc\	.	2ff\	.	.	2f\	.	2a-\	.	2cc\	.	2ff\	.
.	.	.	.	.	24c/	.	.	.	.	.	.	.	.	.	.	.	.	.	.	.	.	.	.	.	.
16F\	.	.	16a-\	.	.	.	8ccc\	.	.	.	.	.	.	.	.	.	.	.	.	.	.	.	.	.	.
.	.	.	.	.	24f/	.	.	.	.	.	.	.	.	.	.	.	.	.	.	.	.	.	.	.	.
16F\	.	.	16a-\	.	24A-/	.	.	.	.	.	.	.	.	.	.	.	.	.	.	.	.	.	.	.	.
.	.	.	.	.	24c/	.	.	.	.	.	.	.	.	.	.	.	.	.	.	.	.	.	.	.	.
16F\	.	.	16a-\	.	.	.	8ccc\	.	.	.	.	.	.	.	.	.	.	.	.	.	.	.	.	.	.
.	.	.	.	.	24f/JJ)	.	.	.	.	.	.	.	.	.	.	.	.	.	.	.	.	.	.	.	.
16F\	.	.	16a-\	.	(24A-/LL	.	.	.	.	.	.	.	.	.	.	.	.	.	.	.	.	.	.	.	.
.	.	.	.	.	24c/	.	.	.	.	.	.	.	.	.	.	.	.	.	.	.	.	.	.	.	.
16F\	.	.	16a-\	.	.	.	8ccc\	.	.	.	.	.	.	.	.	.	.	.	.	.	.	.	.	.	.
.	.	.	.	.	24f/	.	.	.	.	.	.	.	.	.	.	.	.	.	.	.	.	.	.	.	.
16F\	.	.	16a-\	.	24A-/	.	.	.	.	.	.	.	.	.	.	.	.	.	.	.	.	.	.	.	.
.	.	.	.	.	24c/	.	.	.	.	.	.	.	.	.	.	.	.	.	.	.	.	.	.	.	.
16F\JJ	.	.	16a-\JJ	.	.	.	16ccc\Jk	.	.	.	.	.	.	.	.	.	.	.	.	.	.	.	.	.	.
.	.	.	.	.	24f/JJ)	.	.	.	.	.	.	.	.	.	.	.	.	.	.	.	.	.	.	.	.
16D-X\LL	6| 3	.	16f\LL	.	(24Bn/LL	.	16bbn\KL	.	2D-X\	-lei-	2Bn\	-lei-	2bn\	-lei-	2ff\	-lei-	.	2f\	.	2a-\	.	2bX\	.	2ff\	.
!	!	!	!	!	!LO:SIC:v:s=24d-/	!	!	!	!	!	!	!	!	!	!	!	!	!	!	!	!	!	!	!	!
.	.	.	.	.	24d/	.	.	.	.	.	.	.	.	.	.	.	.	.	.	.	.	.	.	.	.
16D-X\	.	.	16f\	.	.	.	8bb\	.	.	.	.	.	.	.	.	.	.	.	.	.	.	.	.	.	.
.	.	.	.	.	24f/	.	.	.	.	.	.	.	.	.	.	.	.	.	.	.	.	.	.	.	.
16D-X\	.	.	16f\	.	24B/	.	.	.	.	.	.	.	.	.	.	.	.	.	.	.	.	.	.	.	.
!	!	!	!	!	!LO:SIC:v:s=24d-/	!	!	!	!	!	!	!	!	!	!	!	!	!	!	!	!	!	!	!	!
.	.	.	.	.	24d/	.	.	.	.	.	.	.	.	.	.	.	.	.	.	.	.	.	.	.	.
16D-X\	.	.	16f\	.	.	.	8bb\	.	.	.	.	.	.	.	.	.	.	.	.	.	.	.	.	.	.
.	.	.	.	.	24f/JJ)	.	.	.	.	.	.	.	.	.	.	.	.	.	.	.	.	.	.	.	.
16D-X\	.	.	16f\	.	(24Bn/LL	.	.	.	.	.	.	.	.	.	.	.	.	.	.	.	.	.	.	.	.
!	!	!	!	!	!LO:SIC:v:s=24d-/	!	!	!	!	!	!	!	!	!	!	!	!	!	!	!	!	!	!	!	!
.	.	.	.	.	24d/	.	.	.	.	.	.	.	.	.	.	.	.	.	.	.	.	.	.	.	.
16D-X\	.	.	16f\	.	.	.	8bb\	.	.	.	.	.	.	.	.	.	.	.	.	.	.	.	.	.	.
.	.	.	.	.	24f/	.	.	.	.	.	.	.	.	.	.	.	.	.	.	.	.	.	.	.	.
16D-X\	.	.	16f\	.	24B/	.	.	.	.	.	.	.	.	.	.	.	.	.	.	.	.	.	.	.	.
!	!	!	!	!	!LO:SIC:v:s=24d-/	!	!	!	!	!	!	!	!	!	!	!	!	!	!	!	!	!	!	!	!
.	.	.	.	.	24d/	.	.	.	.	.	.	.	.	.	.	.	.	.	.	.	.	.	.	.	.
16D-X\JJ	.	.	16f\JJ	.	.	.	16bb\Jk	.	.	.	.	.	.	.	.	.	.	.	.	.	.	.	.	.	.
.	.	.	.	.	24f/JJ)	.	.	.	.	.	.	.	.	.	.	.	.	.	.	.	.	.	.	.	.
*Xtremolo	*	*	*Xtremolo	*	*	*	*	*	*	*	*	*	*	*	*	*	*	*	*	*	*	*	*	*	*
!LO:LB:g=original	!	!	!	!	!	!	!	!	!	!	!	!	!LO:LB:g=original	!	!	!	!	!	!	!	!	!	!	!	!
=23	=23	=23	=23	=23	=23	=23	=23	=23	=23	=23	=23	=23	=23	=23	=23	=23	=23	=23	=23	=23	=23	=23	=23	=23	=23
!LO:TX:a:i:t=Solo	!	!	!	!	!	!	!	!	!	!	!	!	!	!	!	!	!	!	!	!	!	!	!	!	!
!	!	!LO:DY:t=p.	!	!	!	!LO:DY:t=p	!	!	!	!	!	!	!	!	!	!	!	!	!	!	!	!	!	!LO:N:vis=4	!
8C\|	.	p	8g\	.	8e-/	p	16ccc\LL	.	4C/	-ſon	4c\	-son	4cc\	-son	4ee-X\	-ſon	.	8e-\	.	8g\	.	8cc\	.	8ee-\	.
!	!	!	!	!	!	!	!	!LO:DY:t=p	!	!	!	!	!	!	!	!	!	!	!	!	!	!	!	!	!
.	.	.	.	.	.	.	16cc'\	p	.	.	.	.	.	.	.	.	.	.	.	.	.	.	.	.	.
8r	.	.	8r	.	8r	.	16cc'\	.	.	.	.	.	.	.	.	.	.	8r	.	8r	.	8r	.	8r	.
.	.	.	.	.	.	.	16cc'\JJ	.	.	.	.	.	.	.	.	.	.	.	.	.	.	.	.	.	.
8C\|	.	.	8g\	.	8e-/	.	16r	.	4r	.	4r	.	4r	.	4r	.	.	4r	.	4r	.	4r	.	4r	.
.	.	.	.	.	.	.	16cc\LL	.	.	.	.	.	.	.	.	.	.	.	.	.	.	.	.	.	.
8r	.	.	8r	.	8r	.	16cc\	.	.	.	.	.	.	.	.	.	.	.	.	.	.	.	.	.	.
.	.	.	.	.	.	.	16cc\JJ	.	.	.	.	.	.	.	.	.	.	.	.	.	.	.	.	.	.
8C\|	.	.	8g\	.	8e-/	.	16r	.	2r	.	2r	.	2r	.	2r	.	.	2r	.	2r	.	2r	.	2r	.
.	.	.	.	.	.	.	16cc\LL|	.	.	.	.	.	.	.	.	.	.	.	.	.	.	.	.	.	.
8r	.	.	8r	.	8r	.	(16bn\	.	.	.	.	.	.	.	.	.	.	.	.	.	.	.	.	.	.
.	.	.	.	.	.	.	16cc\JJ)	.	.	.	.	.	.	.	.	.	.	.	.	.	.	.	.	.	.
4r	.	.	4r	.	4r	.	(16a-/LL	.	.	.	.	.	.	.	.	.	.	.	.	.	.	.	.	.	.
.	.	.	.	.	.	.	16f/)	.	.	.	.	.	.	.	.	.	.	.	.	.	.	.	.	.	.
.	.	.	.	.	.	.	(16f/	.	.	.	.	.	.	.	.	.	.	.	.	.	.	.	.	.	.
.	.	.	.	.	.	.	16d/JJ)	.	.	.	.	.	.	.	.	.	.	.	.	.	.	.	.	.	.
!	!	!	!	!	!	!	!	!	!LO:LB:g=original	!	!LO:LB:g=original	!	!	!	!	!	!	!	!	!	!	!LO:LB:g=original	!	!	!
=24	=24	=24	=24	=24	=24	=24	=24	=24	=24	=24	=24	=24	=24	=24	=24	=24	=24	=24	=24	=24	=24	=24	=24	=24	=24
!	!	!LO:DY:t=f.	!	!	!LO:TX:t=P:problem=mixed beam	!	!	!LO:DY:rj:t=f.	!	!	!	!	!	!	!	!	!	!	!	!	!	!	!	!	!LO:DY:t=f
8E-\L	.	f	8B-/L	.	8e-/L 8G/	.	8e-/L 8G/	f	0r	.	0r	.	0r	.	0r	.	.	8G/L	.	8e-\L	.	8b-\L	.	8ee-\L	f
16.E-\L	.	.	16.B-/L	.	(>16.ee-\L	.	(16.ee-/L	.	.	.	.	.	.	.	.	.	.	16.G/L	.	16.e-\L	.	16.b-\L	.	16.ee-\L	.
32E-\JJk	.	.	32B-/JJk	.	32e-/JJk)	.	32e-/JJk)	.	.	.	.	.	.	.	.	.	.	32G/JJk	.	32e-\JJk	.	32b-\JJk	.	32ee-\JJk	.
4E-\	.	.	4B-/	.	4e-'/	.	4e-/	.	.	.	.	.	.	.	.	.	.	4G/	.	4e-\	.	4b-\	.	4ee-\	.
!	!	!	!	!	!	!	!	!	!	!	!	!	!	!	!	!	!	!LO:LB:g=original	!	!	!	!	!	!	!
2r	.	.	2r	.	2r	.	2r	.	.	.	.	.	.	.	.	.	.	8.g\L	.	8.b-\L	.	(8.gg\L	.	8.bb-\L	.
!	!	!	!	!	!	!	!	!	!	!	!	!	!	!	!	!	!	!	!	!	!	!	!LO:DY:t=p	!	!LO:DY:t=p
.	.	.	.	.	.	.	.	.	.	.	.	.	.	.	.	.	.	16f\Jk	.	16a-\Jk	.	16ff\Jk)	p	16aa-\Jk	p
.	.	.	.	.	.	.	.	.	.	.	.	.	.	.	.	.	.	4e-\	.	4g\	.	4ee-\	.	4gg\	.
!	!	!	!	!	!	!	!	!	!	!	!	!	!	!	!	!	!	!	!	!	!	!	!	!LO:LB:g=original	!
=25	=25	=25	=25	=25	=25	=25	=25	=25	=25	=25	=25	=25	=25	=25	=25	=25	=25	=25	=25	=25	=25	=25	=25	=25	=25
!	!	!	!LO:TX:t=P:problem=t. 25 - repetycja	!	!LO:TX:t=P:problem=mixed beam	!	!	!	!	!	!	!	!	!	!	!	!	!	!	!	!	!	!	!	!
8E-\L	.	.	8B-/Lyy	.	8e-/L 8G/	.	8e-/L 8G/	.	.	.	.	.	.	.	.	.	.	8G/L	.	8e-\L	.	8b-\L	.	8ee-\L	.
!	!	!	!	!	!	!	!	!	!	!	!	!	!	!	!	!	!	!	!	!	!	!	!LO:DY:t=f	!	!
16.E-\L	.	.	16.B-/Lyy	.	16.ee-\L	.	(16.ee-/L	.	.	.	.	.	.	.	.	.	.	16.G/L	.	16.e-\L	.	16.b-\L	f	16.ee-\L	.
32E-\JJk	.	.	32B-/JJkyy	.	32e-/JJk	.	32e-/JJk)	.	.	.	.	.	.	.	.	.	.	32G/JJk	.	32e-\JJk	.	32b-\JJk	.	32ee-\JJk	.
4E-\	.	.	4B-/yy	.	4e-'/	.	4e-/	.	.	.	.	.	.	.	.	.	.	4G/	.	4e-\	.	8.b-\L	.	8.ee-\L	.
.	.	.	.	.	.	.	.	.	.	.	.	.	.	.	.	.	.	.	.	.	.	16gg\Jk	.	16bb-\Jk	.
2r	.	.	2ryy	.	2r	.	2r	.	.	.	.	.	.	.	.	.	.	8.g\L	.	8.b-\L	.	8.gg\L	.	8.bb-\L	.
!	!	!	!	!	!	!	!	!	!	!	!	!	!	!	!	!	!	!	!	!	!	!	!LO:DY:t=p	!	!
.	.	.	.	.	.	.	.	.	.	.	.	.	.	.	.	.	.	16f\Jk	.	16a-\Jk	.	16ff\Jk	p	16aa-\Jk	.
.	.	.	.	.	.	.	.	.	.	.	.	.	.	.	.	.	.	4e-\	.	4g\	.	4ee-\	.	4gg\	.
!	!	!	!LO:LB:g=original	!	!	!	!	!	!	!	!	!	!	!	!LO:LB:g=original	!	!	!	!	!	!	!	!	!	!
=26	=26	=26	=26	=26	=26	=26	=26	=26	=26	=26	=26	=26	=26	=26	=26	=26	=26	=26	=26	=26	=26	=26	=26	=26	=26
*	*	*	*tremolo	*	*	*	*	*	*	*	*	*	*	*	*	*	*	*	*	*	*	*	*	*	*
!LO:TX:a:i:rj:t=Tutti	!	!	!	!	!	!LO:DY:rj:t=f	!	!	!	!	!	!	!	!	!	!	!	!	!	!	!	!	!LO:DY:t=f	!	!LO:DY:t=f
8BB-/L	5 3	.	8g\L	.	8.d/L	f	8.f/L 8.B-/	.	8.B-\	Ky-	8.B-\	Ky-	8.dd\	Ky-	8.ff\	Ky-	.	8.BB-/L	.	8.B-/L	.	8.dd\L	f	8.ff\L	f
8BB-/J	.	.	8g\	.	.	.	.	.	.	.	.	.	.	.	.	.	.	.	.	.	.	.	.	.	.
.	.	.	.	.	16d/Jk	.	16f/Jk 16B-/	.	16B-\	-ri-	16B-\	-ri-	16dd\	-ri-	16ff\	-ri-	.	16BB-/Jk	.	16B-/Jk	.	16dd\Jk	.	16ff\Jk	.
!	!	!	!	!	!	!	!	!	!	!	!	!	!	!	!	!	!	!	!	!	!	!LO:TX:t=P:problem=dodana kreska taktowa	!	!	!
4BB-/	.	.	8g\	.	(16d/LL	.	(16f/LL	.	4B-\	-e	4B-\	-e	4dd\yy	-e	4ff\	-e	.	4BB-/	.	4B-/	.	4dd\	.	4ff\	.
.	.	.	.	.	16B-/)	.	16d/)	.	.	.	.	.	.	.	.	.	.	.	.	.	.	.	.	.	.
.	.	.	8g\J	.	(16d/	.	(16f/	.	.	.	.	.	.	.	.	.	.	.	.	.	.	.	.	.	.
.	.	.	.	.	16B-/JJ)	.	16d/JJ)	.	.	.	.	.	.	.	.	.	.	.	.	.	.	.	.	.	.
*	*	*	*	*	*	*	*	*	*	*	*	*ij	*	*ij	*	*ij	*	*	*	*	*	*	*	*	*
!	!	!	!	!	!LO:LB:g=original	!	!	!	!	!	!	!	!	!	!	!	!	!	!	!	!	!	!	!	!
8F\L	7 5 n	.	16f\LL	.	8.c/L	.	8.an/L 8.f/	.	8.An\	{Ky-	8.An\	Ky-	8.cc\	Ky-	8.ff\	Ky-	.	8.f\L	.	8.f\L	.	8.cc\L	.	8.aa\L	.
.	.	.	16f\	.	.	.	.	.	.	.	.	.	.	.	.	.	.	.	.	.	.	.	.	.	.
8F\J	.	.	16f\	.	.	.	.	.	.	.	.	.	.	.	.	.	.	.	.	.	.	.	.	.	.
.	.	.	16f\JJ	.	16c/Jk	.	16a/Jk 16f/	.	16F\	-ri-	16A\	-ri-	16cc\	-ri-	16ff\	-ri-	.	16f\Jk	.	16f\Jk	.	16cc\Jk	.	16aa\Jk	.
4F\	.	.	16c\LL	.	(16c/LL	.	(16a/LL	.	4F\	-e}	4A\	-e	4cc\	-e	4ff\	-e	.	4f\	.	4f\	.	4cc\	.	4aa\	.
*	*	*	*	*	*	*	*	*	*	*	*	*Xij	*	*Xij	*	*Xij	*	*	*	*	*	*	*	*	*
.	.	.	16c\	.	16An/)	.	16f/)	.	.	.	.	.	.	.	.	.	.	.	.	.	.	.	.	.	.
.	.	.	16c\	.	(16c/	.	(16a/	.	.	.	.	.	.	.	.	.	.	.	.	.	.	.	.	.	.
.	.	.	16c\JJ	.	16A/JJ)	.	16f/JJ)	.	.	.	.	.	.	.	.	.	.	.	.	.	.	.	.	.	.
*	*	*	*Xtremolo	*	*	*	*	*	*	*	*	*	*	*	*	*	*	*	*	*	*	*	*	*	*
!	!	!	!	!	!	!	!LO:LB:g=original	!	!	!	!	!	!	!	!	!	!	!	!	!LO:LB:g=original	!	!	!	!	!
=27	=27	=27	=27	=27	=27	=27	=27	=27	=27	=27	=27	=27	=27	=27	=27	=27	=27	=27	=27	=27	=27	=27	=27	=27	=27
!	!	!	!LO:TX:t=P:problem=mixed beam	!	!	!	!	!	!	!	!	!	!	!	!	!	!	!	!	!	!	!	!	!	!
4B-\	.	.	8f\L	.	8d/L	.	8b-/L	.	8B-\	e-	8B-\	e-	8f\	e-	8ddn\	e-	.	8B-/L	.	8b-\L	.	8dd\L	.	8bb-\L	.
.	.	.	8F/J	.	8d/J	.	8b-/J	.	8B-\	-lei-	8B-\	-lei-	8f\	-lei-	8dd\	-lei-	.	8B-/J	.	8b-\J	.	8dd\J	.	8bb-\J	.
4BB-;</	.	.	4F;</	.	4d;/	.	4B-;/	.	4BB-;</	-ſon	4B-;\	-son	4f;\	-ſon	4dd;\	-ſon	.	4BB-/	.	4B-;/	.	4dd;\	.	4bb-;\	.
!	!	!	!	!	!	!	!	!	!	!	!	!	!	!	!	!	!	!	!	!	!	!	!	!LO:TX:a:t=Chryste	!
2r	.	.	2r	.	2r	.	2r	.	2r	.	2r	.	2r	.	2r	.	.	2r;	.	2r	.	2r	.	2r	.
!LO:LB:g=original	!	!	!	!	!	!	!	!	!	!	!	!	!	!	!	!	!	!	!	!	!	!LO:LB:g=original	!	!LO:LB:g=original	!
=28||	=28||	=28||	=28||	=28||	=28||	=28||	=28||	=28||	=28||	=28||	=28||	=28||	=28||	=28||	=28||	=28||	=28||	=28||	=28||	=28||	=28||	=28||	=28||	=28||	=28||
*k[b-e-]	*	*	*k[b-e-]	*	*k[b-e-]	*	*k[b-e-]	*	*k[b-e-]	*	*k[b-e-]	*	*k[b-e-]	*	*k[b-e-]	*	*	*	*	*	*	*k[b-e-]	*	*k[b-e-]	*
*B-:	*	*	*B-:	*	*B-:	*	*B-:	*	*B-:	*	*B-:	*	*B-:	*	*B-:	*	*	*	*	*	*	*	*	*	*
*M3/4	*	*	*M3/4	*	*M3/4	*	*M3/4	*	*M3/4	*	*M3/4	*	*M3/4	*	*M3/4	*	*	*M3/4	*	*M3/4	*	*M3/4	*	*M3/4	*
*	*	*	*tremolo	*	*tremolo	*	*	*	*	*	*	*	*	*	*	*	*	*	*	*	*	*	*	*	*
!	!	!	!	!	!	!	!	!	!	!	!	!	!	!	!	!	!	!	!	!	!	!LO:TX:a:t=1	!	!	!
!LO:TX:a:i:t=Andante	!	!	!LO:TX:a:i:t=andan	!	!LO:TX:a:t=anda	!	!LO:TX:a:i:t=Andante	!	!	!	!	!	!	!	!	!	!	!	!	!	!	!LO:TX:b:i:t=Christe	!	!	!
!LO:TX:b:i:t=Chriſte	!	!	!LO:TX:b:t=Christe	!	!LO:TX:b:t=Christe	!LO:DY:t=p	!LO:TX:b:i:t=Christe	!	!LO:TX:a:t=Christe Tacet	!	!LO:TX:a:t=Christe Tacet	!	!LO:TX:a:i:t=Andante Solo	!	!LO:TX:a:i:t=Andante	!	!	!LO:TX:a:i:t=Chris. Tacet	!	!LO:TX:a:t=Christe Tacet	!	!LO:TX:a:i:t=andante	!	!LO:TX:a:rj:t=andan	!
8r	.	.	8B-/L	.	8f/L	p	4.b-\	.	2.ryy	.	2.ryy	.	0.r	.	0.r	.	.	2.ryy	.	2.ryy	.	2.r	.	2.r	.
!LO:TX:a:i:t=Solo	!	!	!	!	!	!	!	!	!	!	!	!	!	!	!	!	!	!	!	!	!	!	!	!	!
8B-\	.	p	8B-/	.	8f/	.	.	.	.	.	.	.	.	.	.	.	.	.	.	.	.	.	.	.	.
*tremolo	*	*	*	*	*	*	*	*	*	*	*	*	*	*	*	*	*	*	*	*	*	*	*	*	*
!LO:TX:a:i:t=Tasto	!	!	!	!	!	!	!	!	!	!	!	!	!	!	!	!	!	!	!	!	!	!	!	!	!
8B-\L	.	.	8B-/	.	8f/	.	.	.	.	.	.	.	.	.	.	.	.	.	.	.	.	.	.	.	.
8B-\	.	.	8B-/	.	8f/	.	(16a\LL	.	.	.	.	.	.	.	.	.	.	.	.	.	.	.	.	.	.
.	.	.	.	.	.	.	16b-\JJ)	.	.	.	.	.	.	.	.	.	.	.	.	.	.	.	.	.	.
8B-\	.	.	8B-/	.	8f/	.	(16cc\LL	.	.	.	.	.	.	.	.	.	.	.	.	.	.	.	.	.	.
.	.	.	.	.	.	.	16b-\)	.	.	.	.	.	.	.	.	.	.	.	.	.	.	.	.	.	.
8B-\J	.	.	8B-/J	.	8f/J	.	(16a\	.	.	.	.	.	.	.	.	.	.	.	.	.	.	.	.	.	.
.	.	.	.	.	.	.	16b-\JJ)	.	.	.	.	.	.	.	.	.	.	.	.	.	.	.	.	.	.
=29	=29	=29	=29	=29	=29	=29	=29	=29	=29	=29	=29	=29	=29	=29	=29	=29	=29	=29	=29	=29	=29	=29	=29	=29	=29
8B-\L	.	.	8B-/L	.	8f/L	.	4dd\	.	2.ryy	.	2.ryy	.	.	.	.	.	.	2.ryy	.	2.ryy	.	4r	.	4r	.
8B-\	.	.	8B-/	.	8f/	.	.	.	.	.	.	.	.	.	.	.	.	.	.	.	.	.	.	.	.
!	!	!	!	!	!	!	!	!	!	!	!	!	!	!	!	!	!	!	!	!	!	!	!	!	!LO:DY:rj:t=p
8B-\	.	.	8B-/	.	8f/	.	4b-\	.	.	.	.	.	.	.	.	.	.	.	.	.	.	4f/	.	4dd\	p
!	!	!	!	!	!	!	!	!	!	!	!	!	!	!	!	!	!	!	!	!	!	!	!LO:DY:t=p	!	!
8B-\	.	.	8B-/	.	8f/	.	.	.	.	.	.	.	.	.	.	.	.	.	.	.	.	.	p	.	.
8B-\	.	.	8B-/	.	8f/	.	4r	.	.	.	.	.	.	.	.	.	.	.	.	.	.	4d/	.	4b-\	.
8B-\J	.	.	8B-/J	.	8f/J	.	.	.	.	.	.	.	.	.	.	.	.	.	.	.	.	.	.	.	.
*	*	*	*	*	*Xtremolo	*	*	*	*	*	*	*	*	*	*	*	*	*	*	*	*	*	*	*	*
=30	=30	=30	=30	=30	=30	=30	=30	=30	=30	=30	=30	=30	=30	=30	=30	=30	=30	=30	=30	=30	=30	=30	=30	=30	=30
!	!	!	!LO:TX:t=P:problem=tt. 30-31 - repetycja	!	!	!	!	!	!	!	!	!	!	!	!	!	!	!	!	!	!	!	!	!LO:TX:a:t=1	!
8B-\L	.	.	8B-/yyL	.	4.b-\	.	4.dd\	.	2.ryy	.	2.ryy	.	.	.	.	.	.	2.ryy	.	2.ryy	.	2.r	.	2.r	.
8B-\	.	.	8B-/yy	.	.	.	.	.	.	.	.	.	.	.	.	.	.	.	.	.	.	.	.	.	.
8B-\	.	.	8B-/yy	.	.	.	.	.	.	.	.	.	.	.	.	.	.	.	.	.	.	.	.	.	.
8B-\	.	.	8B-/yy	.	(16a\LL	.	16cc#X\LL	.	.	.	.	.	.	.	.	.	.	.	.	.	.	.	.	.	.
.	.	.	.	.	16b-\JJ)	.	16dd\JJ	.	.	.	.	.	.	.	.	.	.	.	.	.	.	.	.	.	.
8B-\	.	.	8B-/yy	.	(16cc\LL	.	16ee-\LL	.	.	.	.	.	.	.	.	.	.	.	.	.	.	.	.	.	.
.	.	.	.	.	16b-\	.	16dd\	.	.	.	.	.	.	.	.	.	.	.	.	.	.	.	.	.	.
8B-\J	.	.	8B-/yy	.	16a\	.	16cc#X\	.	.	.	.	.	.	.	.	.	.	.	.	.	.	.	.	.	.
.	.	.	.	.	16b-\JJ)	.	16dd\JJ	.	.	.	.	.	.	.	.	.	.	.	.	.	.	.	.	.	.
=31	=31	=31	=31	=31	=31	=31	=31	=31	=31	=31	=31	=31	=31	=31	=31	=31	=31	=31	=31	=31	=31	=31	=31	=31	=31
8B-\L	.	.	8B-/Lyy	.	4dd\	.	4ff\	.	2.ryy	.	2.ryy	.	.	.	.	.	.	2.ryy	.	2.ryy	.	4r	.	4r	.
8B-\	.	.	8B-/yy	.	.	.	.	.	.	.	.	.	.	.	.	.	.	.	.	.	.	.	.	.	.
8B-\	.	.	8B-/yy	.	4b-\	.	4dd\	.	.	.	.	.	.	.	.	.	.	.	.	.	.	4dd\	.	4ff\	.
8B-\	.	.	8B-/yy	.	.	.	.	.	.	.	.	.	.	.	.	.	.	.	.	.	.	.	.	.	.
8B-\	.	.	8B-/yy	.	4r	.	4r	.	.	.	.	.	.	.	.	.	.	.	.	.	.	4b-\	.	4dd\	.
8B-\J	.	.	8B-/Jyy	.	.	.	.	.	.	.	.	.	.	.	.	.	.	.	.	.	.	.	.	.	.
!	!	!	!	!	!LO:LB:g=original	!	!	!	!	!	!	!	!	!	!	!	!	!	!	!	!	!	!	!	!
=32	=32	=32	=32	=32	=32	=32	=32	=32	=32	=32	=32	=32	=32	=32	=32	=32	=32	=32	=32	=32	=32	=32	=32	=32	=32
*	*	*	*	*	*tremolo	*	*	*	*	*	*	*	*	*	*	*	*	*	*	*	*	*	*	*	*
*	*	*	*	*	*2\right	*	*	*	*	*	*	*	*	*	*	*	*	*	*	*	*	*	*	*	*
!	!	!	!	!	!	!LO:DY:t=f	!	!LO:DY:t=f.	!	!	!	!	!	!	!	!	!	!	!	!	!	!	!	!	!
8e-\L	5 3	.	8e-\L	.	8b-\L	f	8.gg\L	f	2.ryy	.	2.ryy	.	0.r	.	0.r	.	.	2.ryy	.	2.ryy	.	2ee-\	.	2gg\	.
8e-\	.	.	8e-\	.	8b-\	.	.	.	.	.	.	.	.	.	.	.	.	.	.	.	.	.	.	.	.
!	!	!	!	!	!	!	!	!	!	!	!	!	!	!	!	!	!	!	!	!	!	!	!LO:DY:t=f.	!	!
.	.	.	.	.	.	.	16aa\Jk	.	.	.	.	.	.	.	.	.	.	.	.	.	.	.	f	.	.
8e-\	.	.	8e-\	.	8b-\	.	(16bb-\LL	.	.	.	.	.	.	.	.	.	.	.	.	.	.	.	.	.	f
.	.	.	.	.	.	.	16aa\)	.	.	.	.	.	.	.	.	.	.	.	.	.	.	.	.	.	.
8e-\J	.	.	8e-\J	.	8b-\	.	(16bb-\	.	.	.	.	.	.	.	.	.	.	.	.	.	.	.	.	.	.
.	.	.	.	.	.	.	16gg\JJ)	.	.	.	.	.	.	.	.	.	.	.	.	.	.	.	.	.	.
*Xtremolo	*	*	*	*	*	*	*	*	*	*	*	*	*	*	*	*	*	*	*	*	*	*	*	*	*
!	!	!	!	!LO:DY:t=f.	!	!	!	!	!	!	!	!	!	!	!	!	!	!	!	!	!	!	!	!	!
8d\L	6	.	8d\L	f	8b-\	.	4ff\	.	.	.	.	.	.	.	.	.	.	.	.	.	.	4dd\	.	4ff\	.
8d\J	.	.	8d\J	.	8b-\J	.	.	.	.	.	.	.	.	.	.	.	.	.	.	.	.	.	.	.	.
*	*	*	*	*	*Xtremolo	*	*	*	*	*	*	*	*	*	*	*	*	*	*	*	*	*	*	*	*
!	!	!	!LO:LB:g=original	!	!	!	!	!	!	!	!	!	!	!	!	!	!	!	!	!	!	!	!	!	!
=33	=33	=33	=33	=33	=33	=33	=33	=33	=33	=33	=33	=33	=33	=33	=33	=33	=33	=33	=33	=33	=33	=33	=33	=33	=33
8c\L	6|	.	8c/L	.	8a\L	.	8.ee-\L	.	2.ryy	.	2.ryy	.	.	.	.	.	.	2.ryy	.	2.ryy	.	2cc\	.	2ee-\	.
8c\	.	.	8c/	.	8a\	.	.	.	.	.	.	.	.	.	.	.	.	.	.	.	.	.	.	.	.
.	.	.	.	.	.	.	16ff\Jk	.	.	.	.	.	.	.	.	.	.	.	.	.	.	.	.	.	.
8A\	6 5	.	8c/	.	8cc\	.	16gg\LL	.	.	.	.	.	.	.	.	.	.	.	.	.	.	.	.	.	.
.	.	.	.	.	.	.	16ff\	.	.	.	.	.	.	.	.	.	.	.	.	.	.	.	.	.	.
8A\	.	.	8c/J	.	8cc\	.	16gg\	.	.	.	.	.	.	.	.	.	.	.	.	.	.	.	.	.	.
.	.	.	.	.	.	.	16ee-\JJ	.	.	.	.	.	.	.	.	.	.	.	.	.	.	.	.	.	.
*	*	*	*Xtremolo	*	*	*	*	*	*	*	*	*	*	*	*	*	*	*	*	*	*	*	*	*	*
8B-\	.	.	(8B-/L	.	8f\	.	4dd\	.	.	.	.	.	.	.	.	.	.	.	.	.	.	4f/	.	4dd\	.
8B-\J	.	.	8Bn/J)	.	8f\J	.	.	.	.	.	.	.	.	.	.	.	.	.	.	.	.	.	.	.	.
!	!	!	!	!	!	!	!LO:LB:g=original	!	!	!	!	!	!	!	!	!	!	!	!	!	!	!	!	!	!
=34	=34	=34	=34	=34	=34	=34	=34	=34	=34	=34	=34	=34	=34	=34	=34	=34	=34	=34	=34	=34	=34	=34	=34	=34	=34
4E-\	6	.	4c/	.	4g/	.	8cc\L	.	2.ryy	.	2.ryy	.	.	.	.	.	.	2.ryy	.	2.ryy	.	4e-/	.	4cc\	.
.	.	.	.	.	.	.	(16bn\L	.	.	.	.	.	.	.	.	.	.	.	.	.	.	.	.	.	.
.	.	.	.	.	.	.	16cc\JJ)	.	.	.	.	.	.	.	.	.	.	.	.	.	.	.	.	.	.
4r	.	.	4r	.	4r	.	16cc\LL	.	.	.	.	.	.	.	.	.	.	.	.	.	.	4r	.	4r	.
.	.	.	.	.	.	.	16dd\	.	.	.	.	.	.	.	.	.	.	.	.	.	.	.	.	.	.
.	.	.	.	.	.	.	16ee-\	.	.	.	.	.	.	.	.	.	.	.	.	.	.	.	.	.	.
.	.	.	.	.	.	.	16ff\JJ	.	.	.	.	.	.	.	.	.	.	.	.	.	.	.	.	.	.
4F\	7 5	.	4e-\	.	4c/	.	(16gg\LL	.	.	.	.	.	.	.	.	.	.	.	.	.	.	4cc\	.	4ee-\	.
.	.	.	.	.	.	.	16ee-\)	.	.	.	.	.	.	.	.	.	.	.	.	.	.	.	.	.	.
.	.	.	.	.	.	.	16cc\	.	.	.	.	.	.	.	.	.	.	.	.	.	.	.	.	.	.
.	.	.	.	.	.	.	16a\JJ	.	.	.	.	.	.	.	.	.	.	.	.	.	.	.	.	.	.
=35	=35	=35	=35	=35	=35	=35	=35	=35	=35	=35	=35	=35	=35	=35	=35	=35	=35	=35	=35	=35	=35	=35	=35	=35	=35
!	!	!	!	!	!	!	!	!	!	!	!	!	!LO:TX:t=[segno]	!	!LO:TX:t=[segno]	!	!	!	!	!	!	!	!	!	!
!	!	!	!	!	!	!	!	!	!	!	!	!	!LO:TX:t=P:problem=znak segno na kresce taktowej	!	!LO:TX:t=P:problem=znak segno na kresce taktowej	!	!	!	!	!	!	!	!	!	!
4B-\	.	.	4d\	.	4d/	.	4b-\	.	2.ryy	.	2.ryy	.	.	.	.	.	.	2.ryy	.	2.ryy	.	4b-\	.	4dd\	.
4BB-/	.	.	4f\	.	4d/	.	4B-/	.	.	.	.	.	.	.	.	.	.	.	.	.	.	4b-\	.	4dd\	.
!LO:TX:t=P:problem=znak segno na kresce taktowej	!	!	!LO:TX:t=P:problem=znak segno na kresce taktowej	!	!LO:TX:t=P:problem=znak segno na kresce taktowej	!	!LO:TX:t=P:problem=znak segno na kresce taktowej	!	!	!	!	!	!	!	!	!	!	!	!	!	!	!LO:TX:t=P:problem=znak segno na kresce taktowej	!	!LO:TX:t=P:problem=znak segno na kresce taktowej	!
!	!	!	!LO:TX:t=[segno]	!	!LO:TX:t=[segno]	!	!LO:TX:t=[segno]	!	!	!	!	!	!	!	!	!	!	!	!	!	!	!LO:TX:t=[segno]	!	!LO:TX:t=[segno]	!
4r	.	.	4r	.	4r	.	4r	.	.	.	.	.	.	.	.	.	.	.	.	.	.	4r	.	4r	.
!	!	!	!	!	!	!	!	!	!	!	!	!	!	!	!	!	!	!	!	!	!	!LO:LB:g=original	!	!	!
=36||	=36||	=36||	=36||	=36||	=36||	=36||	=36||	=36||	=36||	=36||	=36||	=36||	=36||	=36||	=36||	=36||	=36||	=36||	=36||	=36||	=36||	=36||	=36||	=36||	=36||
*>B	*	*	*>B	*	*>B	*	*>B	*	*>B	*	*>B	*	*>B	*	*>B	*	*	*>B	*	*>B	*	*>B	*	*>B	*
*tremolo	*	*	*tremolo	*	*	*	*	*	*	*	*	*	*	*	*	*	*	*	*	*	*	*	*	*	*
!	!	!LO:DY:t=p.	!	!	!	!LO:DY:t=p	!	!LO:DY:t=p	!	!	!	!	!	!	!LO:TX:a:i:t=Solo	!	!	!	!	!	!	!	!	!	!
8B-\L	.	p	8B-/L	p	8r	p	8r	p	2.ryy	.	2.ryy	.	1.r	.	4.b-\	Chri-	.	2.ryy	.	2.ryy	.	2.r	.	2.r	.
8B-\	.	.	8B-/	.	8d/	.	8f/	.	.	.	.	.	.	.	.	.	.	.	.	.	.	.	.	.	.
*	*	*	*	*	*tremolo	*	*tremolo	*	*	*	*	*	*	*	*	*	*	*	*	*	*	*	*	*	*
8B-\	.	.	8B-/	.	8d/L	.	8f/L	.	.	.	.	.	.	.	.	.	.	.	.	.	.	.	.	.	.
8B-\	.	.	8B-/	.	8d/	.	8f/	.	.	.	.	.	.	.	16a\LL	.	.	.	.	.	.	.	.	.	.
.	.	.	.	.	.	.	.	.	.	.	.	.	.	.	16b-\JJ	.	.	.	.	.	.	.	.	.	.
8B-\	.	.	8B-/	.	8d/	.	8f/	.	.	.	.	.	.	.	16cc\LL	-ste	.	.	.	.	.	.	.	.	.
.	.	.	.	.	.	.	.	.	.	.	.	.	.	.	16b-\	.	.	.	.	.	.	.	.	.	.
8B-\J	.	.	8B-/J	.	8d/J	.	8f/J	.	.	.	.	.	.	.	16a\	e-	.	.	.	.	.	.	.	.	.
.	.	.	.	.	.	.	.	.	.	.	.	.	.	.	16b-\JJ	.	.	.	.	.	.	.	.	.	.
=37	=37	=37	=37	=37	=37	=37	=37	=37	=37	=37	=37	=37	=37	=37	=37	=37	=37	=37	=37	=37	=37	=37	=37	=37	=37
8B-\L	.	.	8B-/L	.	8d/L	.	8f/L	.	2.ryy	.	2.ryy	.	.	.	4dd\	-lei-	.	2.ryy	.	2.ryy	.	4r	.	4r	.
8B-\	.	.	8B-/	.	8d/	.	8f/	.	.	.	.	.	.	.	.	.	.	.	.	.	.	.	.	.	.
8B-\	.	.	8B-/	.	8d/	.	8f/	.	.	.	.	.	.	.	4b-\	-ſon	.	.	.	.	.	4f/	.	4dd\	.
!	!	!	!	!	!	!	!	!	!	!	!	!	!	!	!	!	!	!	!	!	!	!	!	!	!LO:DY:t=p
8B-\	.	.	8B-/	.	8d/	.	8f/	.	.	.	.	.	.	.	.	.	.	.	.	.	.	.	.	.	p
8B-\	.	.	8B-/	.	8d/	.	8f/	.	.	.	.	.	.	.	4r	.	.	.	.	.	.	4d/	.	4b-\	.
8B-\J	.	.	8B-/J	.	8d/J	.	8f/J	.	.	.	.	.	.	.	.	.	.	.	.	.	.	.	.	.	.
!	!	!	!	!	!	!	!	!	!	!	!	!	!	!	!	!	!	!	!	!	!	!	!	!LO:LB:g=original	!
=38	=38	=38	=38	=38	=38	=38	=38	=38	=38	=38	=38	=38	=38	=38	=38	=38	=38	=38	=38	=38	=38	=38	=38	=38	=38
!	!	!	!LO:TX:t=P:problem=tt. 38-9 - repetycja	!	!LO:TX:t=P:problem=tt. 38-39 - repetycja	!	!	!	!	!	!	!	!LO:TX:a:i:t=Solo	!	!	!	!	!	!	!	!	!	!	!	!
8B-\L	.	.	8B-/yyL	.	8ryy	.	8r	.	2.ryy	.	2.ryy	.	4.b-\	Chri-	4.dd\	Chri-	.	2.ryy	.	2.ryy	.	2.r	.	2.r	.
8B-\	.	.	8B-/yy	.	8d/yy	.	8f/	.	.	.	.	.	.	.	.	.	.	.	.	.	.	.	.	.	.
8B-\	.	.	8B-/yy	.	8d/yyL	.	8f/L	.	.	.	.	.	.	.	.	.	.	.	.	.	.	.	.	.	.
8B-\	.	.	8B-/yy	.	8d/yy	.	8f/	.	.	.	.	.	16a\LL	.	16cc\LL	.	.	.	.	.	.	.	.	.	.
.	.	.	.	.	.	.	.	.	.	.	.	.	16b-\JJ	.	16dd\JJ	.	.	.	.	.	.	.	.	.	.
8B-\	.	.	8B-/yy	.	8d/yy	.	8f/	.	.	.	.	.	16cc\LL	-ste	16ee-\LL	-ste	.	.	.	.	.	.	.	.	.
.	.	.	.	.	.	.	.	.	.	.	.	.	16b-\	.	16dd\	.	.	.	.	.	.	.	.	.	.
8B-\J	.	.	8B-/yyJ	.	8d/yyJ	.	8f/J	.	.	.	.	.	16a\	e-	16cc\	e-	.	.	.	.	.	.	.	.	.
.	.	.	.	.	.	.	.	.	.	.	.	.	16b-\JJ	.	16dd\JJ	.	.	.	.	.	.	.	.	.	.
!	!	!	!	!	!	!	!	!	!	!	!	!	!LO:LB:g=original	!	!LO:LB:g=original	!	!	!	!	!	!	!	!	!	!
=39	=39	=39	=39	=39	=39	=39	=39	=39	=39	=39	=39	=39	=39	=39	=39	=39	=39	=39	=39	=39	=39	=39	=39	=39	=39
8B-\L	.	.	8B-/Lyy	.	8d/Lyy	.	8f/L	.	2.ryy	.	2.ryy	.	4dd\	-lei-	4ff\	-lei-	.	2.ryy	.	2.ryy	.	4r	.	4r	.
8B-\	.	.	8B-/yy	.	8d/yy	.	8f/	.	.	.	.	.	.	.	.	.	.	.	.	.	.	.	.	.	.
8B-\	.	.	8B-/yy	.	8d/yy	.	8f/	.	.	.	.	.	4b-\	-ſon	4dd\	-ſon	.	.	.	.	.	4dd\	.	4ff\	.
8B-\	.	.	8B-/yy	.	8d/yy	.	8f/	.	.	.	.	.	.	.	.	.	.	.	.	.	.	.	.	.	.
8B-\	.	.	8B-/yy	.	8d/yy	.	8f/	.	.	.	.	.	4r	.	4r	.	.	.	.	.	.	4b-\	.	4dd\	.
8B-\J	.	.	8B-/Jyy	.	8d/Jyy	.	8f/J	.	.	.	.	.	.	.	.	.	.	.	.	.	.	.	.	.	.
*Xtremolo	*	*	*Xtremolo	*	*Xtremolo	*	*Xtremolo	*	*	*	*	*	*	*	*	*	*	*	*	*	*	*	*	*	*
=40	=40	=40	=40	=40	=40	=40	=40	=40	=40	=40	=40	=40	=40	=40	=40	=40	=40	=40	=40	=40	=40	=40	=40	=40	=40
4B-\	.	.	4b-\	.	4.d/	.	4.f/	.	2.ryy	.	2.ryy	.	(4.dd\	Chri-	4.ff\	Chri-	.	2.ryy	.	2.ryy	.	4dd\	.	4ff\	.
4BB-/	.	.	4B-/	.	.	.	.	.	.	.	.	.	.	.	.	.	.	.	.	.	.	4r	.	4r	.
.	.	.	.	.	(8B-/L	.	(8d/L	.	.	.	.	.	8b-\)	.	8dd\	.	.	.	.	.	.	.	.	.	.
4r	.	.	4r	.	8c/	.	8e-/	.	.	.	.	.	8cc\	-ste	8ee-\	-ste	.	.	.	.	.	4r	.	4r	.
.	.	.	.	.	8d/J)	.	8f/J)	.	.	.	.	.	8dd\	e-	8ff\	e-	.	.	.	.	.	.	.	.	.
!LO:LB:g=original	!	!	!	!	!	!	!	!	!	!	!	!	!	!	!	!	!	!	!	!	!	!	!	!	!
=41	=41	=41	=41	=41	=41	=41	=41	=41	=41	=41	=41	=41	=41	=41	=41	=41	=41	=41	=41	=41	=41	=41	=41	=41	=41
4F\	8 6	.	8f\L|	.	(8d/L	.	(8f/L	.	2.ryy	.	2.ryy	.	(8dd\L	-lei-	8ff\L	-lei-	.	2.ryy	.	2.ryy	.	4r	.	4r	.
.	7 5	.	8f\|	.	8c/)	.	8e-/J)	.	.	.	.	.	8cc\J)	.	8ee-\J	.	.	.	.	.	.	.	.	.	.
8r	.	.	8f\|	.	(8c/	.	8e-/L|	.	.	.	.	.	4cc\	-ſon	4ee-\	-ſon	.	.	.	.	.	8r	.	8r	.
8A\L	3	.	(8c\	.	8f/J)	.	8c/|	.	.	.	.	.	.	.	.	.	.	.	.	.	.	8a\L	.	8cc\L	.
8B-\	3	.	8d\	.	4f/	.	(8d/	.	.	.	.	.	4r	.	4r	.	.	.	.	.	.	8b-\	.	8dd\	.
8c\J	3	.	8e-\J)	.	.	.	8e-/J)	.	.	.	.	.	.	.	.	.	.	.	.	.	.	8cc\J	.	8ee-\J	.
=42	=42	=42	=42	=42	=42	=42	=42	=42	=42	=42	=42	=42	=42	=42	=42	=42	=42	=42	=42	=42	=42	=42	=42	=42	=42
*	*	*	*	*	*	*	*	*	*	*	*	*	*	*ij	*	*ij	*	*	*	*	*	*	*	*	*
!	!	!	!	!	!LO:TX:t=P:problem=tt. 42-3 - repetycja	!	!	!	!	!	!	!	!	!	!	!	!	!	!	!	!	!	!	!	!
4B-\	3	.	4B-/	.	4.d/yy	.	4.f/	.	2.ryy	.	2.ryy	.	4.dd\	Chri-	4.ff\	Chri-	.	2.ryy	.	2.ryy	.	4dd\	.	4ff\	.
4BB-/	.	.	4B-/	.	.	.	.	.	.	.	.	.	.	.	.	.	.	.	.	.	.	4r	.	4r	.
.	.	.	.	.	(y8B-/Lyy	.	(8d/L	.	.	.	.	.	8b-\	.	8dd\	.	.	.	.	.	.	.	.	.	.
4r	.	.	4r	.	8c/yy	.	8e-/	.	.	.	.	.	8cc\	-ste	8ee-\	-ste	.	.	.	.	.	4r	.	4r	.
.	.	.	.	.	8d/J)yy	.	8f/J)	.	.	.	.	.	8dd\	e-	8ff\	e-	.	.	.	.	.	.	.	.	.
=43	=43	=43	=43	=43	=43	=43	=43	=43	=43	=43	=43	=43	=43	=43	=43	=43	=43	=43	=43	=43	=43	=43	=43	=43	=43
4F\	8 6	.	8f\L|	.	(y8d/Lyy	.	(8f/L	.	2.ryy	.	2.ryy	.	8dd\L	-lei-	8ff\L	-lei-	.	2.ryy	.	2.ryy	.	4r	.	4r	.
.	7 5	.	8f\|	.	8c/)yy	.	8e-/J)	.	.	.	.	.	8cc\J	.	8ee-\J	.	.	.	.	.	.	.	.	.	.
!	!	!	!	!	!	!	!LO:LB:g=original	!	!	!	!	!	!	!	!	!	!	!	!	!	!	!	!	!	!
8r	.	.	8f\|	.	(y8c/yy	.	8e-/L|	.	.	.	.	.	4cc\	-ſon	4ee-\	-ſon	.	.	.	.	.	8r	.	8r	.
*	*	*	*	*	*	*	*	*	*	*	*	*	*	*Xij	*	*Xij	*	*	*	*	*	*	*	*	*
8A\L	3	.	(8c\	.	8f/J)yy	.	8c/|	.	.	.	.	.	.	.	.	.	.	.	.	.	.	8a\L	.	8cc\L	.
8B-\	3	.	8d\	.	4f/yy	.	(8d/	.	.	.	.	.	4r	.	4r	.	.	.	.	.	.	8b-\	.	8dd\	.
8c\J	3	.	8e-\J)	.	.	.	8e-/J)	.	.	.	.	.	.	.	.	.	.	.	.	.	.	8cc\J	.	8ee-\J	.
!	!	!	!LO:LB:g=original	!	!	!	!	!	!	!	!	!	!	!	!	!	!	!	!	!	!	!	!	!	!
=44	=44	=44	=44	=44	=44	=44	=44	=44	=44	=44	=44	=44	=44	=44	=44	=44	=44	=44	=44	=44	=44	=44	=44	=44	=44
!	!	!	!	!	!	!	!	!	!	!	!	!	!LO:TX:a:t=1	!	!	!	!	!	!	!	!	!	!	!	!
4B-\	3	.	4B-/	.	(8d/L	.	(8f/L	.	2.ryy	.	2.ryy	.	2.r	.	2.r	.	.	2.ryy	.	2.ryy	.	8dd\L	.	8ff\L	.
.	.	.	.	.	8B-/	.	8d/)	.	.	.	.	.	.	.	.	.	.	.	.	.	.	8b-\	.	8dd\	.
4BB-/	.	.	4B-/	.	8d/	.	(8f/	.	.	.	.	.	.	.	.	.	.	.	.	.	.	8dd\	.	8ff\	.
.	.	.	.	.	8B-/)	.	8d/)	.	.	.	.	.	.	.	.	.	.	.	.	.	.	8b-\	.	8dd\	.
4r	.	.	4r	.	8c/	.	8e-|/	.	.	.	.	.	.	.	.	.	.	.	.	.	.	8cc\	.	8ee-\	.
!	!	!	!	!	!LO:SIC:v:s=8d/J	!	!	!	!	!	!	!	!	!	!	!	!	!	!	!	!	!	!	!	!
.	.	.	.	.	8c/J	.	8f|/J	.	.	.	.	.	.	.	.	.	.	.	.	.	.	8dd\J	.	8ff\J	.
!	!	!	!	!	!	!	!	!	!	!	!	!	!	!	!	!	!	!	!	!	!	!LO:LB:g=original	!	!	!
=45	=45	=45	=45	=45	=45	=45	=45	=45	=45	=45	=45	=45	=45	=45	=45	=45	=45	=45	=45	=45	=45	=45	=45	=45	=45
4E-\	5_ 3_	.	4e-\	.	(8e-/L	.	(8g/L	.	2.ryy	.	2.ryy	.	4r	.	4r	.	.	2.ryy	.	2.ryy	.	(8ee-\L	.	8gg\L	.
.	.	.	.	.	8g/J)	.	8b-/J)	.	.	.	.	.	.	.	.	.	.	.	.	.	.	8gg\J)	.	8bb-\J	.
4EE-/	.	.	4E-/	.	4g/	.	4b-/|	.	.	.	.	.	4r	.	4r	.	.	.	.	.	.	4gg\	.	4bb-\	.
4E-\	x	.	4e-\	.	4r	.	4r	.	.	.	.	.	8r	.	8r	.	.	.	.	.	.	8r	.	8r	.
.	.	.	.	.	.	.	.	.	.	.	.	.	8ee-\	e-	8gg\	e-	.	.	.	.	.	8ee-\	.	8gg\	.
!	!	!	!	!	!LO:LB:g=original	!	!	!	!	!	!	!	!LO:LB:g=original	!	!	!	!	!	!	!	!	!	!	!LO:LB:g=original	!
=46	=46	=46	=46	=46	=46	=46	=46	=46	=46	=46	=46	=46	=46	=46	=46	=46	=46	=46	=46	=46	=46	=46	=46	=46	=46
!	!	!	!	!	!LO:TX:a:t=1	!	!LO:TX:a:t=1	!	!	!	!	!	!	!	!	!	!	!	!	!	!	!	!	!	!
8D\L	6|	.	8d\L	.	2.r	.	2.r	.	2.ryy	.	2.ryy	.	8dd\L	-lei-	8ff\L	-lei-	.	2.ryy	.	2.ryy	.	(8dd\L	.	8ff\L	.
8E-\J	6	.	8e-\J	.	.	.	.	.	.	.	.	.	8cc\J	.	8ee-\J	.	.	.	.	.	.	8cc\J)	.	8ee-\J	.
4F\	6 4	.	4f\	.	.	.	.	.	.	.	.	.	4b-\	.	4dd\	.	.	.	.	.	.	4b-\	.	4dd\	.
!	!	!	!	!	!	!	!	!	!	!	!	!	!	!	!LO:TX:a:t=t	!	!	!	!	!	!	!	!	!	!
4FF/	5 3	.	4F/	.	.	.	.	.	.	.	.	.	4a\	.	4cc\	.	.	.	.	.	.	4a\	.	4cc\	.
=47	=47	=47	=47	=47	=47	=47	=47	=47	=47	=47	=47	=47	=47	=47	=47	=47	=47	=47	=47	=47	=47	=47	=47	=47	=47
4BB-/	.	.	4B-/	.	(16d/LL	.	(8b-\L	.	2.ryy	.	2.ryy	.	4f\	-son	4dd\	-ſon	.	2.ryy	.	2.ryy	.	4b-\	.	4dd\	.
.	.	.	.	.	16f/)	.	.	.	.	.	.	.	.	.	.	.	.	.	.	.	.	.	.	.	.
.	.	.	.	.	(16d/	.	8bb-\)	.	.	.	.	.	.	.	.	.	.	.	.	.	.	.	.	.	.
.	.	.	.	.	16f/JJ)	.	.	.	.	.	.	.	.	.	.	.	.	.	.	.	.	.	.	.	.
!	!	!	!	!	!	!LO:HP:a	!	!	!	!	!	!	!	!	!	!	!	!	!	!	!	!	!	!	!
8r	.	.	8r	.	(16d/LL	<	8bb-\|	.	.	.	.	.	4r	.	4r	.	.	.	.	.	.	4r	.	4r	.
.	.	.	.	.	16f/)	.	.	.	.	.	.	.	.	.	.	.	.	.	.	.	.	.	.	.	.
8D/L	6_ 3_	.	8B-/L|	.	(16d/	.	8bb-\J|	.	.	.	.	.	.	.	.	.	.	.	.	.	.	.	.	.	.
.	.	.	.	.	16f/JJ)	.	.	.	.	.	.	.	.	.	.	.	.	.	.	.	.	.	.	.	.
8C/	.	.	8c/|	.	(16d/LL	.	(16bb-\LL	.	.	.	.	.	4r	.	4r	.	.	.	.	.	.	4b-\	.	4dd\	.
.	.	.	.	.	16f/)	.	16aa\)	.	.	.	.	.	.	.	.	.	.	.	.	.	.	.	.	.	.
8BB-/J	.	.	8d/J	.	(16d/	.	(16gg\	.	.	.	.	.	.	.	.	.	.	.	.	.	.	.	.	.	.
.	.	.	.	.	16f/JJ)	.	16ff\JJ)	.	.	.	.	.	.	.	.	.	.	.	.	.	.	.	.	.	.
=48	=48	=48	=48	=48	=48	=48	=48	=48	=48	=48	=48	=48	=48	=48	=48	=48	=48	=48	=48	=48	=48	=48	=48	=48	=48
!	!	!	!	!	!	!	!	!	!	!	!	!	!	!	!LO:TX:a:t=4	!	!	!	!	!	!	!	!	!	!
4AA/	5 3	.	4c/	.	(16e-/LL	.	8r	.	2.ryy	.	2.ryy	.	0.r	.	0.r	.	.	2.ryy	.	2.ryy	.	4cc\	.	4ee-\	.
.	.	.	.	.	16f/)	.	.	.	.	.	.	.	.	.	.	.	.	.	.	.	.	.	.	.	.
.	.	.	.	.	(16e-/	.	8ccc\L|	.	.	.	.	.	.	.	.	.	.	.	.	.	.	.	.	.	.
.	.	.	.	.	16f/JJ)	.	.	.	.	.	.	.	.	.	.	.	.	.	.	.	.	.	.	.	.
8r	.	.	8r	.	(16e-/LL	.	8ccc\|	.	.	.	.	.	.	.	.	.	.	.	.	.	.	4r	.	4r	.
.	.	.	.	.	16f/)	.	.	.	.	.	.	.	.	.	.	.	.	.	.	.	.	.	.	.	.
8F\L	7_	.	8a\L	.	(16e-/	.	8ccc\J|	.	.	.	.	.	.	.	.	.	.	.	.	.	.	.	.	.	.
.	.	.	.	.	16f/JJ)	.	.	.	.	.	.	.	.	.	.	.	.	.	.	.	.	.	.	.	.
8G\	.	.	8b-\	.	(16e-/LL	.	(16ccc\LL	.	.	.	.	.	.	.	.	.	.	.	.	.	.	4cc\	.	4ee-\	.
.	.	.	.	.	16f/)	.	16aa\)	.	.	.	.	.	.	.	.	.	.	.	.	.	.	.	.	.	.
8A\J	x	.	8cc\J	.	(16e-/	.	(16ff\	.	.	.	.	.	.	.	.	.	.	.	.	.	.	.	.	.	.
.	.	.	.	.	16f/JJ)	.	16ee-\JJ)	.	.	.	.	.	.	.	.	.	.	.	.	.	.	.	.	.	.
=49	=49	=49	=49	=49	=49	=49	=49	=49	=49	=49	=49	=49	=49	=49	=49	=49	=49	=49	=49	=49	=49	=49	=49	=49	=49
!	!	!	!	!	!LO:TX:t=P:problem=mixed beam	!LO:DY:rj:t=f.	!	!	!	!	!	!	!	!	!	!	!	!	!	!	!	!	!	!	!
4B-\	5 3	.	4dd\	.	8d/L	f	8r	.	2.ryy	.	2.ryy	.	.	.	.	.	.	2.ryy	.	2.ryy	.	4dd\	.	4ff\	.
!	!	!	!	!	!	!	!	!LO:DY:t=f	!	!	!	!	!	!	!	!	!	!	!	!	!	!	!	!	!
.	.	.	.	.	16bb-\L	.	(16ddd\LL	f	.	.	.	.	.	.	.	.	.	.	.	.	.	.	.	.	.
.	.	.	.	.	16ff\JJ	.	16bb-\JJ)	.	.	.	.	.	.	.	.	.	.	.	.	.	.	.	.	.	.
4r	.	.	4r	.	(16ff\LL	.	(16bb-\LL	.	.	.	.	.	.	.	.	.	.	.	.	.	.	4r	.	4r	.
.	.	.	.	.	16dd\)	.	16ff\)	.	.	.	.	.	.	.	.	.	.	.	.	.	.	.	.	.	.
.	.	.	.	.	(16dd\	.	(16ff\	.	.	.	.	.	.	.	.	.	.	.	.	.	.	.	.	.	.
.	.	.	.	.	16b-\JJ)	.	16dd\JJ)	.	.	.	.	.	.	.	.	.	.	.	.	.	.	.	.	.	.
4BB-/	.	.	4d\	.	(16dd\LL	.	(16ff\LL	.	.	.	.	.	.	.	.	.	.	.	.	.	.	4r	.	4r	.
.	.	.	.	.	16b-\J)	.	16dd\)	.	.	.	.	.	.	.	.	.	.	.	.	.	.	.	.	.	.
.	.	.	.	.	8dd\J|	.	(16ff\	.	.	.	.	.	.	.	.	.	.	.	.	.	.	.	.	.	.
.	.	.	.	.	.	.	16ff#X\JJ)	.	.	.	.	.	.	.	.	.	.	.	.	.	.	.	.	.	.
=50	=50	=50	=50	=50	=50	=50	=50	=50	=50	=50	=50	=50	=50	=50	=50	=50	=50	=50	=50	=50	=50	=50	=50	=50	=50
!	!	!	!	!	!LO:N:vis=8.	!	!	!	!	!	!	!	!	!	!	!	!	!	!	!	!	!	!	!	!
4E-\	6	.	4e-\	.	8b-/L	.	(16gg\LL	.	2.ryy	.	2.ryy	.	.	.	.	.	.	2.ryy	.	2.ryy	.	4ee-\	.	4gg\	.
.	.	.	.	.	.	.	16ee-\)	.	.	.	.	.	.	.	.	.	.	.	.	.	.	.	.	.	.
.	.	.	.	.	16b-/L	.	(16gg\	.	.	.	.	.	.	.	.	.	.	.	.	.	.	.	.	.	.
.	.	.	.	.	16g/JJ	.	16ee-\JJ)	.	.	.	.	.	.	.	.	.	.	.	.	.	.	.	.	.	.
!	!	!	!LO:TX:t=P:problem=mixed beam	!	!	!	!	!	!	!	!	!	!	!	!	!	!	!	!	!	!	!	!	!	!
4F\	6 4	.	8f\L	.	8.f/L	.	8.dd\L	.	.	.	.	.	.	.	.	.	.	.	.	.	.	4dd\	.	4bb-\	.
.	.	.	8f\	.	.	.	.	.	.	.	.	.	.	.	.	.	.	.	.	.	.	.	.	.	.
.	.	.	.	.	16d/Jk	.	16b-\K	.	.	.	.	.	.	.	.	.	.	.	.	.	.	.	.	.	.
4FF/	5 3	.	8F/	.	8.e-/L	.	8.cc\	.	.	.	.	.	.	.	.	.	.	.	.	.	.	4cc\	.	4aa\	.
.	.	.	8F/J	.	.	.	.	.	.	.	.	.	.	.	.	.	.	.	.	.	.	.	.	.	.
.	.	.	.	.	16c/Jk	.	16a\Jk	.	.	.	.	.	.	.	.	.	.	.	.	.	.	.	.	.	.
!	!	!	!	!	!	!	!LO:LB:g=original	!	!	!	!	!	!	!	!	!	!	!	!	!	!	!	!	!	!
=51	=51	=51	=51	=51	=51	=51	=51	=51	=51	=51	=51	=51	=51	=51	=51	=51	=51	=51	=51	=51	=51	=51	=51	=51	=51
!	!	!	!	!	!	!	!	!	!	!	!	!	!LO:TX:b:i:t=Finis	!	!	!	!	!	!	!	!	!	!	!	!
4BB-/	.	.	4F/	.	8d/L	.	(16b-/LL	.	2.ryy	.	2.ryy	.	.	.	.	.	.	2.ryy	.	2.ryy	.	4dd\	.	4bb-\	.
.	.	.	.	.	.	.	16f/)	.	.	.	.	.	.	.	.	.	.	.	.	.	.	.	.	.	.
.	.	.	.	.	8d/J	.	(16b-/	.	.	.	.	.	.	.	.	.	.	.	.	.	.	.	.	.	.
.	.	.	.	.	.	.	16f/JJ)	.	.	.	.	.	.	.	.	.	.	.	.	.	.	.	.	.	.
4BB-/	.	.	4F/	.	4d/	.	4b-\	.	.	.	.	.	.	.	.	.	.	.	.	.	.	4dd\	.	4bb-\	.
!LO:TX:b:i:t=Fine	!	!	!	!	!	!	!	!	!	!	!	!	!	!	!	!	!	!	!	!	!	!	!	!	!
!	!	!	!LO:TX:b:i:t=Finis	!	!LO:TX:b:i:t=Finis	!	!LO:TX:b:i:t=Fine	!	!	!	!	!	!	!	!	!	!	!	!	!	!	!LO:TX:b:i:t=fine	!	!LO:TX:b:i:t=fine	!
4r	.	.	4r	.	4r	.	4r	.	.	.	.	.	.	.	.	.	.	.	.	.	.	4r	.	4r	.
!LO:LB:g=original	!	!	!LO:LB:g=original	!	!LO:LB:g=original	!	!	!	!	!	!	!	!	!	!LO:LB:g=original	!	!	!	!	!	!	!	!	!	!
=|!52	=|!52	=|!52	=|!52	=|!52	=|!52	=|!52	=|!52	=|!52	=|!52	=|!52	=|!52	=|!52	=|!52	=|!52	=|!52	=|!52	=|!52	=|!52	=|!52	=|!52	=|!52	=|!52	=|!52	=|!52	=|!52
*>C	*	*	*>C	*	*>C	*	*>C	*	*>C	*	*>C	*	*>C	*	*>C	*	*	*>C	*	*>C	*	*>C	*	*>C	*
!	!	!	!	!	!	!LO:DY:t=p	!	!	!	!	!	!	!	!	!	!	!	!	!	!	!	!LO:TX:a:t=10	!	!LO:TX:a:t=10	!
4BB-/	.	.	4f\	.	8r	p	8r	.	2.ryy	.	2.ryy	.	0.r	.	2b-\	Chri-	.	2.ryy	.	2.ryy	.	0.r	.	0.r	.
!	!	!	!	!LO:DY:t=p	!	!	!	!LO:DY:t=p.	!	!	!	!	!	!	!	!	!	!	!	!	!	!	!	!	!
.	.	.	.	p	8d/	.	8b-/ 8f/	p	.	.	.	.	.	.	.	.	.	.	.	.	.	.	.	.	.
*	*	*	*	*	*tremolo	*	*tremolo	*	*	*	*	*	*	*	*	*	*	*	*	*	*	*	*	*	*
4r	.	.	4r	.	8d/L	.	8b-/ 8f/L	.	.	.	.	.	.	.	.	.	.	.	.	.	.	.	.	.	.
.	.	.	.	.	8d/	.	8b-/ 8f/	.	.	.	.	.	.	.	.	.	.	.	.	.	.	.	.	.	.
4r	.	.	4r	.	8d/	.	8b-/ 8f/	.	.	.	.	.	.	.	(8ff\L	-ste	.	.	.	.	.	.	.	.	.
.	.	.	.	.	8d/J	.	8b-/ 8f/J	.	.	.	.	.	.	.	8dd\J)	.	.	.	.	.	.	.	.	.	.
*	*	*	*	*	*	*	*Xtremolo	*	*	*	*	*	*	*	*	*	*	*	*	*	*	*	*	*	*
=53	=53	=53	=53	=53	=53	=53	=53	=53	=53	=53	=53	=53	=53	=53	=53	=53	=53	=53	=53	=53	=53	=53	=53	=53	=53
4F\	5 3	.	4F/	.	8r	.	8r	.	2.ryy	.	2.ryy	.	.	.	(16dd\LL	Chri-	.	2.ryy	.	2.ryy	.	.	.	.	.
.	.	.	.	.	.	.	.	.	.	.	.	.	.	.	16cc\	.	.	.	.	.	.	.	.	.	.
.	.	.	.	.	8a/ 8f/	.	8cc\	.	.	.	.	.	.	.	16bn\	.	.	.	.	.	.	.	.	.	.
.	.	.	.	.	.	.	.	.	.	.	.	.	.	.	16cc\JJ)	.	.	.	.	.	.	.	.	.	.
4r	.	.	4r	.	8a/ 8f/L	.	8cc\L	.	.	.	.	.	.	.	4.cc\	-ste	.	.	.	.	.	.	.	.	.
.	.	.	.	.	8a/ 8f/	.	8cc\	.	.	.	.	.	.	.	.	.	.	.	.	.	.	.	.	.	.
4r	.	.	4r	.	8a/ 8f/	.	(8cc\	.	.	.	.	.	.	.	.	.	.	.	.	.	.	.	.	.	.
.	.	.	.	.	8a/ 8f/J	.	8ff\J)	.	.	.	.	.	.	.	8ff\	e-	.	.	.	.	.	.	.	.	.
*	*	*	*	*	*Xtremolo	*	*	*	*	*	*	*	*	*	*	*	*	*	*	*	*	*	*	*	*
=54	=54	=54	=54	=54	=54	=54	=54	=54	=54	=54	=54	=54	=54	=54	=54	=54	=54	=54	=54	=54	=54	=54	=54	=54	=54
4C/	5_ n_	.	2G/	.	8g/L	.	8een\	.	2.ryy	.	2.ryy	.	.	.	8een\	-lei-	.	2.ryy	.	2.ryy	.	.	.	.	.
.	.	.	.	.	8g/	.	4gg\	.	.	.	.	.	.	.	(4gg\	.	.	.	.	.	.	.	.	.	.
4C/	.	.	.	.	8en/	.	.	.	.	.	.	.	.	.	.	.	.	.	.	.	.	.	.	.	.
.	.	.	.	.	8e/	.	(16gg\LL	.	.	.	.	.	.	.	8ee\L)	.	.	.	.	.	.	.	.	.	.
.	.	.	.	.	.	.	16ee\JJ)	.	.	.	.	.	.	.	.	.	.	.	.	.	.	.	.	.	.
4C/	7 5	.	4en\	.	8g/	.	(16ee\LL	.	.	.	.	.	.	.	8cc\	-son	.	.	.	.	.	.	.	.	.
.	.	.	.	.	.	.	16cc\)	.	.	.	.	.	.	.	.	.	.	.	.	.	.	.	.	.	.
.	.	.	.	.	8g/J	.	(16cc\	.	.	.	.	.	.	.	8b-\J	e-	.	.	.	.	.	.	.	.	.
.	.	.	.	.	.	.	16b-\JJ)	.	.	.	.	.	.	.	.	.	.	.	.	.	.	.	.	.	.
=55	=55	=55	=55	=55	=55	=55	=55	=55	=55	=55	=55	=55	=55	=55	=55	=55	=55	=55	=55	=55	=55	=55	=55	=55	=55
4F\	4 2	.	4f\	.	8.g/L	.	8.b-\L	.	2.ryy	.	2.ryy	.	.	.	4b-\	-lei-	.	2.ryy	.	2.ryy	.	.	.	.	.
.	.	.	.	.	16en/Jk	.	16g\Jk	.	.	.	.	.	.	.	.	.	.	.	.	.	.	.	.	.	.
4FF/	3 1	.	4F/	.	4f/	.	4a\	.	.	.	.	.	.	.	8a\	-ſon	.	.	.	.	.	.	.	.	.
.	.	.	.	.	.	.	.	.	.	.	.	.	.	.	8cc\	Chri-	.	.	.	.	.	.	.	.	.
4r	.	.	4r	.	4r	.	4r	.	.	.	.	.	.	.	8cc\	-ſte	.	.	.	.	.	.	.	.	.
.	.	.	.	.	.	.	.	.	.	.	.	.	.	.	8cc\	e-	.	.	.	.	.	.	.	.	.
=56	=56	=56	=56	=56	=56	=56	=56	=56	=56	=56	=56	=56	=56	=56	=56	=56	=56	=56	=56	=56	=56	=56	=56	=56	=56
!LO:TX:b:i:t=pedal&colon;	!	!	!	!	!	!	!	!	!	!	!	!	!	!	!	!	!	!	!	!	!	!	!	!	!
4F'\	.	.	8r	.	8r	.	8cc\	.	2.ryy	.	2.ryy	.	8r	.	[2cc\	-lei-	.	2.ryy	.	2.ryy	.	0.r	.	0.r	.
.	.	.	8f\	.	8a/	.	4cc\	.	.	.	.	.	8a\	e-	.	.	.	.	.	.	.	.	.	.	.
4F'\	.	.	(8en\L	.	(8gn/L	.	.	.	.	.	.	.	8g\L	-lei-	.	.	.	.	.	.	.	.	.	.	.
.	.	.	8f\)	.	8a/	.	4cc\	.	.	.	.	.	8a\J	.	.	.	.	.	.	.	.	.	.	.	.
4F'\	.	.	(8g\	.	8b-/	.	.	.	.	.	.	.	8b-\L	.	4cc\]	.	.	.	.	.	.	.	.	.	.
.	.	.	8f\J)	.	8a/J)	.	8cc\	.	.	.	.	.	8a\J	.	.	.	.	.	.	.	.	.	.	.	.
=57	=57	=57	=57	=57	=57	=57	=57	=57	=57	=57	=57	=57	=57	=57	=57	=57	=57	=57	=57	=57	=57	=57	=57	=57	=57
4C'/	.	.	8en\L|	.	8gn/L	.	8cc\	.	2.ryy	.	2.ryy	.	4g\	-son	8cc\	-son	.	2.ryy	.	2.ryy	.	.	.	.	.
.	.	.	8g\|	.	8b-/	.	4cc\	.	.	.	.	.	.	.	8b-\	Chri-	.	.	.	.	.	.	.	.	.
4C'/	.	.	(8f\	.	(8a/	.	.	.	.	.	.	.	4r	.	8a\L	-ste	.	.	.	.	.	.	.	.	.
.	.	.	8g\)	.	8b-/)	.	4cc\	.	.	.	.	.	.	.	8b-\J	.	.	.	.	.	.	.	.	.	.
4C'/	.	.	(8a\	.	8cc/	.	.	.	.	.	.	.	4r	.	8cc\L	e-	.	.	.	.	.	.	.	.	.
.	.	.	8g\J)	.	8b-/J	.	8cc\	.	.	.	.	.	.	.	8b-\J	.	.	.	.	.	.	.	.	.	.
!	!	!	!	!	!	!	!LO:LB:g=original	!	!	!	!	!	!	!	!	!	!	!	!	!	!	!	!	!	!
=58	=58	=58	=58	=58	=58	=58	=58	=58	=58	=58	=58	=58	=58	=58	=58	=58	=58	=58	=58	=58	=58	=58	=58	=58	=58
4F\	.	.	8f\L|	.	8a/L	.	8cc\	.	2.ryy	.	2.ryy	.	8r	.	[2cc\	-lei-	.	2.ryy	.	2.ryy	.	.	.	.	.
.	.	.	8f\|	.	8a/	.	4cc\	.	.	.	.	.	8a\	e-	.	.	.	.	.	.	.	.	.	.	.
4F\	.	.	(8en\	.	(8g/	.	.	.	.	.	.	.	8g\L	-lei-	.	.	.	.	.	.	.	.	.	.	.
.	.	.	8f\)	.	8a/)	.	4cc\	.	.	.	.	.	8a\J	.	.	.	.	.	.	.	.	.	.	.	.
4F\	.	.	(8g\	.	8b-/	.	.	.	.	.	.	.	8b-\L	.	4cc\]	.	.	.	.	.	.	.	.	.	.
.	.	.	8f\J)	.	8a/J	.	8cc\	.	.	.	.	.	8a\J	.	.	.	.	.	.	.	.	.	.	.	.
!	!	!	!	!	!	!	!	!	!	!	!	!	!	!	!LO:LB:g=original	!	!	!	!	!	!	!	!	!	!
=59	=59	=59	=59	=59	=59	=59	=59	=59	=59	=59	=59	=59	=59	=59	=59	=59	=59	=59	=59	=59	=59	=59	=59	=59	=59
4C/	.	.	8en\L|	.	8g/L	.	8cc\	.	2.ryy	.	2.ryy	.	4g\	-son	8cc\	-son	.	2.ryy	.	2.ryy	.	.	.	.	.
.	.	.	8g\|	.	(8b-/	.	4cc\	.	.	.	.	.	.	.	8b-\	Chri-	.	.	.	.	.	.	.	.	.
4C/	.	.	(8f\	.	8a/	.	.	.	.	.	.	.	4r	.	8a\	-ste	.	.	.	.	.	.	.	.	.
.	.	.	8g\)	.	8b-/)	.	4cc\	.	.	.	.	.	.	.	8b-\	e-	.	.	.	.	.	.	.	.	.
4C/	.	.	(8a\	.	8cc/	.	.	.	.	.	.	.	4r	.	8cc\L	-lei-	.	.	.	.	.	.	.	.	.
.	.	.	8g\J)	.	8b-/J	.	8cc\	.	.	.	.	.	.	.	8b-\J	.	.	.	.	.	.	.	.	.	.
!	!	!	!LO:LB:g=original	!	!LO:LB:g=original	!	!	!	!	!	!	!	!LO:LB:g=original	!	!	!	!	!	!	!	!	!	!	!	!
=60	=60	=60	=60	=60	=60	=60	=60	=60	=60	=60	=60	=60	=60	=60	=60	=60	=60	=60	=60	=60	=60	=60	=60	=60	=60
4F\	.	.	4f\	.	8f/L	.	8a\L	.	2.ryy	.	2.ryy	.	8r	.	8a\	-son	.	2.ryy	.	2.ryy	.	1.r	.	1.r	.
.	.	.	.	.	8a/	.	8cc\	.	.	.	.	.	8a\	Chri-	8cc\	Chri-	.	.	.	.	.	.	.	.	.
4r	.	.	4r	.	8b-/	.	8dd\	.	.	.	.	.	8b-\L	-ste	8dd\L	-ste	.	.	.	.	.	.	.	.	.
.	.	.	.	.	8cc/	.	8een\	.	.	.	.	.	8cc\J	.	8een\J	.	.	.	.	.	.	.	.	.	.
4BB-/	3	.	4r	.	8dd/	.	8ff\	.	.	.	.	.	8dd\L	e-	8ff\L	e-	.	.	.	.	.	.	.	.	.
.	.	.	.	.	8b-/J	.	8dd\J	.	.	.	.	.	8b-\J	.	8dd\J	.	.	.	.	.	.	.	.	.	.
=61	=61	=61	=61	=61	=61	=61	=61	=61	=61	=61	=61	=61	=61	=61	=61	=61	=61	=61	=61	=61	=61	=61	=61	=61	=61
4F\	5 3	.	4f\	.	8.a/L	.	8.cc\L	.	2.ryy	.	2.ryy	.	8.a\L	-lei-	8.cc\L	-lei-	.	2.ryy	.	2.ryy	.	.	.	.	.
.	4 2	.	.	.	16g/Jk	.	16b-\Jk	.	.	.	.	.	16g\Jk	.	16b-\Jk	.	.	.	.	.	.	.	.	.	.
*	*	*	*tremolo	*	*	*	*	*	*	*	*	*	*	*	*	*	*	*	*	*	*	*	*	*	*
4FF/	3 1	.	8f\L	.	4f/	.	4a\	.	.	.	.	.	4f\	-son	4a\	-son	.	.	.	.	.	.	.	.	.
.	.	.	8f\	.	.	.	.	.	.	.	.	.	.	.	.	.	.	.	.	.	.	.	.	.	.
4r	.	.	8f\	.	4r	.	4r	.	.	.	.	.	4r	.	4r	.	.	.	.	.	.	.	.	.	.
.	.	.	8f\J	.	.	.	.	.	.	.	.	.	.	.	.	.	.	.	.	.	.	.	.	.	.
!	!	!	!	!	!	!	!	!	!	!	!	!	!	!	!	!	!	!	!	!	!	!LO:LB:g=original	!	!	!
=62	=62	=62	=62	=62	=62	=62	=62	=62	=62	=62	=62	=62	=62	=62	=62	=62	=62	=62	=62	=62	=62	=62	=62	=62	=62
.	.	.	.	.	8qqA/	.	.	.	.	.	.	.	.	.	.	.	.	.	.	.	.	.	.	.	.
2F\	5 3	.	8f\L	.	8.a/L	.	8.cc\L	.	2.ryy	.	2.ryy	.	8.a\L	Chri-	8.cc\L	Chri-	.	2.ryy	.	2.ryy	.	4r	.	4r	.
.	4 2	.	8f\	.	.	.	.	.	.	.	.	.	.	.	.	.	.	.	.	.	.	.	.	.	.
.	3_ 1_	.	.	.	16g/Jk	.	16b-\Jk	.	.	.	.	.	16g\Jk	.	16b-\Jk	.	.	.	.	.	.	.	.	.	.
.	.	.	8f\	.	4f/	.	4a\	.	.	.	.	.	4f\	-ste	4a\	-ste	.	.	.	.	.	4r	.	4r	.
.	.	.	8f\	.	.	.	.	.	.	.	.	.	.	.	.	.	.	.	.	.	.	.	.	.	.
4FF/	.	.	8f\	.	4r	.	4r	.	.	.	.	.	8r	.	8r	.	.	.	.	.	.	8r	.	8r	.
.	.	.	8f\J	.	.	.	.	.	.	.	.	.	8a\	e-	8cc\	e-	.	.	.	.	.	8a\	.	8cc\	.
*	*	*	*Xtremolo	*	*	*	*	*	*	*	*	*	*	*	*	*	*	*	*	*	*	*	*	*	*
=63	=63	=63	=63	=63	=63	=63	=63	=63	=63	=63	=63	=63	=63	=63	=63	=63	=63	=63	=63	=63	=63	=63	=63	=63	=63
!	!	!	!	!	!	!	!LO:TX:t=P:problem=znak segno na kresce taktowej	!	!	!	!	!	!	!	!	!	!	!	!	!	!	!	!	!	!
!	!	!	!LO:TX:t=P:problem=mixed beam	!	!LO:TX:b:i:t=Dal Segno piano	!	!LO:TX:b:i:t=Volti Kyrie	!	!	!	!	!	!	!	!	!	!	!	!	!	!	!	!	!	!
!	!	!	!	!	!LO:TX:t=P:problem=znak segno na kresce taktowej	!	!LO:TX:a:t=1	!	!	!	!	!	!	!	!	!	!	!	!	!	!	!	!	!	!
4F\	-7 5	.	8f\L|	.	2.r	.	2.r	.	2.ryy	.	2.ryy	.	8.cc\L	-lei-	8.ee-X\L	-lei-	.	2.ryy	.	2.ryy	.	(8.cc\L	.	8.ee-\L	.
.	6 4	.	8f\|	.	.	.	.	.	.	.	.	.	.	.	.	.	.	.	.	.	.	.	.	.	.
.	.	.	.	.	.	.	.	.	.	.	.	.	16b-\Jk	.	16dd\Jk	.	.	.	.	.	.	16b-\Jk)	.	16dd\Jk	.
8F\L	5 3	.	8f\|	.	.	.	.	.	.	.	.	.	4a\	-son	4cc\	-son	.	.	.	.	.	4a\	.	4cc\	.
8F\|	.	.	(8F/	.	.	.	.	.	.	.	.	.	.	.	.	.	.	.	.	.	.	.	.	.	.
!	!	!	!	!	!	!	!	!	!	!	!	!	!LO:TX:b:t=Dal Segno	!	!LO:TX:b:t=Dal Segno	!	!	!	!	!	!	!LO:TX:b:t=D al Segno	!	!	!
!	!	!	!	!	!	!	!	!	!	!	!	!	!LO:TX:t=P:problem=znak segno na kresce taktowej	!	!LO:TX:t=P:problem=znak segno na kresce taktowej	!	!	!	!	!	!	!LO:TX:t=P:problem=znak segno na kresce taktowej	!	!LO:TX:t=P:problem=znak segno na kresce taktowej	!
!|	!	!	!	!	!	!	!	!	!	!	!	!	!LO:TX:t=[segno]	!	!LO:TX:t=[segno]	!	!	!	!	!	!	!LO:TX:t=[segno]	!	!LO:TX:t=[segno]	!
8G\	.	.	8G/	.	.	.	.	.	.	.	.	.	4r	.	4r	.	.	.	.	.	.	4r	.	4r	.
!LO:TX:t=P:problem=znak segno na kresce taktowej	!	!	!LO:TX:b:t=Dal Segno	!	!	!	!	!	!	!	!	!	!	!	!	!	!	!	!	!	!	!	!	!	!
!	!	!	!LO:TX:t=P:problem=znak segno na kresce taktowej	!	!	!	!	!	!	!	!	!	!	!	!	!	!	!	!	!	!	!	!	!	!
!LO:TX:t=[segno]	!	!	!LO:TX:t=[segno]	!	!	!	!	!	!	!	!	!	!	!	!	!	!	!	!	!	!	!	!	!	!
8A\J|	.	.	8A/J)	.	.	.	.	.	.	.	.	.	.	.	.	.	.	.	.	.	.	.	.	.	.
!LO:LB:g=original	!	!	!LO:LB:g=original	!	!LO:PB:g=original	!	!LO:PB:g=original	!	!LO:LB:g=original	!	!LO:LB:g=original	!	!LO:LB:g=original	!	!LO:LB:g=original	!	!	!LO:LB:g=original	!	!LO:LB:g=original	!	!	!	!LO:LB:g=original	!
=64||	=64||	=64||	=64||	=64||	=64||	=64||	=64||	=64||	=64||	=64||	=64||	=64||	=64||	=64||	=64||	=64||	=64||	=64||	=64||	=64||	=64||	=64||	=64||	=64||	=64||
*>D	*	*	*>D	*	*>D	*	*>D	*	*>D	*	*>D	*	*>D	*	*>D	*	*	*>D	*	*>D	*	*>D	*	*>D	*
*k[b-e-a-]	*	*	*k[b-e-a-]	*	*k[b-e-a-]	*	*k[b-e-a-]	*	*k[b-e-a-]	*	*k[b-e-a-]	*	*k[b-e-a-]	*	*k[b-e-a-]	*	*	*	*	*	*	*k[b-e-a-]	*	*k[b-e-a-]	*
*E-:	*	*	*E-:	*	*E-:	*	*E-:	*	*E-:	*	*E-:	*	*E-:	*	*E-:	*	*	*	*	*	*	*	*	*	*
*M2/2	*	*	*M2/2	*	*M2/2	*	*M2/2	*	*M2/2	*	*M2/2	*	*M2/2	*	*M2/2	*	*	*M2/2	*	*M2/2	*	*M2/2	*	*M2/2	*
*met(c|)	*	*	*met(c|)	*	*met(c|)	*	*met(c|)	*	*met(c|)	*	*met(c|)	*	*met(c|)	*	*met(c|)	*	*	*met(c|)	*	*met(c|)	*	*met(c|)	*	*met(c|)	*
!LO:TX:a:i:t=Adagio	!	!	!LO:TX:a:i:t=ada	!	!LO:TX:a:i:t=adagio	!	!LO:TX:b:i:t=Kyrie	!	!	!	!	!	!	!	!LO:TX:t=P:problem=bemole ee- b- a-	!	!	!LO:TX:a:i:t=ad.	!	!LO:TX:a:i:t=ada	!	!LO:TX:a:i:t=ada	!	!LO:TX:b:rj:i:t=Kyrie	!
!LO:TX:b:i:t=Kyrie	!	!LO:DY:t=f.	!LO:TX:b:i:t=Kyrie	!	!LO:TX:b:i:t=Kyrie	!LO:DY:rj:t=f	!LO:TX:a:i:t=Adagio	!LO:DY:a:t=f.	!LO:TX:a:i:t=Adagio	!	!LO:TX:a:i:t=Adagio	!	!LO:TX:a:i:t=Adagio	!	!LO:TX:a:t=ada	!	!	!LO:TX:a:i:t=Kyrie	!	!LO:TX:b:i:t=Kyrie	!LO:DY:t=f	!LO:TX:b:i:t=Kyrie	!	!LO:TX:a:i:rj:t=ada	!LO:DY:rj:t=f
8E-\L|	.	f	8e-\L	.	8e-/L 8G/	f	8e-/L 8G/	f	00r	.	00r	.	00r	.	00r	.	.	8G/L	.	8e-\L	f	8b-\L	.	8ee-\L	f
16.E-\L|	.	.	(16.e-'\L	.	(16.e-/L	.	16.e-/L	.	.	.	.	.	.	.	.	.	.	16.G/L	.	16.e-\L	.	16.b-\L	.	16.ee-\L	.
32E-\JJk|	.	.	32e-'\JJk)	.	32e-/JJk)	.	32e-/JJk	.	.	.	.	.	.	.	.	.	.	32G/JJk	.	32e-\JJk	.	32b-\JJk	.	32ee-\JJk	.
8.E-\L|	.	.	8.e-\L	.	8.e-/L	.	8.e-/L	.	.	.	.	.	.	.	.	.	.	4G/	.	4e-\	.	4b-\	.	4ee-\	.
16BB-\Jk|	.	.	16B-\Jk	.	16B-/Jk	.	16B-/Jk	.	.	.	.	.	.	.	.	.	.	.	.	.	.	.	.	.	.
8E-\L|	.	.	8e-'\L	.	8e-/L 8G/	.	8e-/L 8G/	.	.	.	.	.	.	.	.	.	.	8G/L	.	8e-\L	.	8b-\L	.	8ee-\L	.
16.E-\L|	.	.	(16.e-'\L	.	16.e-/L	.	16.e-/L	.	.	.	.	.	.	.	.	.	.	16.G/L	.	16.e-\L	.	16.b-\L	.	16.ee-\L	.
32E-\JJk|	.	.	32e-'\JJk)	.	32e-/JJk	.	32e-/JJk	.	.	.	.	.	.	.	.	.	.	32G/JJk	.	32e-\JJk	.	32b-\JJk	.	32ee-\JJk	.
8E-\L|	.	.	8.e-\L	.	8.e-/L	.	8.e-/L	.	.	.	.	.	.	.	.	.	.	4G/	.	4e-\	.	4b-\	.	4ee-\	.
8BB-\J|	.	.	.	.	.	.	.	.	.	.	.	.	.	.	.	.	.	.	.	.	.	.	.	.	.
.	.	.	16B-\Jk	.	16B-/Jk	.	16B-/Jk	.	.	.	.	.	.	.	.	.	.	.	.	.	.	.	.	.	.
!	!	!	!	!	!	!	!	!	!	!	!	!	!	!	!	!	!	!	!	!	!	!LO:LB:g=original	!	!	!
=65	=65	=65	=65	=65	=65	=65	=65	=65	=65	=65	=65	=65	=65	=65	=65	=65	=65	=65	=65	=65	=65	=65	=65	=65	=65
!LO:TX:a:i:t=Solo	!	!LO:DY:t=p.	!	!	!	!	!	!	!	!	!	!	!	!	!	!	!	!	!	!	!	!	!	!	!
4E-\	.	p	4e-\	.	8e-/L 8G/	.	8e-/L 8G/	.	.	.	.	.	.	.	.	.	.	8G/	.	8e-\	.	8b-\	.	8ee-\	.
!	!	!	!	!	!LO:TX:a:i:t=dol	!LO:DY:t=p	!LO:TX:a:i:t=dol&colon;	!LO:DY:t=p.	!	!	!	!	!	!	!	!	!	!	!	!	!	!	!	!	!
.	.	.	.	.	(16.g'/L	p	16.b-'/L	p	.	.	.	.	.	.	.	.	.	8r	.	8r	.	8r	.	8r	.
.	.	.	.	.	32g'/JJk)	.	32b-'/JJk	.	.	.	.	.	.	.	.	.	.	.	.	.	.	.	.	.	.
4r	.	.	4r	.	(16a-/LL	.	(16cc\LL	.	.	.	.	.	.	.	.	.	.	4r	.	4r	.	4r	.	4r	.
.	.	.	.	.	16b-/)	.	16dd\)	.	.	.	.	.	.	.	.	.	.	.	.	.	.	.	.	.	.
.	.	.	.	.	(16cc/	.	(16ee-\	.	.	.	.	.	.	.	.	.	.	.	.	.	.	.	.	.	.
.	.	.	.	.	16a-/JJ)	.	16cc\JJ)	.	.	.	.	.	.	.	.	.	.	.	.	.	.	.	.	.	.
!	!	!	!	!	!	!	!	!LO:DY:t=f.	!	!	!	!	!	!	!	!	!	!	!	!	!	!	!	!	!
4E-\	.	.	4B-/	.	8g/L	.	8b-/L	f	.	.	.	.	.	.	.	.	.	8G/	.	8e-\	.	8b-\	.	8ee-\	.
!	!	!	!	!	!	!	!	!LO:DY:t=p.	!	!	!	!	!	!	!	!	!	!	!	!	!	!	!	!	!
.	.	.	.	.	16.g/L	.	16.b-/L	p	.	.	.	.	.	.	.	.	.	8r	.	8r	.	8r	.	8r	.
.	.	.	.	.	32g/JJk	.	32b-/JJk	.	.	.	.	.	.	.	.	.	.	.	.	.	.	.	.	.	.
4r	.	.	4r	.	(16g/LL	.	(16b-/LL	.	.	.	.	.	.	.	.	.	.	4r	.	4r	.	4r	.	4r	.
.	.	.	.	.	16g/)	.	16bn/)	.	.	.	.	.	.	.	.	.	.	.	.	.	.	.	.	.	.
.	.	.	.	.	16a-/|	.	(16cc/	.	.	.	.	.	.	.	.	.	.	.	.	.	.	.	.	.	.
.	.	.	.	.	16f/JJ|	.	16a-/JJ)	.	.	.	.	.	.	.	.	.	.	.	.	.	.	.	.	.	.
=66	=66	=66	=66	=66	=66	=66	=66	=66	=66	=66	=66	=66	=66	=66	=66	=66	=66	=66	=66	=66	=66	=66	=66	=66	=66
!	!	!	!	!	!	!	!	!	!	!	!	!	!	!	!	!	!	!	!	!	!	!LO:N:vis=8.	!	!	!
4E-\	3	.	4B-/	.	8e-/L	.	8g/L	.	.	.	.	.	.	.	.	.	.	8G/L	.	8e-\L	.	8ee-\L	.	8gg\L	.
.	.	.	.	.	16.e-/L	.	16.g/L	.	.	.	.	.	.	.	.	.	.	16.G/L	.	16.e-\L	.	16.ee-\L	.	16.gg\L	.
.	.	.	.	.	32e-/JJk	.	32g/JJk	.	.	.	.	.	.	.	.	.	.	32G/JJk	.	32e-\JJk	.	32ee-\JJk	.	32gg\JJk	.
!LO:TX:t=P:problem=mixed beam	!	!	!	!LO:DY:t=p	!	!	!	!	!	!	!	!	!	!	!	!	!	!	!	!	!	!	!	!	!
8B-\L	6 4	.	8B-/L	p	16.g/LL	.	(16.b-X/LL	.	.	.	.	.	.	.	.	.	.	8e-\L	.	8g\L	.	16.gg\LL	.	16.bb-\LL	.
.	.	.	.	.	32e-/K	.	32g/K)	.	.	.	.	.	.	.	.	.	.	.	.	.	.	32ee-\K	.	32gg\K	.
8BB-/J	5 3	.	8B-/J	.	16.f/	.	(16.a-/	.	.	.	.	.	.	.	.	.	.	8B-\J	.	8f\J	.	16.ff\	.	16.aa-\	.
.	.	.	.	.	32A-/JJk	.	32f/JJk)	.	.	.	.	.	.	.	.	.	.	.	.	.	.	32dd\JJk	.	32ff\JJk	.
!	!	!	!	!	!LO:LB:g=original	!LO:DY:rj:t=p	!	!	!	!	!	!	!	!	!	!	!	!	!LO:DY:t=p	!	!	!	!	!	!
8E-\L	5_ 3_	.	16E-/LL	.	(16G/LL	p	8e-/	.	.	.	.	.	.	.	.	.	.	4G/	p	4e-\	.	4b-\	.	4ee-\	.
.	.	.	16E-/	.	16B-/)	.	.	.	.	.	.	.	.	.	.	.	.	.	.	.	.	.	.	.	.
!	!	!	!	!	!	!	!	!	!	!	!	!	!	!	!	!	!	!	!	!	!LO:DY:t=p	!	!	!	!
8E-\	.	.	16E-/	.	(16G/	.	16r	.	.	.	.	.	.	.	.	.	.	.	.	.	p	.	.	.	.
.	.	.	16E-/JJ	.	16B-/JJ)	.	16g/|	.	.	.	.	.	.	.	.	.	.	.	.	.	.	.	.	.	.
*	*	*	*tremolo	*	*	*	*	*	*	*	*	*	*	*	*	*	*	*	*	*	*	*	*	*	*
8E-\	4_ 2_	.	16E-/LL	.	(16A-/LL	.	(16a-/LL	.	.	.	.	.	.	.	.	.	.	4BB-/	.	4B-/	.	4b-\	.	4ff\	.
.	.	.	16E-/	.	16B-/)	.	16f/)	.	.	.	.	.	.	.	.	.	.	.	.	.	.	.	.	.	.
8E-\J	.	.	16E-/	.	(16A-/	.	(16f/	.	.	.	.	.	.	.	.	.	.	.	.	.	.	.	.	.	.
.	.	.	16E-/JJ	.	16B-/JJ)	.	16d/JJ)	.	.	.	.	.	.	.	.	.	.	.	.	.	.	.	.	.	.
=67	=67	=67	=67	=67	=67	=67	=67	=67	=67	=67	=67	=67	=67	=67	=67	=67	=67	=67	=67	=67	=67	=67	=67	=67	=67
*	*	*	*	*	*	*	*	*	*	*	*	*	*	*	*	*	*	*ITrd-2c-3	*	*	*	*	*	*	*
*	*	*	*	*	*	*	*	*	*	*	*	*	*	*	*	*	*	*clefF4	*	*	*	*	*	*	*
!	!	!	!	!	!	!	!	!	!	!	!	!	!	!	!	!	!	!	!	!	!	!	!	!	!
8E-\L	5_ 3_	.	16E-/LL	.	(16G/LL	.	8e-/	.	.	.	.	.	.	.	.	.	.	2EE-/	.	2e-\	.	2b-\	.	4ee-\	.
.	.	.	16E-/	.	16B-/)	.	.	.	.	.	.	.	.	.	.	.	.	.	.	.	.	.	.	.	.
8E-\	.	.	16E-/	.	(16G/	.	16r	.	.	.	.	.	.	.	.	.	.	.	.	.	.	.	.	.	.
!	!	!	!	!LO:DY:t=pp.	!	!	!	!	!	!	!	!	!	!	!	!	!	!	!	!	!	!	!	!	!
.	.	.	16E-/JJ	pp	16B-/JJ)	.	16g/|	.	.	.	.	.	.	.	.	.	.	.	.	.	.	.	.	.	.
8E-\	4_ 2_	.	16E-/LL	.	(16A-/LL	.	(16a-/LL	.	.	.	.	.	.	.	.	.	.	.	.	.	.	.	.	4ff\	.
.	.	.	16E-/	.	16B-/)	.	16f/)	.	.	.	.	.	.	.	.	.	.	.	.	.	.	.	.	.	.
8E-\J	.	.	16E-/	.	(16A-/	.	(16f/	.	.	.	.	.	.	.	.	.	.	.	.	.	.	.	.	.	.
.	.	.	16E-/JJ	.	16B-/JJ)	.	16d/JJ)	.	.	.	.	.	.	.	.	.	.	.	.	.	.	.	.	.	.
*	*	*	*Xtremolo	*	*	*	*	*	*	*	*	*	*	*	*	*	*	*	*	*	*	*	*	*	*
!	!	!	!LO:LB:g=original	!	!	!	!LO:LB:g=original	!	!	!	!	!	!	!	!	!	!	!LO:LB:g=original	!	!	!	!	!	!	!
8E-\L	5_ 3_	.	8B-/L	.	8B-/L	.	8e-/L	.	.	.	.	.	.	.	.	.	.	8EE-/L	.	8e-\L	.	8b-\L	.	8ee-\L	.
8E-\J	.	.	8B-/J	.	8B-/J	.	8e-/J	.	.	.	.	.	.	.	.	.	.	8EE-/J	.	8e-\J	.	8b-\J	.	8ee-\J	.
4E-\	x	.	4B-/	.	4B-/	.	4e-/ 4G/	.	.	.	.	.	.	.	.	.	.	4EE-/	.	4e-\	.	4b-\	.	4ee-\	.
!	!	!	!	!	!	!	!	!	!	!	!	!	!	!	!	!	!	!	!	!LO:LB:g=original	!	!	!	!LO:LB:g=original	!
=68	=68	=68	=68	=68	=68	=68	=68	=68	=68	=68	=68	=68	=68	=68	=68	=68	=68	=68	=68	=68	=68	=68	=68	=68	=68
*	*	*	*	*	*	*	*	*	*	*	*	*	*	*	*	*	*	*ITrd5c9	*	*	*	*	*	*	*
*	*	*	*	*	*	*	*	*	*	*	*	*	*	*	*	*	*	*clefG2	*	*	*	*	*	*	*
!LO:TX:a:i:t=Tutti	!	!	!	!LO:DY:t=f	!	!LO:DY:t=f	!	!LO:DY:a:t=f.	!	!	!	!	!	!	!	!	!	!	!LO:DY:rj:t=f	!	!	!	!	!	!
8E-\	.	.	1B-/	f	16r	f	16r	f	4.E-\	Ky-	4.e-\	Ky-	4.g\	Ky-	4.b-\	Ky-	.	1G/	f	1e-/	.	1ee-\	.	1gg\	.
.	.	.	.	.	16g/LL|	.	16b-/LL|	.	.	.	.	.	.	.	.	.	.	.	.	.	.	.	.	.	.
8r	.	.	.	.	(16g/	.	(16b-/	.	.	.	.	.	.	.	.	.	.	.	.	.	.	.	.	.	.
.	.	.	.	.	16e-/JJ)	.	16g/JJ)	.	.	.	.	.	.	.	.	.	.	.	.	.	.	.	.	.	.
8E-\	.	.	.	.	16r	.	16r	.	.	.	.	.	.	.	.	.	.	.	.	.	.	.	.	.	.
.	.	.	.	.	16g/LL|	.	16b-/LL|	.	.	.	.	.	.	.	.	.	.	.	.	.	.	.	.	.	.
8r	.	.	.	.	(16g/	.	(16b-/	.	8E-\	-ri-	8e-\	-ri-	8g\	-ri-	8b-\	-ri-	.	.	.	.	.	.	.	.	.
.	.	.	.	.	16b-/JJ)	.	16ee-/JJ)	.	.	.	.	.	.	.	.	.	.	.	.	.	.	.	.	.	.
8E-\	.	.	.	.	16r	.	16r	.	2E-\	-e	2e-\	-e	2g\	-e	2b-\	-e	.	.	.	.	.	.	.	.	.
.	.	.	.	.	16g/LL|	.	16b-/LL|	.	.	.	.	.	.	.	.	.	.	.	.	.	.	.	.	.	.
8r	.	.	.	.	(16g/	.	(16b-/	.	.	.	.	.	.	.	.	.	.	.	.	.	.	.	.	.	.
.	.	.	.	.	16e-/JJ)	.	16g/JJ)	.	.	.	.	.	.	.	.	.	.	.	.	.	.	.	.	.	.
8E-\	.	.	.	.	16r	.	16r	.	.	.	.	.	.	.	.	.	.	.	.	.	.	.	.	.	.
.	.	.	.	.	16g/LL|	.	16b-/LL|	.	.	.	.	.	.	.	.	.	.	.	.	.	.	.	.	.	.
8r	.	.	.	.	(16g/	.	(16b-/	.	.	.	.	.	.	.	.	.	.	.	.	.	.	.	.	.	.
.	.	.	.	.	16b-/JJ)	.	16ee-/JJ)	.	.	.	.	.	.	.	.	.	.	.	.	.	.	.	.	.	.
=69	=69	=69	=69	=69	=69	=69	=69	=69	=69	=69	=69	=69	=69	=69	=69	=69	=69	=69	=69	=69	=69	=69	=69	=69	=69
8A-\	5_ 3_	.	1c\	.	16r	.	16r	.	2E-\	e-	2e-\	e-	2a-\	e-	2cc\	e-	.	1E-/	.	1e-/	.	1ee-\	.	1aa-\	.
.	.	.	.	.	16a-/LL|	.	16cc\LL|	.	.	.	.	.	.	.	.	.	.	.	.	.	.	.	.	.	.
8r	.	.	.	.	(16a-/	.	(16cc\	.	.	.	.	.	.	.	.	.	.	.	.	.	.	.	.	.	.
.	.	.	.	.	16e-/JJ)	.	16a-\JJ)	.	.	.	.	.	.	.	.	.	.	.	.	.	.	.	.	.	.
8A-\	.	.	.	.	16r	.	16r	.	.	.	.	.	.	.	.	.	.	.	.	.	.	.	.	.	.
.	.	.	.	.	16a-/LL|	.	16cc\LL|	.	.	.	.	.	.	.	.	.	.	.	.	.	.	.	.	.	.
8r	x	.	.	.	(16a-/	.	(16cc\	.	.	.	.	.	.	.	.	.	.	.	.	.	.	.	.	.	.
.	.	.	.	.	16cc/JJ)	.	16ee-\JJ)	.	.	.	.	.	.	.	.	.	.	.	.	.	.	.	.	.	.
!	!	!	!	!	!LO:LB:g=original	!	!	!	!	!	!	!	!	!	!	!	!	!	!	!	!	!	!	!	!
8A-\	.	.	.	.	16r	.	16r	.	4E-\	-lei-	4e-\	-lei-	4a-\	-lei-	4cc\	-lei-	.	.	.	.	.	.	.	.	.
.	.	.	.	.	16a-/LL|	.	16cc\LL|	.	.	.	.	.	.	.	.	.	.	.	.	.	.	.	.	.	.
8r	.	.	.	.	(16a-/	.	(16cc\	.	.	.	.	.	.	.	.	.	.	.	.	.	.	.	.	.	.
.	.	.	.	.	16e-/JJ)	.	16a-\JJ)	.	.	.	.	.	.	.	.	.	.	.	.	.	.	.	.	.	.
8A-\	.	.	.	.	16r	.	16r	.	4E-\	-ſon	4e-\	-ſon	4a-\	-ſon	4cc\	-ſon	.	.	.	.	.	.	.	.	.
.	.	.	.	.	16a-/LL|	.	16cc\LL|	.	.	.	.	.	.	.	.	.	.	.	.	.	.	.	.	.	.
8r	.	.	.	.	(16a-/	.	(16cc\	.	.	.	.	.	.	.	.	.	.	.	.	.	.	.	.	.	.
!	!	!	!	!	!LO:SIC:v:s=16cc/JJ	!	!	!	!	!	!	!	!	!	!	!	!	!	!	!	!	!	!	!	!
.	.	.	.	.	16b-/JJ)	.	16ee-\JJ)	.	.	.	.	.	.	.	.	.	.	.	.	.	.	.	.	.	.
!LO:LB:g=original	!	!	!	!	!	!	!	!	!	!	!	!	!	!	!	!	!	!	!	!	!	!	!	!	!
=70	=70	=70	=70	=70	=70	=70	=70	=70	=70	=70	=70	=70	=70	=70	=70	=70	=70	=70	=70	=70	=70	=70	=70	=70	=70
8E-\	5 3	.	1B-/	.	16r	.	16r	.	4.E-\	Ky-	4.e-\	Ky-	4.g\	Ky-	4.b-\	Ky-	.	1G/	.	1e-/	.	1ee-\	.	1gg\	.
.	.	.	.	.	16g/LL|	.	16b-\LL|	.	.	.	.	.	.	.	.	.	.	.	.	.	.	.	.	.	.
8r	.	.	.	.	(16g/	.	(16b-\	.	.	.	.	.	.	.	.	.	.	.	.	.	.	.	.	.	.
.	.	.	.	.	16e-/JJ)	.	16g\JJ)	.	.	.	.	.	.	.	.	.	.	.	.	.	.	.	.	.	.
8E-\	.	.	.	.	16r	.	16r	.	.	.	.	.	.	.	.	.	.	.	.	.	.	.	.	.	.
.	.	.	.	.	16g/LL|	.	16b-\LL|	.	.	.	.	.	.	.	.	.	.	.	.	.	.	.	.	.	.
8r	.	.	.	.	(16g/	.	(16b-\	.	8E-\	-ri-	8e-\	-ri-	8g\	-ri-	8b-\	-ri-	.	.	.	.	.	.	.	.	.
.	.	.	.	.	16b-/JJ)	.	16ee-\JJ)	.	.	.	.	.	.	.	.	.	.	.	.	.	.	.	.	.	.
8E-\	.	.	.	.	16r	.	16r	.	2E-\	-e	2e-\	-e	2g\	-e	2b-\	-e	.	.	.	.	.	.	.	.	.
.	.	.	.	.	16g/LL|	.	16b-\LL|	.	.	.	.	.	.	.	.	.	.	.	.	.	.	.	.	.	.
8r	.	.	.	.	(16g/	.	(16b-\	.	.	.	.	.	.	.	.	.	.	.	.	.	.	.	.	.	.
.	.	.	.	.	16e-/JJ)	.	16g\JJ)	.	.	.	.	.	.	.	.	.	.	.	.	.	.	.	.	.	.
8E-\	.	.	.	.	16r	.	16r	.	.	.	.	.	.	.	.	.	.	.	.	.	.	.	.	.	.
.	.	.	.	.	16g/LL|	.	16b-\LL|	.	.	.	.	.	.	.	.	.	.	.	.	.	.	.	.	.	.
8r	.	.	.	.	(16g/	.	(16b-\	.	.	.	.	.	.	.	.	.	.	.	.	.	.	.	.	.	.
.	.	.	.	.	16b-/JJ)	.	16ee-\JJ)	.	.	.	.	.	.	.	.	.	.	.	.	.	.	.	.	.	.
=71	=71	=71	=71	=71	=71	=71	=71	=71	=71	=71	=71	=71	=71	=71	=71	=71	=71	=71	=71	=71	=71	=71	=71	=71	=71
8r	.	.	8r	.	(16g/LL	.	(16b-/LL	.	8r	.	8B-\	e-	16g\LL	e-	16b-\LL	e-	.	2r	.	2r	.	16gg\LL	.	16bb-\LL	.
.	.	.	.	.	16f/JJ)	.	16a-/JJ)	.	.	.	.	.	16f\JJ	.	16aa-\JJ	.	.	.	.	.	.	16ff\JJ	.	16aa-\JJ	.
8BB-/L	7	.	8B-\L	.	4f/	.	4a-/	.	8BB-/L	e-	4d\	.	4f\	.	4aa-\	.	.	.	.	.	.	4ff\	.	4aa-\	.
!	!	!	!	!LO:DY:t=p	!	!	!	!	!	!	!	!	!	!	!	!	!	!	!	!	!	!	!	!	!
8D/	.	.	8d\	p	.	.	.	.	8D/	.	.	.	.	.	.	.	.	.	.	.	.	.	.	.	.
*	*	*	*	*	*	*	*	*	*	*	*	*	*	*	*	*	*	*	*	*	*	*custos:ee-	*	*	*
8E-/J	3	.	8e-\J	.	8e-/	.	8g/	.	8E-/J	.	8B-\	.	8e-\	.	8gg\	.	.	.	.	.	.	8ee-\	.	8gg\	.
!	!	!	!	!	!	!	!LO:LB:g=original	!	!	!	!	!	!	!	!	!	!	!	!	!	!	!LO:LB:g=original	!	!	!
4B-\	6 4	.	4b-\	.	(16e-/LL	.	(16g/LL	.	4B-\	-lei-	4B-\	-lei-	16e-\LL	-lei-	16gg\LL	-lei-	.	8BB-/L	.	8B-/L	.	(16ee-\LL	.	16gg\LL	.
.	.	.	.	.	16d/)	.	16f/)	.	.	.	.	.	16d\J	.	16ff\J	.	.	.	.	.	.	16dd\)	.	16ff\	.
.	5_ 3_	.	.	.	16d'/	.	16f'/	.	.	.	.	.	8d\J	.	8ff\J	.	.	16BB-/L	.	16B-/L	.	16dd'\	.	16ff\	.
.	.	.	.	.	16d'/JJ	.	16f'/JJ	.	.	.	.	.	.	.	.	.	.	16BB-/JJ	.	16B-/JJ	.	16dd'\JJ	.	16ff\JJ	.
4BB-/	.	.	4B-/	.	4d/	.	4f/	.	4BB-/	-ſon	4B-\	-ſon	4d\	-son	4ff\	-son	.	4BB-/	.	4B-/	.	4dd\	.	4ff\	.
=72	=72	=72	=72	=72	=72	=72	=72	=72	=72	=72	=72	=72	=72	=72	=72	=72	=72	=72	=72	=72	=72	=72	=72	=72	=72
!	!	!	!	!LO:DY:t=f	!	!	!	!	!	!	!	!	!	!	!	!	!	!	!	!	!	!	!	!	!
4BB-/	5 3	.	4f\	f	4B-/	.	4B-/	.	8r	.	8r	.	8r	.	8r	.	.	2r	.	2r	.	4b-\	.	4bb-\	.
.	.	.	.	.	.	.	.	.	16BB-/	Ky-	16d\	Ky-	16b-\	Ky-	16ff\	Ky-	.	.	.	.	.	.	.	.	.
.	.	.	.	.	.	.	.	.	16BB-/	-ri-	16d\	-ri-	16b-\	-ri-	16ff\	-ri-	.	.	.	.	.	.	.	.	.
8B-\L	.	.	8f\L	.	4r	.	4r	.	8D\	-e	8d\	-e	8b-\	-e	8ff\	-e	.	.	.	.	.	4r	.	4r	.
8d\J	.	.	8f\J	.	.	.	.	.	8D\	e-	8d\	e-	8b-\	e-	8ff\	e-	.	.	.	.	.	.	.	.	.
!	!	!	!	!	!	!	!	!	!	!	!LO:LB:g=original	!	!LO:LB:g=original	!	!	!	!	!	!	!	!	!	!	!	!
8e-\L|	.	.	8g\L	.	8r	.	8r	.	8E-\	-lei-	8e-\	-lei-	8b-\	-lei-	8gg\	-lei-	.	8r	.	8r	.	8r	.	8r	.
.	.	.	.	.	.	.	8qb-/	.	.	.	.	.	.	.	.	.	.	.	.	.	.	.	.	.	.
!	!	!	!	!	!	!LO:DY:t=f	!	!	!	!	!	!	!	!	!	!	!	!	!	!	!LO:DY:t=f	!	!	!	!
8B-\|	.	.	8b-\	.	8b-'/L	f	8bb-'\L	.	8E-\	-ſon	8e-\	-ſon	8b-\	-ſon	8gg\	-son	.	8B-/L|	.	8b-\L	f	8b-\L	.	8bb-\L	.
8G\|	.	.	8g\	.	8g'/	.	8gg'\	.	4r	.	4r	.	4r	.	4r	.	.	8G/|	.	8g\	.	8g\	.	8gg\	.
!	!	!	!	!	!	!	!	!	!	!	!	!	!	!	!	!	!	!	!	!	!	!	!	!LO:SIC:v:s=8ee-	!
8E-\J|	.	.	8e-\J	.	8e-'/J	.	8ee-'\J	.	.	.	.	.	.	.	.	.	.	8E-/J|	.	8e-\J	.	8e-\J	.	8ff\J	.
!	!	!	!	!	!LO:LB:g=original	!	!	!	!LO:LB:g=original	!	!	!	!	!	!LO:LB:g=original	!	!	!	!	!	!	!	!	!	!
=73	=73	=73	=73	=73	=73	=73	=73	=73	=73	=73	=73	=73	=73	=73	=73	=73	=73	=73	=73	=73	=73	=73	=73	=73	=73
4BB-/	.	.	4f\	.	4B-/	.	4b-\	.	8r	.	8r	.	8r	.	8r	.	.	4BB-/	.	2r	.	4b-\	.	4bb-\	.
*	*	*	*	*	*	*	*	*	*	*	*	*ij	*	*ij	*	*ij	*	*	*	*	*	*	*	*	*
.	.	.	.	.	.	.	.	.	16BB-/	Ky-	16d\	Ky-	16b-\	Ky-	16ff\	Ky-	.	.	.	.	.	.	.	.	.
.	.	.	.	.	.	.	.	.	16BB-/	-ri-	16d\	-ri-	16b-\	-ri-	16ff\	-ri-	.	.	.	.	.	.	.	.	.
8B-\L	.	.	8f\L	.	4r	.	4r	.	8D\	-e	8d\	-e	8b-\	-e	8ff\	-e	.	4r	.	.	.	4r	.	4r	.
8d\J	.	.	8f\J	.	.	.	.	.	8D\	e-	8d\	e-	8b-\	e-	8ff\	e-	.	.	.	.	.	.	.	.	.
!	!	!	!	!	!	!	!	!	!	!	!	!	!	!	!	!	!	!LO:LB:g=original	!	!	!	!	!	!	!
8e-\L	.	.	8g\L	.	8r	.	8r	.	8E-\	-lei-	8e-\	-lei-	8b-\	-lei-	8gg\	-lei-	.	8r	.	8r	.	8r	.	8r	.
.	.	.	.	.	.	.	8qb-/	.	.	.	.	.	.	.	.	.	.	.	.	.	.	.	.	.	.
!	!	!	!	!	!	!LO:DY:t=f	!	!	!	!	!	!	!	!	!	!	!	!	!	!	!	!	!	!	!
8B-\|	.	.	8b-\	.	8b-'/L	f	8bb-\L	.	8E-\	-ſon	8e-\	-ſon	8b-\	-ſon	8gg\	-son	.	8B-/L	.	8b-\L	.	8b-'/L	.	8bb-\L	.
*	*	*	*	*	*	*	*	*	*	*	*	*Xij	*	*Xij	*	*Xij	*	*	*	*	*	*	*	*	*
8G\|	.	.	8g\	.	8g'/	.	8gg\	.	4r	.	4r	.	4r	.	4r	.	.	8G/	.	8g\	.	8g'/	.	8gg\	.
8E-\J|	.	.	8e-\J	.	8e-'/J	.	8ee-\J	.	.	.	.	.	.	.	.	.	.	8E-/J	.	8e-\J	.	8e-'/J	.	8ee-\J	.
=74	=74	=74	=74	=74	=74	=74	=74	=74	=74	=74	=74	=74	=74	=74	=74	=74	=74	=74	=74	=74	=74	=74	=74	=74	=74
!LO:TX:t=P:problem=mixed beam	!	!	!	!LO:DY:t=p	!	!	!	!LO:DY:rj:t=p.	!	!	!	!	!	!	!	!	!	!	!	!	!	!LO:TX:a:t=2	!	!LO:TX:a:t=2	!
8E-\L	-7_ 5_	.	4g\	p	16r	.	16r	p	0r	.	0r	.	8.b-\	Ky-	8.dd-X\	Ky-	.	1r	.	1r	.	0r	.	0r	.
!	!	!	!	!	!	!LO:DY:t=p	!	!	!	!	!	!	!	!	!	!	!	!	!	!	!	!	!	!	!
.	.	.	.	.	16b-/LL|	p	16dd-X\LL	.	.	.	.	.	.	.	.	.	.	.	.	.	.	.	.	.	.
8G\	.	.	.	.	16b-/|	.	16dd-\	.	.	.	.	.	.	.	.	.	.	.	.	.	.	.	.	.	.
.	.	.	.	.	16b-/JJ|	.	16dd-\JJ	.	.	.	.	.	16b-\	-ri-	16dd-\	-ri-	.	.	.	.	.	.	.	.	.
!	!	!	!LO:TX:t=P:problem=mixed beam	!	!	!	!	!	!	!	!	!	!	!	!	!	!	!	!	!	!	!	!	!	!
8A-\	5_ 3_	.	8a-\L	.	16r	.	16r	.	.	.	.	.	8a-\	-e	8cc\	-e	.	.	.	.	.	.	.	.	.
.	.	.	.	.	16a-/LL|	.	16cc\LL	.	.	.	.	.	.	.	.	.	.	.	.	.	.	.	.	.	.
!	!	!	!	!	!	!	!	!	!	!	!	!	!LO:N:vis=8	!	!	!	!	!	!	!	!	!	!	!	!
8AA-/J	.	.	8A-/J	.	16a-/|	.	16cc\	.	.	.	.	.	16r	.	16r	.	.	.	.	.	.	.	.	.	.
.	.	.	.	.	16a-/JJ|	.	16cc\JJ	.	.	.	.	.	16a-\	e-	16cc\	e-	.	.	.	.	.	.	.	.	.
!LO:TX:t=P:problem=mixed beam	!	!	!	!	!	!	!	!	!	!	!	!	!	!	!	!	!	!	!	!	!	!	!	!	!
8E-\L	-7_ 5_	.	4g\	.	16r	.	16r	.	.	.	.	.	4b-\	-lei-	4dd-X\	-lei-	.	.	.	.	.	.	.	.	.
.	.	.	.	.	16b-/LL|	.	16dd-X\LL	.	.	.	.	.	.	.	.	.	.	.	.	.	.	.	.	.	.
8G\	.	.	.	.	16b-/|	.	16dd-\	.	.	.	.	.	.	.	.	.	.	.	.	.	.	.	.	.	.
.	.	.	.	.	16b-/JJ|	.	16dd-\JJ	.	.	.	.	.	.	.	.	.	.	.	.	.	.	.	.	.	.
!	!	!	!LO:TX:t=P:problem=mixed beam	!	!	!	!	!	!	!	!	!	!	!	!	!	!	!	!	!	!	!	!	!	!
8A-\	5_ 3_	.	8a-\L	.	16r	.	16r	.	.	.	.	.	8a-\	-ſon	8cc\	-son	.	.	.	.	.	.	.	.	.
.	.	.	.	.	16a-/LL|	.	16cc\LL	.	.	.	.	.	.	.	.	.	.	.	.	.	.	.	.	.	.
8AA-/J	.	.	8A-/J	.	16a-/|	.	16cc\	.	.	.	.	.	8r	.	8r	.	.	.	.	.	.	.	.	.	.
.	.	.	.	.	16a-/JJ|	.	16cc\JJ	.	.	.	.	.	.	.	.	.	.	.	.	.	.	.	.	.	.
!	!	!	!LO:LB:g=original	!	!	!	!	!	!	!	!	!	!	!	!	!	!	!	!	!	!	!	!	!	!
=75	=75	=75	=75	=75	=75	=75	=75	=75	=75	=75	=75	=75	=75	=75	=75	=75	=75	=75	=75	=75	=75	=75	=75	=75	=75
*	*	*	*	*	*	*	*	*	*	*	*	*	*	*ij	*	*	*	*	*	*	*	*	*	*	*
!LO:TX:t=P:problem=mixed beam	!	!	!	!	!	!	!	!	!	!	!	!	!	!	!	!	!	!	!	!	!	!	!	!	!
8F\L	7_ 5_	.	4f\	.	16r	.	16r	.	.	.	.	.	8.cc\	Ky-	8.ee-\	Ky-	.	1r	.	1r	.	.	.	.	.
.	.	.	.	.	16cc\LL|	.	16ee-\LL	.	.	.	.	.	.	.	.	.	.	.	.	.	.	.	.	.	.
8An\	.	.	.	.	16cc\|	.	16ee-\	.	.	.	.	.	.	.	.	.	.	.	.	.	.	.	.	.	.
.	.	.	.	.	16cc\JJ|	.	16ee-\JJ	.	.	.	.	.	16cc\	-ri-	16ee-\	-ri-	.	.	.	.	.	.	.	.	.
!	!	!	!LO:TX:t=P:problem=mixed beam	!	!	!	!	!	!	!	!	!	!	!	!	!	!	!	!	!	!	!	!	!	!
8B-\	5_ 3_	.	8b-\L	.	16r	.	16r	.	.	.	.	.	8b-\	-e	8ddn\	-e	.	.	.	.	.	.	.	.	.
.	.	.	.	.	16b-\LL|	.	16ddn\LL	.	.	.	.	.	.	.	.	.	.	.	.	.	.	.	.	.	.
8BB-/J	.	.	8B-/J	.	16b-\|	.	16dd\	.	.	.	.	.	16r	.	16r	.	.	.	.	.	.	.	.	.	.
.	.	.	.	.	16b-\JJ|	.	16dd\JJ	.	.	.	.	.	16b-\	e-	16dd\	e-	.	.	.	.	.	.	.	.	.
!LO:TX:t=P:problem=mixed beam	!	!	!	!	!	!	!	!	!	!	!	!	!	!	!	!	!	!	!	!	!	!	!	!	!
8F\L	7_ 5_	.	4f\	.	16r	.	16r	.	.	.	.	.	4cc\	-lei-	4ee-\	-lei-	.	.	.	.	.	.	.	.	.
.	.	.	.	.	16cc\LL|	.	16ee-\LL	.	.	.	.	.	.	.	.	.	.	.	.	.	.	.	.	.	.
8A\	.	.	.	.	16cc\|	.	16ee-\	.	.	.	.	.	.	.	.	.	.	.	.	.	.	.	.	.	.
.	.	.	.	.	16cc\JJ|	.	16ee-\JJ	.	.	.	.	.	.	.	.	.	.	.	.	.	.	.	.	.	.
!	!	!	!LO:TX:t=P:problem=mixed beam	!	!	!	!	!	!	!	!	!	!	!	!	!	!	!	!	!	!	!	!	!	!
8B-\	5_ 3_	.	8b-\L	.	16r	.	16r	.	.	.	.	.	8b-\	-ſon	8dd\	-son	.	.	.	.	.	.	.	.	.
*	*	*	*	*	*	*	*	*	*	*	*	*	*	*Xij	*	*	*	*	*	*	*	*	*	*	*
.	.	.	.	.	16b-\LL|	.	16dd\LL	.	.	.	.	.	.	.	.	.	.	.	.	.	.	.	.	.	.
8BB-/J	.	.	8B-/J	.	16b-\|	.	16dd\	.	.	.	.	.	8r	.	8r	.	.	.	.	.	.	.	.	.	.
.	.	.	.	.	16b-\JJ|	.	16dd\JJ	.	.	.	.	.	.	.	.	.	.	.	.	.	.	.	.	.	.
!	!	!	!	!	!	!	!	!	!	!	!	!	!LO:LB:g=original	!	!	!	!	!	!	!	!	!	!	!	!
=76	=76	=76	=76	=76	=76	=76	=76	=76	=76	=76	=76	=76	=76	=76	=76	=76	=76	=76	=76	=76	=76	=76	=76	=76	=76
*	*	*	*tremolo	*	*	*	*	*	*	*	*	*	*	*	*	*	*	*	*	*	*	*	*	*	*
!	!	!	!	!LO:DY:t=f.	!	!LO:DY:t=f	!	!	!	!	!	!	!	!	!	!	!	!	!LO:DY:rj:t=f	!	!	!	!	!	!
8BB-\L	-7_ 5_	.	16f\LL	f	16d/KL	f	16b-\KL	.	8.D\	Ky-	8.f\	Ky-	8.b-\	Ky-	8.aa-\	Ky-	.	8.B-/L	f	8.f\L	.	8.ff\L	.	8.aa-\L	.
!	!	!	!	!	!	!	!	!LO:DY:t=f.	!	!	!	!	!	!	!	!	!	!	!	!	!	!	!	!	!
.	.	.	16f\	.	8f/	.	8aa-\	f	.	.	.	.	.	.	.	.	.	.	.	.	.	.	.	.	.
8D\	.	.	16f\	.	.	.	.	.	.	.	.	.	.	.	.	.	.	.	.	.	.	.	.	.	.
.	.	.	16f\	.	8f/	.	8aa-\	.	16D\	-ri-	16f\	-ri-	16b-\	-ri-	16aa-\	-ri-	.	16B-/Jk	.	16f\Jk	.	16ff\K	.	16aa-\Jk	.
8D\	.	.	16f\	.	.	.	.	.	8D\	-e	8f\	-e	8b-\	-e	8aa-\	-e	.	4B-/	.	4f\	.	8ff\	.	8aa-\L	.
.	.	.	16f\	.	8f/	.	8aa-\	.	.	.	.	.	.	.	.	.	.	.	.	.	.	.	.	.	.
*	*	*	*	*	*	*	*	*	*	*	*	*	*	*	*	*	*	*	*	*	*	*	*	*custos:gg	*
8D\J	.	.	16f\	.	.	.	.	.	8D\	e-	8f\	e-	8b-\	e-	8aa-\	e-	.	.	.	.	.	8ff\J	.	8aa-\J	.
.	.	.	16f\JJ	.	16f/Jk	.	16aa-\Jk	.	.	.	.	.	.	.	.	.	.	.	.	.	.	.	.	.	.
*	*	*	*Xtremolo	*	*	*	*	*	*	*	*	*	*	*	*	*	*	*	*	*	*	*	*	*	*
!LO:LB:g=original	!	!	!	!	!LO:LB:g=original	!	!	!	!	!	!	!	!	!	!	!	!	!	!	!	!	!	!	!LO:LB:g=original	!
8E-\L	5_ 3_	.	8b-\L	.	8b-\L	.	8gg\L	.	8E-\	-lei-	8e-\	-lei-	8b-\	-lei-	8gg\	-lei-	.	8G/L	.	8e-\L	.	8ee-\L	.	8gg\L	.
8E-\J	.	.	8b-\J	.	8b-\J	.	8gg\J	.	8E-\	-ſon	8e-\	-son	8b-\	-ſon	8gg\	-son	.	8G/J	.	8e-\J	.	8ee-\J	.	8gg\J	.
4r	.	.	4r	.	4r	.	4r	.	4r	.	4r	.	4r	.	4r	.	.	4r	.	4r	.	4r	.	4r	.
!	!	!	!	!	!	!	!LO:LB:g=original	!	!	!	!	!	!	!	!	!	!	!	!	!	!	!LO:LB:g=original	!	!	!
=77	=77	=77	=77	=77	=77	=77	=77	=77	=77	=77	=77	=77	=77	=77	=77	=77	=77	=77	=77	=77	=77	=77	=77	=77	=77
!	!	!	!	!	!	!LO:DY:rj:t=p	!	!LO:DY:t=p	!	!	!	!	!	!	!	!	!	!	!	!	!	!	!	!	!
4B-\	.	.	8f\	.	8d/	p	8ff\	p	2r	.	2r	.	2r	.	2r	.	.	2r	.	2r	.	2r	.	2r	.
.	.	.	8r	.	8r	.	8r	.	.	.	.	.	.	.	.	.	.	.	.	.	.	.	.	.	.
8r	.	.	8a-\	.	8f/	.	8dd\	.	.	.	.	.	.	.	.	.	.	.	.	.	.	.	.	.	.
8BB-/	.	.	8r	.	8r	.	8r	.	.	.	.	.	.	.	.	.	.	.	.	.	.	.	.	.	.
!	!	!	!	!	!	!LO:DY:rj:t=f	!LO:TX:a:t=P:problem=mixed beam	!	!	!	!	!	!	!	!	!	!	!	!	!	!	!	!	!	!
8E-\L	.	.	8B-/L	.	8g/L	f	8ee-\L	.	4E-\	e-	4G/	e-	4b-\	e-	4ee-\	e-	.	8G/L	.	8e-\L	.	8b-\L	.	8ee-\L	.
!	!	!	!	!	!	!	!	!LO:DY:a:t=f.	!	!	!	!	!	!	!	!	!	!	!	!	!	!	!	!	!
8E-\	.	.	8B-/	.	8B-/	.	8e-/ 8G/	f	.	.	.	.	.	.	.	.	.	8G/	.	8e-\	.	8ee-\	.	8gg\	.
!	!	!	!	!LO:DY:t=f	!	!	!	!	!	!	!	!	!	!	!	!	!	!	!	!	!	!	!	!	!
8G\	.	.	8B-/	f	8B-/	.	8e-/ 8G/	.	4E-\	-lei-	4G/	-lei-	4b-\	-lei-	4ee-\	-lei-	.	8G/	.	8e-\	.	8ee-\	.	8gg\	.
8B-\J	.	.	8B-/J	.	8B-/J	.	8e-/J 8G/	.	.	.	.	.	.	.	.	.	.	8G/J	.	8e-\J	.	8ee-\J	.	8gg\J	.
=78	=78	=78	=78	=78	=78	=78	=78	=78	=78	=78	=78	=78	=78	=78	=78	=78	=78	=78	=78	=78	=78	=78	=78	=78	=78
2E-\	x	.	2B-/	.	2B-/	.	2e-/ 2G/	.	2E-\	-son,	2G/	-son	2b-\	-son	2ee-\	-ſon	.	2G/	.	2e-\	.	2ee-\	.	2gg\	.
2r	.	.	2r	.	2r	.	2r	.	2r	.	2r	.	2r	.	2r	.	.	2r	.	2r	.	2r	.	2r	.
==	==	==	==	==	==	==	==	==	==	==	==	==	==	==	==	==	==	==	==	==	==	==	==	==	==
*-	*-	*-	*-	*-	*-	*-	*-	*-	*-	*-	*-	*-	*-	*-	*-	*-	*-	*-	*-	*-	*-	*-	*-	*-	*-
!!!system-decoration: [(g1)][(g2)][(g3)][(g4)]s12
!!!RDF**dynam: f = "f:"
!!!RDF**dynam: p = "p:"
!!!RDF**dynam: < = "cres"
!!!RDF**kern: < = below
!!!RDF**kern: > = above
!!!RDF**kern: | = vertical stroke
!!!ENC: Andrzej Borzym
!!!END: 2020-08-01
!!!EED: Andrzej Borzym
!!!EEV: 2022-02-03
!!!YEC: Copyright 2022 Narodowy Instytut Fryderyka Chopina (https://polishscores.org)
!!!YEM: Licence CC BY 4.0 (https://creativecommons.org/licenses/by/4.0)
